; G-Code generated by Simplify3D(R) Version 3.1.1
; Feb 20, 2019 at 9:58:19 AM
; Settings Summary
;   processName,Process1
;   applyToModels,hosenrohr_ohne_versatz
;   profileName,Default (modified)
;   profileVersion,2015-05-01 08:00:00
;   baseProfile,
;   printMaterial,PLA
;   printQuality,High
;   printExtruders,
;   extruderName,Primary Extruder
;   extruderToolheadNumber,0
;   extruderDiameter,1
;   extruderAutoWidth,1
;   extruderWidth,1.2
;   extrusionMultiplier,0.9
;   extruderUseRetract,0
;   extruderRetractionDistance,1
;   extruderExtraRestartDistance,0
;   extruderRetractionZLift,0
;   extruderRetractionSpeed,1800
;   extruderUseCoasting,0
;   extruderCoastingDistance,0.2
;   extruderUseWipe,0
;   extruderWipeDistance,5
;   primaryExtruder,0
;   layerHeight,0.61
;   topSolidLayers,0
;   bottomSolidLayers,0
;   perimeterOutlines,1
;   printPerimetersInsideOut,1
;   startPointOption,2
;   startPointOriginX,0
;   startPointOriginY,0
;   startPointOriginZ,300
;   sequentialIslands,0
;   spiralVaseMode,1
;   firstLayerHeightPercentage,150
;   firstLayerWidthPercentage,100
;   firstLayerUnderspeed,1
;   useRaft,0
;   raftExtruder,0
;   raftLayers,3
;   raftOffset,3
;   raftSeparationDistance,0.14
;   raftInfill,85
;   disableRaftBaseLayers,0
;   useSkirt,0
;   skirtExtruder,0
;   skirtLayers,2
;   skirtOutlines,2
;   skirtOffset,4
;   usePrimePillar,0
;   primePillarExtruder,999
;   primePillarWidth,12
;   primePillarLocation,7
;   primePillarSpeedMultiplier,1
;   useOozeShield,0
;   oozeShieldExtruder,999
;   oozeShieldOffset,2
;   oozeShieldOutlines,1
;   oozeShieldSidewallShape,1
;   oozeShieldSidewallAngle,30
;   oozeShieldSpeedMultiplier,1
;   infillExtruder,0
;   internalInfillPattern,Rectilinear
;   externalInfillPattern,Rectilinear
;   infillPercentage,0
;   outlineOverlapPercentage,0
;   infillExtrusionWidthPercentage,100
;   minInfillLength,5
;   infillLayerInterval,1
;   infillAngles,0
;   overlapInfillAngles,0
;   generateSupport,0
;   supportExtruder,0
;   supportInfillPercentage,40
;   supportExtraInflation,0
;   denseSupportLayers,0
;   denseSupportInfillPercentage,70
;   supportLayerInterval,1
;   supportHorizontalPartOffset,0.3
;   supportUpperSeparationLayers,1
;   supportLowerSeparationLayers,1
;   supportType,0
;   supportGridSpacing,4
;   maxOverhangAngle,45
;   supportAngles,0
;   temperatureName,Primary Extruder
;   temperatureNumber,0
;   temperatureSetpointCount,1
;   temperatureSetpointLayers,1
;   temperatureSetpointTemperatures,0
;   temperatureStabilizeAtStartup,1
;   temperatureHeatedBed,0
;   temperatureRelayBetweenLayers,0
;   temperatureRelayBetweenLoops,0
;   fanLayers,1,2
;   fanSpeeds,0,100
;   blipFanToFullPower,0
;   adjustSpeedForCooling,0
;   minSpeedLayerTime,15
;   minCoolingSpeedSlowdown,20
;   increaseFanForCooling,0
;   minFanLayerTime,45
;   maxCoolingFanSpeed,100
;   increaseFanForBridging,0
;   bridgingFanSpeed,100
;   use5D,1
;   relativeEdistances,0
;   allowEaxisZeroing,1
;   independentExtruderAxes,0
;   includeM10123,0
;   stickySupport,1
;   applyToolheadOffsets,0
;   gcodeXoffset,0
;   gcodeYoffset,0
;   gcodeZoffset,0
;   overrideMachineDefinition,0
;   machineTypeOverride,0
;   strokeXoverride,200
;   strokeYoverride,200
;   strokeZoverride,200
;   originOffsetXoverride,0
;   originOffsetYoverride,0
;   originOffsetZoverride,0
;   homeXdirOverride,-1
;   homeYdirOverride,-1
;   homeZdirOverride,-1
;   flipXoverride,1
;   flipYoverride,-1
;   flipZoverride,1
;   toolheadOffsets,0,0|0,0|0,0|0,0|0,0|0,0
;   overrideFirmwareConfiguration,0
;   firmwareTypeOverride,RepRap (Marlin/Repetier/Sprinter)
;   GPXconfigOverride,r2
;   baudRateOverride,115200
;   overridePrinterModels,0
;   printerModelsOverride
;   startingGcode,G28 ; home all axes
;   layerChangeGcode,
;   retractionGcode,
;   toolChangeGcode,
;   endingGcode,M104 S0 ; turn off extruder,M140 S0 ; turn off bed,M84 ; disable motors
;   exportFileFormat,gcode
;   celebration,0
;   celebrationSong,Random Song
;   postProcessing,
;   defaultSpeed,600
;   outlineUnderspeed,1
;   solidInfillUnderspeed,0.8
;   supportUnderspeed,0.8
;   rapidXYspeed,4800
;   rapidZspeed,1000
;   minBridgingArea,40
;   bridgingExtraInflation,1
;   bridgingExtrusionMultiplier,1
;   bridgingSpeedMultiplier,1
;   filamentDiameter,1.75
;   filamentPricePerKg,46
;   filamentDensity,1.25
;   useMinPrintHeight,0
;   minPrintHeight,0
;   useMaxPrintHeight,0
;   maxPrintHeight,0
;   useDiaphragm,0
;   diaphragmLayerInterval,20
;   robustSlicing,0
;   mergeAllIntoSolid,1
;   onlyRetractWhenCrossingOutline,1
;   retractBetweenLayers,0
;   useRetractionMinTravel,0
;   retractionMinTravel,3
;   retractWhileWiping,0
;   onlyWipeOutlines,1
;   avoidCrossingOutline,0
;   maxMovementDetourFactor,3
;   toolChangeRetractionDistance,0
;   toolChangeExtraRestartDistance,0
;   toolChangeRetractionSpeed,600
;   allowThinWallGapFill,0
;   thinWallAllowedOverlapPercentage,0
;   horizontalSizeCompensation,0
G90
M82
M106 S0
M104 S0 T0
G28 ; home all axes
G92 E0
G1 E-1.0000 F1800
G1 Z0.000 F1000
; layer 1, Z = 0.915
T0
; tool H0.915 W1.200
; outer perimeter
G1 X-0.454 Y0.328 F4800
G1 E0.0000 F540
G92 E0
G1 X-4.023 Y1.652 Z0.000 E0.7888 F600
G1 X-5.839 Y4.932 Z0.008 E1.5721
G1 X-9.924 Y16.574 Z0.016 E4.2206
G1 X-10.007 Y16.909 Z0.041 E4.2948
G1 X-10.104 Y17.121 Z0.042 E4.3448
G1 X-18.076 Y26.372 Z0.042 E7.0388
G1 X-18.276 Y26.653 Z0.068 E7.1151
G1 X-18.444 Y26.815 Z0.068 E7.1665
G1 X-29.237 Y32.512 Z0.069 E9.9314
G1 X-29.526 Y32.701 Z0.094 E10.0097
G1 X-29.741 Y32.790 Z0.095 E10.0625
G1 X-41.876 Y34.153 Z0.095 E12.9011
G1 X-42.214 Y34.223 Z0.121 E12.9815
G1 X-42.447 Y34.227 Z0.121 E13.0357
G1 X-54.241 Y31.064 Z0.122 E15.9470
G1 X-54.581 Y31.006 Z0.147 E16.0294
G1 X-54.799 Y30.925 Z0.148 E16.0849
G1 X-64.619 Y23.675 Z0.148 E19.0676
G1 X-64.915 Y23.497 Z0.173 E19.1520
G1 X-65.088 Y23.342 Z0.174 E19.2089
G1 X-71.586 Y12.999 Z0.175 E22.2660
G1 X-71.796 Y12.725 Z0.200 E22.3525
G1 X-71.901 Y12.518 Z0.201 E22.4108
G1 X-74.171 Y0.520 Z0.201 E25.5396
G1 X-74.266 Y0.188 Z0.226 E25.6281
G1 X-74.288 Y-0.044 Z0.227 E25.6878
G1 X-72.018 Y-12.041 Z0.228 E28.8891
G1 X-71.986 Y-12.385 Z0.253 E28.9797
G1 X-71.914 Y-12.636 Z0.253 E29.0482
G1 X-71.783 Y-12.894 Z0.254 E29.1242
G1 X-65.286 Y-23.237 Z0.255 E32.4008
G1 X-65.109 Y-23.467 Z0.280 E32.4785
G1 X-64.894 Y-23.659 Z0.281 E32.5561
G1 X-55.074 Y-30.910 Z0.281 E35.9032
G1 X-54.826 Y-31.059 Z0.306 E35.9826
G1 X-54.555 Y-31.160 Z0.307 E36.0620
G1 X-42.760 Y-34.323 Z0.308 E39.4829
G1 X-42.475 Y-34.372 Z0.333 E39.5640
G1 X-42.186 Y-34.367 Z0.333 E39.6451
G1 X-30.051 Y-33.004 Z0.334 E43.1385
G1 X-29.768 Y-32.945 Z0.359 E43.2213
G1 X-29.500 Y-32.835 Z0.360 E43.3041
G1 X-18.706 Y-27.137 Z0.360 E46.8683
G1 X-18.464 Y-26.978 Z0.386 E46.9529
G1 X-18.256 Y-26.778 Z0.386 E47.0374
G1 X-10.284 Y-17.526 Z0.387 E50.6762
G1 X-10.116 Y-17.290 Z0.412 E50.7625
G1 X-9.995 Y-17.028 Z0.413 E50.8487
G1 X-5.955 Y-5.512 Z0.413 E54.5573
G1 X-5.853 Y-5.100 Z0.439 E54.6864
G1 X-4.023 Y-1.796 Z0.439 E55.8416
G1 X-0.454 Y-0.472 Z0.447 E57.0128
G1 X0.667 Y-0.472 Z0.455 E57.3580
G1 X4.237 Y-1.796 Z0.457 E58.5379
G1 X6.052 Y-5.076 Z0.465 E59.7062
G1 X10.137 Y-16.718 Z0.473 E63.6221
G1 X10.221 Y-17.053 Z0.499 E63.7317
G1 X10.318 Y-17.265 Z0.499 E63.8056
G1 X18.289 Y-26.516 Z0.500 E67.7539
G1 X18.489 Y-26.797 Z0.525 E67.8656
G1 X18.657 Y-26.959 Z0.526 E67.9409
G1 X29.451 Y-32.656 Z0.526 E71.9595
G1 X29.740 Y-32.845 Z0.552 E72.0732
G1 X29.955 Y-32.934 Z0.552 E72.1499
G1 X42.089 Y-34.297 Z0.553 E76.2428
G1 X42.427 Y-34.367 Z0.578 E76.3586
G1 X42.660 Y-34.371 Z0.579 E76.4366
G1 X54.454 Y-31.208 Z0.579 E80.6022
G1 X54.794 Y-31.150 Z0.604 E80.7200
G1 X55.013 Y-31.069 Z0.605 E80.7995
G1 X64.832 Y-23.819 Z0.606 E85.0358
G1 X65.128 Y-23.641 Z0.631 E85.1557
G1 X65.302 Y-23.486 Z0.632 E85.2366
G1 X71.799 Y-13.143 Z0.632 E89.5481
G1 X72.009 Y-12.869 Z0.657 E89.6701
G1 X72.114 Y-12.661 Z0.658 E89.7523
G1 X74.384 Y-0.664 Z0.659 E94.1353
G1 X74.480 Y-0.332 Z0.684 E94.2593
G1 X74.501 Y-0.100 Z0.685 E94.3428
G1 X72.231 Y11.897 Z0.685 E98.7983
G1 X72.199 Y12.241 Z0.710 E98.9244
G1 X72.127 Y12.492 Z0.711 E99.0197
G1 X71.996 Y12.750 Z0.712 E99.1254
G1 X65.499 Y23.093 Z0.712 E103.6566
G1 X65.323 Y23.323 Z0.737 E103.7640
G1 X65.107 Y23.515 Z0.738 E103.8714
G1 X55.287 Y30.766 Z0.739 E108.4722
G1 X55.039 Y30.915 Z0.764 E108.5813
G1 X54.768 Y31.016 Z0.764 E108.6903
G1 X42.973 Y34.179 Z0.765 E113.3655
G1 X42.688 Y34.228 Z0.790 E113.4763
G1 X42.399 Y34.223 Z0.791 E113.5872
G1 X30.264 Y32.860 Z0.792 E118.3347
G1 X29.981 Y32.801 Z0.817 E118.4472
G1 X29.714 Y32.691 Z0.817 E118.5598
G1 X18.920 Y26.993 Z0.818 E123.3776
G1 X18.678 Y26.834 Z0.843 E123.4919
G1 X18.469 Y26.634 Z0.844 E123.6062
G1 X10.497 Y17.382 Z0.844 E128.4993
G1 X10.330 Y17.146 Z0.870 E128.6153
G1 X10.209 Y16.884 Z0.870 E128.7313
G1 X6.168 Y5.368 Z0.871 E133.6933
G1 X6.066 Y4.956 Z0.896 E133.8660
G1 X4.237 Y1.652 Z0.897 E135.4091
G1 X0.667 Y0.328 Z0.905 E136.9714
G1 X-0.454 Y0.328 Z0.913 E137.4317
; layer 2, Z = 1.525
M106 S255
; tool H0.610 W1.200
; outer perimeter
G92 E0
G1 X-4.023 Y1.652 Z0.915 E1.0428 F600
G1 X-5.839 Y4.932 Z0.920 E2.0696
G1 X-9.513 Y15.405 Z0.925 E5.1095
G1 X-9.747 Y16.344 Z0.941 E5.3747
G1 X-10.105 Y17.121 Z0.942 E5.6090
G1 X-17.267 Y25.433 Z0.943 E8.6141
G1 X-17.828 Y26.222 Z0.958 E8.8793
G1 X-18.444 Y26.815 Z0.960 E9.1136
G1 X-28.141 Y31.934 Z0.961 E12.1170
G1 X-28.952 Y32.464 Z0.976 E12.3821
G1 X-29.742 Y32.791 Z0.977 E12.6164
G1 X-40.644 Y34.015 Z0.978 E15.6212
G1 X-41.592 Y34.212 Z0.994 E15.8863
G1 X-42.447 Y34.227 Z0.995 E16.1206
G1 X-53.043 Y31.385 Z0.996 E19.1255
G1 X-53.998 Y31.223 Z1.011 E19.3907
G1 X-54.800 Y30.925 Z1.013 E19.6250
G1 X-63.622 Y24.411 Z1.014 E22.6286
G1 X-64.451 Y23.911 Z1.029 E22.8938
G1 X-65.089 Y23.341 Z1.030 E23.1281
G1 X-70.926 Y14.049 Z1.031 E26.1337
G1 X-71.515 Y13.281 Z1.047 E26.3988
G1 X-71.901 Y12.517 Z1.048 E26.6331
G1 X-73.940 Y1.738 Z1.049 E29.6379
G1 X-74.208 Y0.808 Z1.064 E29.9030
G1 X-74.288 Y-0.044 Z1.066 E30.1373
G1 X-72.249 Y-10.823 Z1.067 E33.1421
G1 X-72.158 Y-11.787 Z1.082 E33.4072
G1 X-71.914 Y-12.636 Z1.083 E33.6493
G1 X-71.503 Y-13.450 Z1.084 E33.8991
G1 X-65.665 Y-22.742 Z1.086 E36.9048
G1 X-65.110 Y-23.466 Z1.101 E37.1546
G1 X-64.430 Y-24.074 Z1.102 E37.4044
G1 X-55.607 Y-30.588 Z1.103 E40.4082
G1 X-54.826 Y-31.059 Z1.118 E40.6580
G1 X-53.971 Y-31.376 Z1.120 E40.9078
G1 X-43.375 Y-34.219 Z1.121 E43.9128
G1 X-42.476 Y-34.372 Z1.136 E44.1626
G1 X-41.564 Y-34.355 Z1.137 E44.4124
G1 X-30.661 Y-33.131 Z1.139 E47.4173
G1 X-29.768 Y-32.945 Z1.154 E47.6671
G1 X-28.926 Y-32.597 Z1.155 E47.9169
G1 X-19.228 Y-27.478 Z1.156 E50.9204
G1 X-18.465 Y-26.979 Z1.171 E51.1702
G1 X-17.807 Y-26.346 Z1.173 E51.4200
G1 X-10.645 Y-18.034 Z1.174 E54.4253
G1 X-10.117 Y-17.291 Z1.189 E54.6751
G1 X-9.736 Y-16.462 Z1.190 E54.9249
G1 X-6.106 Y-6.117 Z1.191 E57.9279
G1 X-5.853 Y-5.100 Z1.207 E58.2148
G1 X-4.023 Y-1.796 Z1.208 E59.2493
G1 X-0.454 Y-0.472 Z1.213 E60.2921
G1 X0.667 Y-0.472 Z1.218 E60.5990
G1 X4.237 Y-1.796 Z1.220 E61.6418
G1 X6.052 Y-5.076 Z1.225 E62.6685
G1 X9.727 Y-15.549 Z1.230 E65.7085
G1 X9.961 Y-16.488 Z1.246 E65.9737
G1 X10.318 Y-17.265 Z1.247 E66.2080
G1 X17.480 Y-25.577 Z1.248 E69.2131
G1 X18.041 Y-26.366 Z1.263 E69.4782
G1 X18.657 Y-26.959 Z1.265 E69.7125
G1 X28.355 Y-32.078 Z1.266 E72.7160
G1 X29.165 Y-32.608 Z1.281 E72.9811
G1 X29.955 Y-32.934 Z1.282 E73.2154
G1 X40.857 Y-34.159 Z1.283 E76.2202
G1 X41.805 Y-34.356 Z1.299 E76.4853
G1 X42.660 Y-34.371 Z1.300 E76.7196
G1 X53.257 Y-31.529 Z1.301 E79.7245
G1 X54.211 Y-31.367 Z1.316 E79.9896
G1 X55.013 Y-31.069 Z1.318 E80.2239
G1 X63.835 Y-24.555 Z1.319 E83.2276
G1 X64.664 Y-24.055 Z1.334 E83.4928
G1 X65.302 Y-23.485 Z1.335 E83.7271
G1 X71.140 Y-14.193 Z1.336 E86.7326
G1 X71.729 Y-13.425 Z1.352 E86.9978
G1 X72.114 Y-12.661 Z1.353 E87.2321
G1 X74.154 Y-1.882 Z1.354 E90.2369
G1 X74.421 Y-0.952 Z1.369 E90.5020
G1 X74.501 Y-0.100 Z1.371 E90.7363
G1 X72.462 Y10.679 Z1.372 E93.7410
G1 X72.371 Y11.643 Z1.387 E94.0062
G1 X72.127 Y12.492 Z1.388 E94.2483
G1 X71.716 Y13.306 Z1.389 E94.4981
G1 X65.878 Y22.599 Z1.391 E97.5038
G1 X65.323 Y23.322 Z1.406 E97.7536
G1 X64.643 Y23.930 Z1.407 E98.0034
G1 X55.820 Y30.444 Z1.408 E101.0072
G1 X55.039 Y30.915 Z1.423 E101.2570
G1 X54.185 Y31.232 Z1.425 E101.5067
G1 X43.588 Y34.075 Z1.426 E104.5118
G1 X42.689 Y34.228 Z1.441 E104.7616
G1 X41.777 Y34.211 Z1.442 E105.0114
G1 X30.875 Y32.987 Z1.444 E108.0163
G1 X29.982 Y32.801 Z1.459 E108.2661
G1 X29.139 Y32.453 Z1.460 E108.5158
G1 X19.441 Y27.334 Z1.461 E111.5194
G1 X18.678 Y26.835 Z1.476 E111.7692
G1 X18.020 Y26.202 Z1.478 E112.0190
G1 X10.858 Y17.890 Z1.479 E115.0242
G1 X10.330 Y17.147 Z1.494 E115.2740
G1 X9.949 Y16.318 Z1.495 E115.5238
G1 X6.319 Y5.973 Z1.496 E118.5269
G1 X6.066 Y4.956 Z1.512 E118.8137
G1 X4.237 Y1.652 Z1.513 E119.8482
G1 X0.667 Y0.328 Z1.518 E120.8910
G1 X-0.454 Y0.328 Z1.523 E121.1979
; layer 3, Z = 2.135
; outer perimeter
G92 E0
G1 X-4.023 Y1.652 Z1.525 E1.0428 F600
G1 X-5.839 Y4.932 Z1.530 E2.0696
G1 X-9.185 Y14.469 Z1.535 E4.8380
G1 X-9.539 Y15.892 Z1.549 E5.2396
G1 X-10.105 Y17.122 Z1.551 E5.6103
G1 X-16.619 Y24.682 Z1.553 E8.3437
G1 X-17.469 Y25.877 Z1.567 E8.7453
G1 X-18.444 Y26.815 Z1.569 E9.1160
G1 X-27.265 Y31.471 Z1.571 E11.8478
G1 X-28.492 Y32.273 Z1.585 E12.2494
G1 X-29.743 Y32.791 Z1.587 E12.6202
G1 X-39.659 Y33.904 Z1.588 E15.3532
G1 X-41.094 Y34.203 Z1.602 E15.7548
G1 X-42.448 Y34.227 Z1.604 E16.1255
G1 X-52.086 Y31.642 Z1.606 E18.8587
G1 X-53.531 Y31.396 Z1.620 E19.2603
G1 X-54.800 Y30.925 Z1.622 E19.6310
G1 X-62.825 Y25.000 Z1.624 E22.3631
G1 X-64.080 Y24.243 Z1.638 E22.7647
G1 X-65.089 Y23.341 Z1.640 E23.1354
G1 X-70.399 Y14.889 Z1.641 E25.8692
G1 X-71.291 Y13.726 Z1.655 E26.2708
G1 X-71.901 Y12.517 Z1.657 E26.6415
G1 X-73.756 Y2.713 Z1.659 E29.3745
G1 X-74.162 Y1.304 Z1.673 E29.7761
G1 X-74.288 Y-0.044 Z1.675 E30.1469
G1 X-72.433 Y-9.848 Z1.677 E32.8799
G1 X-72.296 Y-11.308 Z1.690 E33.2815
G1 X-71.914 Y-12.636 Z1.692 E33.6600
G1 X-71.278 Y-13.895 Z1.694 E34.0463
G1 X-65.969 Y-22.347 Z1.696 E36.7802
G1 X-65.110 Y-23.466 Z1.710 E37.1664
G1 X-64.059 Y-24.406 Z1.712 E37.5527
G1 X-56.034 Y-30.331 Z1.714 E40.2848
G1 X-54.826 Y-31.059 Z1.728 E40.6711
G1 X-53.505 Y-31.550 Z1.730 E41.0573
G1 X-43.866 Y-34.135 Z1.732 E43.7906
G1 X-42.476 Y-34.372 Z1.745 E44.1768
G1 X-41.066 Y-34.346 Z1.747 E44.5630
G1 X-31.150 Y-33.233 Z1.749 E47.2962
G1 X-29.769 Y-32.946 Z1.763 E47.6825
G1 X-28.466 Y-32.407 Z1.765 E48.0687
G1 X-19.645 Y-27.750 Z1.767 E50.8006
G1 X-18.465 Y-26.979 Z1.781 E51.1869
G1 X-17.448 Y-26.001 Z1.783 E51.5731
G1 X-10.934 Y-18.441 Z1.784 E54.3066
G1 X-10.117 Y-17.291 Z1.798 E54.6928
G1 X-9.528 Y-16.010 Z1.800 E55.0791
G1 X-6.226 Y-6.600 Z1.802 E57.8106
G1 X-5.853 Y-5.100 Z1.816 E58.2338
G1 X-4.023 Y-1.796 Z1.818 E59.2684
G1 X-0.454 Y-0.472 Z1.823 E60.3112
G1 X0.667 Y-0.472 Z1.828 E60.6181
G1 X4.236 Y-1.796 Z1.830 E61.6608
G1 X6.052 Y-5.076 Z1.835 E62.6876
G1 X9.398 Y-14.613 Z1.840 E65.4560
G1 X9.753 Y-16.036 Z1.854 E65.8576
G1 X10.318 Y-17.266 Z1.856 E66.2284
G1 X16.832 Y-24.826 Z1.858 E68.9617
G1 X17.682 Y-26.021 Z1.872 E69.3633
G1 X18.657 Y-26.959 Z1.874 E69.7341
G1 X27.478 Y-31.615 Z1.876 E72.4659
G1 X28.705 Y-32.417 Z1.890 E72.8675
G1 X29.956 Y-32.935 Z1.892 E73.2382
G1 X39.872 Y-34.048 Z1.893 E75.9713
G1 X41.308 Y-34.347 Z1.907 E76.3729
G1 X42.661 Y-34.371 Z1.909 E76.7436
G1 X52.299 Y-31.786 Z1.911 E79.4767
G1 X53.744 Y-31.540 Z1.925 E79.8783
G1 X55.013 Y-31.069 Z1.927 E80.2491
G1 X63.038 Y-25.144 Z1.929 E82.9811
G1 X64.293 Y-24.387 Z1.943 E83.3827
G1 X65.302 Y-23.485 Z1.945 E83.7535
G1 X70.612 Y-15.033 Z1.946 E86.4872
G1 X71.504 Y-13.870 Z1.960 E86.8888
G1 X72.114 Y-12.661 Z1.962 E87.2596
G1 X73.969 Y-2.857 Z1.964 E89.9926
G1 X74.375 Y-1.448 Z1.978 E90.3942
G1 X74.501 Y-0.100 Z1.980 E90.7649
G1 X72.646 Y9.704 Z1.982 E93.4980
G1 X72.509 Y11.164 Z1.995 E93.8996
G1 X72.127 Y12.492 Z1.997 E94.2781
G1 X71.492 Y13.751 Z1.999 E94.6643
G1 X66.182 Y22.203 Z2.001 E97.3982
G1 X65.324 Y23.322 Z2.015 E97.7845
G1 X64.272 Y24.262 Z2.017 E98.1707
G1 X56.247 Y30.186 Z2.019 E100.9029
