; G-Code generated by Simplify3D(R) Version 3.1.1
; Apr 12, 2019 at 11:46:56 AM
; Settings Summary
;   processName,Gutroff_Olli
;   applyToModels,block_bohrung
;   profileName,Default (modified)
;   profileVersion,2015-05-01 08:00:00
;   baseProfile,
;   printMaterial,PLA
;   printQuality,High
;   printExtruders,
;   extruderName,Primary Extruder
;   extruderToolheadNumber,0
;   extruderDiameter,1
;   extruderAutoWidth,0
;   extruderWidth,2.4
;   extrusionMultiplier,1
;   extruderUseRetract,0
;   extruderRetractionDistance,0
;   extruderExtraRestartDistance,0
;   extruderRetractionZLift,5
;   extruderRetractionSpeed,1800
;   extruderUseCoasting,0
;   extruderCoastingDistance,0.2
;   extruderUseWipe,0
;   extruderWipeDistance,5
;   primaryExtruder,0
;   layerHeight,1.5
;   topSolidLayers,0
;   bottomSolidLayers,0
;   perimeterOutlines,1
;   printPerimetersInsideOut,0
;   startPointOption,1
;   startPointOriginX,0
;   startPointOriginY,0
;   startPointOriginZ,300
;   sequentialIslands,0
;   spiralVaseMode,0
;   firstLayerHeightPercentage,100
;   firstLayerWidthPercentage,100
;   firstLayerUnderspeed,1
;   useRaft,0
;   raftExtruder,0
;   raftLayers,3
;   raftOffset,3
;   raftSeparationDistance,0.14
;   raftInfill,85
;   disableRaftBaseLayers,0
;   useSkirt,0
;   skirtExtruder,0
;   skirtLayers,2
;   skirtOutlines,2
;   skirtOffset,4
;   usePrimePillar,0
;   primePillarExtruder,999
;   primePillarWidth,12
;   primePillarLocation,7
;   primePillarSpeedMultiplier,1
;   useOozeShield,0
;   oozeShieldExtruder,999
;   oozeShieldOffset,2
;   oozeShieldOutlines,1
;   oozeShieldSidewallShape,1
;   oozeShieldSidewallAngle,30
;   oozeShieldSpeedMultiplier,1
;   infillExtruder,0
;   internalInfillPattern,Rectilinear
;   externalInfillPattern,Rectilinear
;   infillPercentage,100
;   outlineOverlapPercentage,20
;   infillExtrusionWidthPercentage,100
;   minInfillLength,4
;   infillLayerInterval,1
;   infillAngles,45,-45
;   overlapInfillAngles,0
;   generateSupport,0
;   supportExtruder,0
;   supportInfillPercentage,40
;   supportExtraInflation,0
;   denseSupportLayers,0
;   denseSupportInfillPercentage,70
;   supportLayerInterval,1
;   supportHorizontalPartOffset,0.3
;   supportUpperSeparationLayers,1
;   supportLowerSeparationLayers,1
;   supportType,0
;   supportGridSpacing,4
;   maxOverhangAngle,45
;   supportAngles,0
;   temperatureName,Primary Extruder
;   temperatureNumber,0
;   temperatureSetpointCount,1
;   temperatureSetpointLayers,1
;   temperatureSetpointTemperatures,0
;   temperatureStabilizeAtStartup,1
;   temperatureHeatedBed,0
;   temperatureRelayBetweenLayers,0
;   temperatureRelayBetweenLoops,0
;   fanLayers,1,2
;   fanSpeeds,0,100
;   blipFanToFullPower,0
;   adjustSpeedForCooling,0
;   minSpeedLayerTime,15
;   minCoolingSpeedSlowdown,20
;   increaseFanForCooling,0
;   minFanLayerTime,45
;   maxCoolingFanSpeed,100
;   increaseFanForBridging,0
;   bridgingFanSpeed,100
;   use5D,1
;   relativeEdistances,0
;   allowEaxisZeroing,1
;   independentExtruderAxes,0
;   includeM10123,0
;   stickySupport,1
;   applyToolheadOffsets,0
;   gcodeXoffset,0
;   gcodeYoffset,0
;   gcodeZoffset,0
;   overrideMachineDefinition,0
;   machineTypeOverride,0
;   strokeXoverride,200
;   strokeYoverride,200
;   strokeZoverride,200
;   originOffsetXoverride,0
;   originOffsetYoverride,0
;   originOffsetZoverride,0
;   homeXdirOverride,-1
;   homeYdirOverride,-1
;   homeZdirOverride,-1
;   flipXoverride,1
;   flipYoverride,-1
;   flipZoverride,1
;   toolheadOffsets,0,0|0,0|0,0|0,0|0,0|0,0
;   overrideFirmwareConfiguration,0
;   firmwareTypeOverride,RepRap (Marlin/Repetier/Sprinter)
;   GPXconfigOverride,r2
;   baudRateOverride,115200
;   overridePrinterModels,0
;   printerModelsOverride
;   startingGcode,##Start
;   layerChangeGcode,#LayerChange
;   retractionGcode,#Retraction
;   toolChangeGcode,
;   endingGcode,##End
;   exportFileFormat,gcode
;   celebration,0
;   celebrationSong,Random Song
;   postProcessing,
;   defaultSpeed,600
;   outlineUnderspeed,1
;   solidInfillUnderspeed,0.8
;   supportUnderspeed,0.8
;   rapidXYspeed,4800
;   rapidZspeed,1000
;   minBridgingArea,40
;   bridgingExtraInflation,1
;   bridgingExtrusionMultiplier,1
;   bridgingSpeedMultiplier,1
;   filamentDiameter,1.75
;   filamentPricePerKg,46
;   filamentDensity,1.25
;   useMinPrintHeight,0
;   minPrintHeight,0
;   useMaxPrintHeight,0
;   maxPrintHeight,0
;   useDiaphragm,0
;   diaphragmLayerInterval,3
;   robustSlicing,0
;   mergeAllIntoSolid,0
;   onlyRetractWhenCrossingOutline,1
;   retractBetweenLayers,0
;   useRetractionMinTravel,0
;   retractionMinTravel,3
;   retractWhileWiping,0
;   onlyWipeOutlines,1
;   avoidCrossingOutline,0
;   maxMovementDetourFactor,3
;   toolChangeRetractionDistance,0
;   toolChangeExtraRestartDistance,0
;   toolChangeRetractionSpeed,600
;   allowThinWallGapFill,1
;   thinWallAllowedOverlapPercentage,50
;   horizontalSizeCompensation,0
G90
M82
M106 S0
M104 S0 T0
##Start
G92 E0
#Retraction
G1 E0.0000 F1800
G1 Z6.500 F1000
; layer 1, Z = 1.5
#LayerChange
T0
; tool H1.500 W2.400
; outer perimeter
G1 X18.935 Y1.378 F4800
G1 Z1.500 F1000
G1 E0.0000 F540
G92 E0
G1 X18.935 Y18.978 E26.3420 F600
G1 X1.335 Y18.978 E52.6841
G1 X1.335 Y1.378 E79.0261
G1 X18.935 Y1.378 E105.3681
; infill
G1 X16.284 Y3.298 F4800
G92 E0
G1 X17.015 Y4.029 E1.5463 F600
G1 X17.015 Y7.423 E6.6263
G1 X12.890 Y3.298 E15.3568
G1 X9.496 Y3.298 E20.4368
G1 X17.015 Y10.817 E36.3515
G1 X17.015 Y14.211 E41.4315
G1 X6.102 Y3.298 E64.5304
G1 X3.255 Y3.298 E68.7917
G1 X3.255 Y3.845 E69.6104
G1 X16.468 Y17.058 E97.5778
G1 X13.073 Y17.058 E102.6578
G1 X3.255 Y7.239 E123.4411
G1 X3.255 Y10.633 E128.5211
G1 X9.679 Y17.058 E142.1202
G1 X6.285 Y17.058 E147.2002
G1 X3.255 Y14.028 E153.6151
; outer perimeter
G1 X48.935 Y18.978 F4800
G92 E0
G1 X31.335 Y18.978 E26.3420 F600
G1 X31.335 Y1.378 E52.6841
G1 X48.935 Y1.378 E79.0261
G1 X48.935 Y18.978 E105.3681
; infill
G1 X33.438 Y17.058 F4800
G92 E0
G1 X33.255 Y16.875 E0.3885 F600
G1 X33.255 Y13.481 E5.4685
G1 X36.832 Y17.058 E13.0413
G1 X40.226 Y17.058 E18.1213
G1 X33.255 Y10.086 E32.8782
G1 X33.255 Y6.692 E37.9582
G1 X43.620 Y17.058 E59.8993
G1 X47.015 Y17.058 E64.9792
G1 X33.255 Y3.298 E94.1045
G1 X36.649 Y3.298 E99.1845
G1 X47.015 Y13.664 E121.1255
G1 X47.015 Y10.270 E126.2055
G1 X40.043 Y3.298 E140.9624
G1 X43.437 Y3.298 E146.0424
G1 X47.015 Y6.876 E153.6150
G1 X47.015 Y3.482 E158.6950
G1 X46.831 Y3.298 E159.0835
; outer perimeter
G1 X78.935 Y18.978 F4800
G92 E0
G1 X61.335 Y18.978 E26.3420 F600
G1 X61.335 Y1.378 E52.6841
G1 X78.935 Y1.378 E79.0261
G1 X78.935 Y18.978 E105.3681
; infill
G1 X63.255 Y16.328 F4800
G92 E0
G1 X63.985 Y17.058 E1.5464 F600
G1 X67.379 Y17.058 E6.6264
G1 X63.255 Y12.934 E15.3569
G1 X63.255 Y9.539 E20.4369
G1 X70.773 Y17.058 E36.3517
G1 X74.167 Y17.058 E41.4317
G1 X63.255 Y6.145 E64.5306
G1 X63.255 Y3.298 E68.7919
G1 X63.802 Y3.298 E69.6106
G1 X77.015 Y16.511 E97.5780
G1 X77.015 Y13.117 E102.6580
G1 X67.196 Y3.298 E123.4412
G1 X70.590 Y3.298 E128.5212
G1 X77.015 Y9.723 E142.1202
G1 X77.015 Y6.329 E147.2002
G1 X73.984 Y3.298 E153.6151
; layer 2, Z = 3
M106 S255
#LayerChange
; outer perimeter
G1 X61.335 Y1.378 F4800
G1 Z3.000 F1000
G92 E0
G1 X78.935 Y1.378 E26.3420 F600
G1 X78.935 Y18.978 E52.6841
G1 X61.335 Y18.978 E79.0261
G1 X61.335 Y1.378 E105.3681
; infill
G1 X63.255 Y4.029 F4800
G92 E0
G1 X63.985 Y3.298 E1.5464 F600
G1 X67.379 Y3.298 E6.6264
G1 X63.255 Y7.423 E15.3570
G1 X63.255 Y10.817 E20.4370
G1 X70.773 Y3.298 E36.3518
G1 X74.168 Y3.298 E41.4318
G1 X63.255 Y14.211 E64.5308
G1 X63.255 Y17.058 E68.7920
G1 X63.802 Y17.058 E69.6108
G1 X77.015 Y3.845 E97.5782
G1 X77.015 Y7.239 E102.6582
G1 X67.196 Y17.058 E123.4413
G1 X70.590 Y17.058 E128.5213
G1 X77.015 Y10.634 E142.1203
G1 X77.015 Y14.028 E147.2003
G1 X73.984 Y17.058 E153.6151
; outer perimeter
G1 X48.935 Y18.978 F4800
G92 E0
G1 X31.335 Y18.978 E26.3420 F600
G1 X31.335 Y1.378 E52.6841
G1 X48.935 Y1.378 E79.0261
G1 X48.935 Y18.978 E105.3681
; infill
G1 X47.015 Y16.875 F4800
G92 E0
G1 X46.831 Y17.058 E0.3884 F600
G1 X43.437 Y17.058 E5.4684
G1 X47.015 Y13.481 E13.0410
G1 X47.015 Y10.086 E18.1210
G1 X40.043 Y17.058 E32.8779
G1 X36.649 Y17.058 E37.9578
G1 X47.015 Y6.692 E59.8988
G1 X47.015 Y3.298 E64.9788
G1 X33.255 Y17.058 E94.1040
G1 X33.255 Y13.664 E99.1840
G1 X43.621 Y3.298 E121.1251
G1 X40.226 Y3.298 E126.2051
G1 X33.255 Y10.270 E140.9621
G1 X33.255 Y6.876 E146.0421
G1 X36.832 Y3.298 E153.6148
G1 X33.438 Y3.298 E158.6948
G1 X33.255 Y3.482 E159.0834
; outer perimeter
G1 X1.335 Y18.978 F4800
G92 E0
G1 X1.335 Y1.378 E26.3420 F600
G1 X18.935 Y1.378 E52.6841
G1 X18.935 Y18.978 E79.0261
G1 X1.335 Y18.978 E105.3681
; infill
G1 X3.255 Y6.329 F4800
G92 E0
G1 X6.285 Y3.298 E6.4149 F600
G1 X9.679 Y3.298 E11.4949
G1 X3.255 Y9.723 E25.0941
G1 X3.255 Y13.117 E30.1740
G1 X13.073 Y3.298 E50.9574
G1 X16.468 Y3.298 E56.0373
G1 X3.255 Y16.511 E84.0049
G1 X3.255 Y17.058 E84.8235
G1 X6.102 Y17.058 E89.0848
G1 X17.015 Y6.145 E112.1837
G1 X17.015 Y9.539 E117.2637
G1 X9.496 Y17.058 E133.1783
G1 X12.890 Y17.058 E138.2583
G1 X17.015 Y12.934 E146.9888
G1 X17.015 Y16.328 E152.0688
G1 X16.284 Y17.058 E153.6151
; layer 3, Z = 4.5
#LayerChange
; outer perimeter
G1 X18.935 Y1.378 F4800
G1 Z4.500 F1000
G92 E0
G1 X18.935 Y18.978 E26.3420 F600
G1 X1.335 Y18.978 E52.6841
G1 X1.335 Y1.378 E79.0261
G1 X18.935 Y1.378 E105.3681
; infill
G1 X16.284 Y3.298 F4800
G92 E0
G1 X17.015 Y4.029 E1.5463 F600
G1 X17.015 Y7.423 E6.6263
G1 X12.890 Y3.298 E15.3568
G1 X9.496 Y3.298 E20.4368
G1 X17.015 Y10.817 E36.3515
G1 X17.015 Y14.211 E41.4315
G1 X6.102 Y3.298 E64.5304
G1 X3.255 Y3.298 E68.7917
G1 X3.255 Y3.845 E69.6104
G1 X16.468 Y17.058 E97.5778
G1 X13.073 Y17.058 E102.6578
G1 X3.255 Y7.239 E123.4411
G1 X3.255 Y10.633 E128.5211
G1 X9.679 Y17.058 E142.1202
G1 X6.285 Y17.058 E147.2002
G1 X3.255 Y14.028 E153.6151
; outer perimeter
G1 X48.935 Y1.378 F4800
G92 E0
G1 X48.935 Y18.978 E26.3420 F600
G1 X31.335 Y18.978 E52.6841
G1 X31.335 Y1.378 E79.0261
G1 X48.935 Y1.378 E105.3681
; infill
G1 X46.831 Y3.298 F4800
G92 E0
G1 X47.015 Y3.482 E0.3885 F600
G1 X47.015 Y6.876 E5.4685
G1 X43.437 Y3.298 E13.0411
G1 X40.043 Y3.298 E18.1211
G1 X47.015 Y10.270 E32.8780
G1 X47.015 Y13.664 E37.9580
G1 X36.649 Y3.298 E59.8990
G1 X33.255 Y3.298 E64.9790
G1 X47.015 Y17.058 E94.1043
G1 X43.620 Y17.058 E99.1842
G1 X33.255 Y6.692 E121.1253
G1 X33.255 Y10.086 E126.2053
G1 X40.226 Y17.058 E140.9622
G1 X36.832 Y17.058 E146.0422
G1 X33.255 Y13.481 E153.6150
G1 X33.255 Y16.875 E158.6950
G1 X33.438 Y17.058 E159.0835
; outer perimeter
G1 X61.335 Y1.378 F4800
G92 E0
G1 X78.935 Y1.378 E26.3420 F600
G1 X78.935 Y18.978 E52.6841
G1 X61.335 Y18.978 E79.0261
G1 X61.335 Y1.378 E105.3681
; infill
G1 X73.984 Y3.298 F4800
G92 E0
G1 X77.015 Y6.329 E6.4148 F600
G1 X77.015 Y9.723 E11.4948
G1 X70.590 Y3.298 E25.0938
G1 X67.196 Y3.298 E30.1738
G1 X77.015 Y13.117 E50.9570
G1 X77.015 Y16.511 E56.0370
G1 X63.802 Y3.298 E84.0044
G1 X63.255 Y3.298 E84.8232
G1 X63.255 Y6.145 E89.0844
G1 X74.167 Y17.058 E112.1834
G1 X70.773 Y17.058 E117.2634
G1 X63.255 Y9.539 E133.1781
G1 X63.255 Y12.934 E138.2581
G1 X67.379 Y17.058 E146.9887
G1 X63.985 Y17.058 E152.0687
G1 X63.255 Y16.328 E153.6151
; layer 4, Z = 6
#LayerChange
; outer perimeter
G1 X78.935 Y18.978 F4800
G1 Z6.000 F1000
G92 E0
G1 X61.335 Y18.978 E26.3420 F600
G1 X61.335 Y1.378 E52.6841
G1 X78.935 Y1.378 E79.0261
G1 X78.935 Y18.978 E105.3681
; infill
G1 X73.984 Y17.058 F4800
G92 E0
G1 X77.015 Y14.028 E6.4148 F600
G1 X77.015 Y10.634 E11.4948
G1 X70.590 Y17.058 E25.0937
G1 X67.196 Y17.058 E30.1737
G1 X77.015 Y7.239 E50.9569
G1 X77.015 Y3.845 E56.0369
G1 X63.802 Y17.058 E84.0042
G1 X63.255 Y17.058 E84.8230
G1 X63.255 Y14.211 E89.0842
G1 X74.168 Y3.298 E112.1832
G1 X70.773 Y3.298 E117.2632
G1 X63.255 Y10.817 E133.1780
G1 X63.255 Y7.423 E138.2580
G1 X67.379 Y3.298 E146.9886
G1 X63.985 Y3.298 E152.0686
G1 X63.255 Y4.029 E153.6151
; outer perimeter
G1 X48.935 Y18.978 F4800
G92 E0
G1 X31.335 Y18.978 E26.3420 F600
G1 X31.335 Y1.378 E52.6841
G1 X48.935 Y1.378 E79.0261
G1 X48.935 Y18.978 E105.3681
; infill
G1 X47.015 Y16.875 F4800
G92 E0
G1 X46.831 Y17.058 E0.3884 F600
G1 X43.437 Y17.058 E5.4684
G1 X47.015 Y13.481 E13.0410
G1 X47.015 Y10.086 E18.1210
G1 X40.043 Y17.058 E32.8779
G1 X36.649 Y17.058 E37.9578
G1 X47.015 Y6.692 E59.8988
G1 X47.015 Y3.298 E64.9788
G1 X33.255 Y17.058 E94.1040
G1 X33.255 Y13.664 E99.1840
G1 X43.621 Y3.298 E121.1251
G1 X40.226 Y3.298 E126.2051
G1 X33.255 Y10.270 E140.9621
G1 X33.255 Y6.876 E146.0421
G1 X36.832 Y3.298 E153.6148
G1 X33.438 Y3.298 E158.6948
G1 X33.255 Y3.482 E159.0834
; outer perimeter
G1 X1.335 Y18.978 F4800
G92 E0
G1 X1.335 Y1.378 E26.3420 F600
G1 X18.935 Y1.378 E52.6841
G1 X18.935 Y18.978 E79.0261
G1 X1.335 Y18.978 E105.3681
; infill
G1 X3.255 Y6.329 F4800
G92 E0
G1 X6.285 Y3.298 E6.4149 F600
G1 X9.679 Y3.298 E11.4949
G1 X3.255 Y9.723 E25.0941
G1 X3.255 Y13.117 E30.1740
G1 X13.073 Y3.298 E50.9574
G1 X16.468 Y3.298 E56.0373
G1 X3.255 Y16.511 E84.0049
G1 X3.255 Y17.058 E84.8235
G1 X6.102 Y17.058 E89.0848
G1 X17.015 Y6.145 E112.1837
G1 X17.015 Y9.539 E117.2637
G1 X9.496 Y17.058 E133.1783
G1 X12.890 Y17.058 E138.2583
G1 X17.015 Y12.934 E146.9888
G1 X17.015 Y16.328 E152.0688
G1 X16.284 Y17.058 E153.6151
; layer 5, Z = 7.5
#LayerChange
; outer perimeter
G1 X1.335 Y1.378 F4800
G1 Z7.500 F1000
G92 E0
G1 X18.935 Y1.378 E26.3420 F600
G1 X18.935 Y18.978 E52.6841
G1 X1.335 Y18.978 E79.0261
G1 X1.335 Y1.378 E105.3681
; infill
G1 X3.255 Y14.028 F4800
G92 E0
G1 X6.285 Y17.058 E6.4149 F600
G1 X9.679 Y17.058 E11.4949
G1 X3.255 Y10.633 E25.0940
G1 X3.255 Y7.239 E30.1739
G1 X13.073 Y17.058 E50.9572
G1 X16.468 Y17.058 E56.0372
G1 X3.255 Y3.845 E84.0047
G1 X3.255 Y3.298 E84.8234
G1 X6.102 Y3.298 E89.0847
G1 X17.015 Y14.211 E112.1835
G1 X17.015 Y10.817 E117.2635
G1 X9.496 Y3.298 E133.1782
G1 X12.890 Y3.298 E138.2582
G1 X17.015 Y7.423 E146.9887
G1 X17.015 Y4.029 E152.0687
G1 X16.284 Y3.298 E153.6151
; outer perimeter
G1 X48.935 Y18.978 F4800
G92 E0
G1 X31.335 Y18.978 E26.3420 F600
G1 X31.335 Y1.378 E52.6841
G1 X48.935 Y1.378 E79.0261
G1 X48.935 Y18.978 E105.3681
; infill
G1 X33.438 Y17.058 F4800
G92 E0
G1 X33.255 Y16.875 E0.3885 F600
G1 X33.255 Y13.481 E5.4685
G1 X36.832 Y17.058 E13.0413
G1 X40.226 Y17.058 E18.1213
G1 X33.255 Y10.086 E32.8782
G1 X33.255 Y6.692 E37.9582
G1 X43.620 Y17.058 E59.8993
G1 X47.015 Y17.058 E64.9792
G1 X33.255 Y3.298 E94.1045
G1 X36.649 Y3.298 E99.1845
G1 X47.015 Y13.664 E121.1255
G1 X47.015 Y10.270 E126.2055
G1 X40.043 Y3.298 E140.9624
G1 X43.437 Y3.298 E146.0424
G1 X47.015 Y6.876 E153.6150
G1 X47.015 Y3.482 E158.6950
G1 X46.831 Y3.298 E159.0835
; outer perimeter
G1 X78.935 Y1.378 F4800
G92 E0
G1 X78.935 Y18.978 E26.3420 F600
G1 X61.335 Y18.978 E52.6841
G1 X61.335 Y1.378 E79.0261
G1 X78.935 Y1.378 E105.3681
; infill
G1 X73.984 Y3.298 F4800
G92 E0
G1 X77.015 Y6.329 E6.4148 F600
G1 X77.015 Y9.723 E11.4948
G1 X70.590 Y3.298 E25.0938
G1 X67.196 Y3.298 E30.1738
G1 X77.015 Y13.117 E50.9570
G1 X77.015 Y16.511 E56.0370
G1 X63.802 Y3.298 E84.0044
G1 X63.255 Y3.298 E84.8232
G1 X63.255 Y6.145 E89.0844
G1 X74.167 Y17.058 E112.1834
G1 X70.773 Y17.058 E117.2634
G1 X63.255 Y9.539 E133.1781
G1 X63.255 Y12.934 E138.2581
G1 X67.379 Y17.058 E146.9887
G1 X63.985 Y17.058 E152.0687
G1 X63.255 Y16.328 E153.6151
; layer end
##End
; Build Summary
;   Build time: 0 hours 4 minutes
;   Filament length: 3912.1 mm (3.91 m)
;   Plastic volume: 9409.68 mm^3 (9.41 cc)
;   Plastic weight: 11.76 g (0.03 lb)
;   Material cost: 0.54
