; G-Code generated by Simplify3D(R) Version 3.1.1
; Apr 12, 2019 at 2:44:52 PM
; Settings Summary
;   processName,Gutroff_Olli(1)
;   applyToModels,block_dreieck
;   profileName,Default (modified)
;   profileVersion,2015-05-01 08:00:00
;   baseProfile,
;   printMaterial,PLA
;   printQuality,High
;   printExtruders,
;   extruderName,Primary Extruder
;   extruderToolheadNumber,0
;   extruderDiameter,1
;   extruderAutoWidth,0
;   extruderWidth,2.4
;   extrusionMultiplier,1
;   extruderUseRetract,0
;   extruderRetractionDistance,0
;   extruderExtraRestartDistance,0
;   extruderRetractionZLift,5
;   extruderRetractionSpeed,1800
;   extruderUseCoasting,0
;   extruderCoastingDistance,0.2
;   extruderUseWipe,0
;   extruderWipeDistance,5
;   primaryExtruder,0
;   layerHeight,2.5
;   topSolidLayers,0
;   bottomSolidLayers,0
;   perimeterOutlines,0
;   printPerimetersInsideOut,0
;   startPointOption,1
;   startPointOriginX,0
;   startPointOriginY,0
;   startPointOriginZ,300
;   sequentialIslands,0
;   spiralVaseMode,0
;   firstLayerHeightPercentage,100
;   firstLayerWidthPercentage,100
;   firstLayerUnderspeed,1
;   useRaft,0
;   raftExtruder,0
;   raftLayers,3
;   raftOffset,3
;   raftSeparationDistance,0.14
;   raftInfill,85
;   disableRaftBaseLayers,0
;   useSkirt,0
;   skirtExtruder,0
;   skirtLayers,2
;   skirtOutlines,2
;   skirtOffset,4
;   usePrimePillar,0
;   primePillarExtruder,999
;   primePillarWidth,12
;   primePillarLocation,7
;   primePillarSpeedMultiplier,1
;   useOozeShield,0
;   oozeShieldExtruder,999
;   oozeShieldOffset,2
;   oozeShieldOutlines,1
;   oozeShieldSidewallShape,1
;   oozeShieldSidewallAngle,30
;   oozeShieldSpeedMultiplier,1
;   infillExtruder,0
;   internalInfillPattern,Rectilinear
;   externalInfillPattern,Rectilinear
;   infillPercentage,100
;   outlineOverlapPercentage,99
;   infillExtrusionWidthPercentage,100
;   minInfillLength,4
;   infillLayerInterval,1
;   infillAngles,60,-60,0
;   overlapInfillAngles,0
;   generateSupport,0
;   supportExtruder,0
;   supportInfillPercentage,40
;   supportExtraInflation,0
;   denseSupportLayers,0
;   denseSupportInfillPercentage,70
;   supportLayerInterval,1
;   supportHorizontalPartOffset,0.3
;   supportUpperSeparationLayers,1
;   supportLowerSeparationLayers,1
;   supportType,0
;   supportGridSpacing,4
;   maxOverhangAngle,45
;   supportAngles,0
;   temperatureName,Primary Extruder
;   temperatureNumber,0
;   temperatureSetpointCount,1
;   temperatureSetpointLayers,1
;   temperatureSetpointTemperatures,0
;   temperatureStabilizeAtStartup,1
;   temperatureHeatedBed,0
;   temperatureRelayBetweenLayers,0
;   temperatureRelayBetweenLoops,0
;   fanLayers,1,2
;   fanSpeeds,0,100
;   blipFanToFullPower,0
;   adjustSpeedForCooling,0
;   minSpeedLayerTime,15
;   minCoolingSpeedSlowdown,20
;   increaseFanForCooling,0
;   minFanLayerTime,45
;   maxCoolingFanSpeed,100
;   increaseFanForBridging,0
;   bridgingFanSpeed,100
;   use5D,1
;   relativeEdistances,0
;   allowEaxisZeroing,1
;   independentExtruderAxes,0
;   includeM10123,0
;   stickySupport,1
;   applyToolheadOffsets,0
;   gcodeXoffset,0
;   gcodeYoffset,0
;   gcodeZoffset,0
;   overrideMachineDefinition,0
;   machineTypeOverride,0
;   strokeXoverride,200
;   strokeYoverride,200
;   strokeZoverride,200
;   originOffsetXoverride,0
;   originOffsetYoverride,0
;   originOffsetZoverride,0
;   homeXdirOverride,-1
;   homeYdirOverride,-1
;   homeZdirOverride,-1
;   flipXoverride,1
;   flipYoverride,-1
;   flipZoverride,1
;   toolheadOffsets,0,0|0,0|0,0|0,0|0,0|0,0
;   overrideFirmwareConfiguration,0
;   firmwareTypeOverride,RepRap (Marlin/Repetier/Sprinter)
;   GPXconfigOverride,r2
;   baudRateOverride,115200
;   overridePrinterModels,0
;   printerModelsOverride
;   startingGcode,##Start
;   layerChangeGcode,#LayerChange
;   retractionGcode,#Retraction
;   toolChangeGcode,
;   endingGcode,##End
;   exportFileFormat,gcode
;   celebration,0
;   celebrationSong,Random Song
;   postProcessing,
;   defaultSpeed,600
;   outlineUnderspeed,1
;   solidInfillUnderspeed,0.8
;   supportUnderspeed,0.8
;   rapidXYspeed,4800
;   rapidZspeed,1000
;   minBridgingArea,40
;   bridgingExtraInflation,1
;   bridgingExtrusionMultiplier,1
;   bridgingSpeedMultiplier,1
;   filamentDiameter,1.75
;   filamentPricePerKg,46
;   filamentDensity,1.25
;   useMinPrintHeight,0
;   minPrintHeight,0
;   useMaxPrintHeight,0
;   maxPrintHeight,0
;   useDiaphragm,0
;   diaphragmLayerInterval,3
;   robustSlicing,0
;   mergeAllIntoSolid,0
;   onlyRetractWhenCrossingOutline,1
;   retractBetweenLayers,0
;   useRetractionMinTravel,0
;   retractionMinTravel,3
;   retractWhileWiping,0
;   onlyWipeOutlines,1
;   avoidCrossingOutline,0
;   maxMovementDetourFactor,3
;   toolChangeRetractionDistance,0
;   toolChangeExtraRestartDistance,0
;   toolChangeRetractionSpeed,600
;   allowThinWallGapFill,1
;   thinWallAllowedOverlapPercentage,50
;   horizontalSizeCompensation,0
G90
M82
M106 S0
M104 S0 T0
##Start
G92 E0
#Retraction
G1 E0.0000 F1800
G1 Z7.500 F1000
; layer 1, Z = 2.5
#LayerChange
T0
; tool H2.500 W2.400
; infill
G1 X28.330 Y15.307 F4800
G1 Z2.500 F1000
G1 E0.0000 F540
G92 E0
G1 X38.692 Y33.254 E51.6947 F600
G1 X38.692 Y38.054 E63.6683
G1 X26.945 Y17.707 E122.2760
G1 X25.559 Y20.107 E129.1890
G1 X36.299 Y38.709 E182.7705
G1 X33.528 Y38.709 E189.6835
G1 X24.174 Y22.507 E236.3520
G1 X22.788 Y24.907 E243.2650
G1 X30.757 Y38.709 E283.0205
G1 X27.985 Y38.709 E289.9335
G1 X21.402 Y27.307 E322.7760
G1 X3.044 Y38.709 F4800
G92 E0
G1 X1.140 Y35.412 E9.4967 F600
G1 X1.140 Y30.612 E21.4704
G1 X5.815 Y38.709 E44.7931
G1 X8.586 Y38.709 E51.7061
G1 X1.140 Y25.812 E88.8548
G1 X1.140 Y21.012 E100.8284
G1 X11.358 Y38.709 E151.8031
G1 X14.129 Y38.709 E158.7161
G1 X1.140 Y16.212 E223.5167
G1 X1.140 Y11.412 E235.4904
G1 X16.900 Y38.709 E314.1170
G1 X19.671 Y38.709 E321.0300
G1 X1.140 Y6.612 E413.4826
G1 X1.140 Y1.812 E425.4562
G1 X22.443 Y38.709 E531.7348
G1 X25.214 Y38.709 E538.6478
G1 X20.017 Y29.707 E564.5773
G1 X19.916 Y29.881 E565.0785
G1 X11.301 Y14.959 E608.0601
G1 X11.502 Y14.959 E608.5613
G1 X3.533 Y1.157 E648.3167
G1 X6.305 Y1.157 E655.2297
G1 X14.273 Y14.959 E694.9851
G1 X17.044 Y14.959 E701.8981
G1 X9.076 Y1.157 E741.6535
G1 X11.847 Y1.157 E748.5665
G1 X19.816 Y14.959 E788.3219
G1 X22.587 Y14.959 E795.2349
G1 X14.618 Y1.157 E834.9903
G1 X17.390 Y1.157 E841.9033
G1 X25.358 Y14.959 E881.6588
G1 X28.130 Y14.959 E888.5717
G1 X20.161 Y1.157 E928.3272
G1 X22.932 Y1.157 E935.2402
G1 X38.692 Y28.454 E1013.8666
G1 X38.692 Y23.654 E1025.8402
G1 X25.704 Y1.157 E1090.6407
G1 X28.475 Y1.157 E1097.5537
G1 X38.692 Y18.854 E1148.5282
G1 X38.692 Y14.054 E1160.5018
G1 X31.246 Y1.157 E1197.6503
G1 X34.017 Y1.157 E1204.5633
G1 X38.692 Y9.254 E1227.8859
G1 X38.692 Y4.454 E1239.8595
G1 X36.789 Y1.157 E1249.3561
; layer 2, Z = 5
M106 S255
#LayerChange
; infill
G1 X25.559 Y14.959 F4800
G1 Z5.000 F1000
G92 E0
G1 X33.528 Y1.157 E39.7554 F600
G1 X30.757 Y1.157 E46.6684
G1 X22.788 Y14.959 E86.4238
G1 X20.017 Y14.959 E93.3368
G1 X27.985 Y1.157 E133.0922
G1 X25.214 Y1.157 E140.0052
G1 X17.245 Y14.959 E179.7606
G1 X14.474 Y14.959 E186.6736
G1 X22.443 Y1.157 E226.4291
G1 X19.671 Y1.157 E233.3420
G1 X11.703 Y14.959 E273.0975
G1 X1.140 Y4.454 F4800
G92 E0
G1 X3.044 Y1.157 E9.4968 F600
G1 X5.815 Y1.157 E16.4098
G1 X1.140 Y9.254 E39.7326
G1 X1.140 Y14.054 E51.7062
G1 X8.586 Y1.157 E88.8550
G1 X11.358 Y1.157 E95.7680
G1 X1.140 Y18.854 E146.7428
G1 X1.140 Y23.654 E158.7164
G1 X14.129 Y1.157 E223.5171
G1 X16.900 Y1.157 E230.4301
G1 X1.140 Y28.454 E309.0568
G1 X1.140 Y33.254 E321.0305
G1 X11.502 Y15.307 E372.7253
G1 X12.888 Y17.707 E379.6383
G1 X1.140 Y38.054 E438.2460
G1 X1.140 Y38.709 E439.8798
G1 X3.533 Y38.709 E445.8495
G1 X14.273 Y20.107 E499.4309
G1 X15.659 Y22.507 E506.3438
G1 X6.305 Y38.709 E553.0122
G1 X9.076 Y38.709 E559.9252
G1 X17.044 Y24.907 E599.6805
G1 X18.430 Y27.307 E606.5935
G1 X11.847 Y38.709 E639.4358
G1 X14.618 Y38.709 E646.3488
G1 X19.816 Y29.707 E672.2782
G1 X19.916 Y29.881 E672.7793
G1 X28.531 Y14.959 E715.7608
G1 X28.331 Y14.959 E716.2618
G1 X36.299 Y1.157 E756.0173
G1 X38.692 Y1.157 E761.9868
G1 X38.692 Y1.812 E763.6209
G1 X17.390 Y38.709 E869.8992
G1 X20.161 Y38.709 E876.8122
G1 X38.692 Y6.612 E969.2645
G1 X38.692 Y11.412 E981.2382
G1 X22.932 Y38.709 E1059.8645
G1 X25.704 Y38.709 E1066.7775
G1 X38.692 Y16.212 E1131.5779
G1 X38.692 Y21.012 E1143.5516
G1 X28.475 Y38.709 E1194.5260
G1 X31.246 Y38.709 E1201.4389
G1 X38.692 Y25.812 E1238.5874
G1 X38.692 Y30.612 E1250.5610
G1 X34.017 Y38.709 E1273.8835
G1 X36.789 Y38.709 E1280.7964
G1 X38.692 Y35.412 E1290.2929
; layer 3, Z = 7.5
#LayerChange
; infill
G1 X38.692 Y36.733 F4800
G1 Z7.500 F1000
G92 E0
G1 X1.140 Y36.733 E93.6738 F600
G1 X1.140 Y34.333 E99.6606
G1 X38.692 Y34.333 E193.3345
G1 X38.692 Y31.933 E199.3213
G1 X1.140 Y31.933 E292.9951
G1 X1.140 Y29.533 E298.9819
G1 X19.715 Y29.533 E345.3177
G1 X18.330 Y27.133 E352.2307
G1 X1.140 Y27.133 E395.1099
G1 X1.140 Y24.733 E401.0967
G1 X16.944 Y24.733 E440.5195
G1 X15.558 Y22.333 E447.4325
G1 X1.140 Y22.333 E483.3987
G1 X1.140 Y19.933 E489.3855
G1 X14.173 Y19.933 E521.8953
G1 X12.787 Y17.533 E528.8083
G1 X1.140 Y17.533 E557.8615
G1 X1.140 Y15.133 E563.8484
G1 X11.401 Y15.133 E589.4451
G1 X11.301 Y14.959 E589.9464
G1 X28.531 Y14.959 E632.9279
G1 X28.431 Y15.133 E633.4291
G1 X38.692 Y15.133 E659.0259
G1 X38.692 Y12.733 E665.0128
G1 X1.140 Y12.733 E758.6866
G1 X1.140 Y10.333 E764.6734
G1 X38.692 Y10.333 E858.3472
G1 X38.692 Y7.933 E864.3341
G1 X1.140 Y7.933 E958.0079
G1 X1.140 Y5.533 E963.9947
G1 X38.692 Y5.533 E1057.6685
G1 X38.692 Y3.133 E1063.6553
G1 X1.140 Y3.133 E1157.3292
G1 X27.045 Y17.533 F4800
G92 E0
G1 X38.692 Y17.533 E29.0533 F600
G1 X38.692 Y19.933 E35.0401
G1 X25.660 Y19.933 E67.5499
G1 X24.274 Y22.333 E74.4629
G1 X38.692 Y22.333 E110.4292
G1 X38.692 Y24.733 E116.4160
G1 X22.888 Y24.733 E155.8388
G1 X21.503 Y27.133 E162.7518
G1 X38.692 Y27.133 E205.6311
G1 X38.692 Y29.533 E211.6179
G1 X20.117 Y29.533 E257.9537
; layer 4, Z = 10
#LayerChange
; infill
G1 X21.402 Y27.307 F4800
G1 Z10.000 F1000
G92 E0
G1 X27.985 Y38.709 E32.8425 F600
G1 X30.757 Y38.709 E39.7555
G1 X22.788 Y24.907 E79.5110
G1 X24.174 Y22.507 E86.4240
G1 X33.528 Y38.709 E133.0925
G1 X36.299 Y38.709 E140.0055
G1 X25.559 Y20.107 E193.5870
G1 X26.945 Y17.707 E200.5000
G1 X38.692 Y38.054 E259.1077
G1 X38.692 Y33.254 E271.0813
G1 X28.330 Y15.307 E322.7760
G1 X36.789 Y1.157 F4800
G92 E0
G1 X38.692 Y4.454 E9.4965 F600
G1 X38.692 Y9.254 E21.4702
G1 X34.017 Y1.157 E44.7927
G1 X31.246 Y1.157 E51.7057
G1 X38.692 Y14.054 E88.8542
G1 X38.692 Y18.854 E100.8279
G1 X28.475 Y1.157 E151.8024
G1 X25.704 Y1.157 E158.7153
G1 X38.692 Y23.654 E223.5158
G1 X38.692 Y28.454 E235.4895
G1 X22.932 Y1.157 E314.1159
G1 X20.161 Y1.157 E321.0289
G1 X28.130 Y14.959 E360.7843
G1 X25.358 Y14.959 E367.6973
G1 X17.390 Y1.157 E407.4527
G1 X14.618 Y1.157 E414.3657
G1 X22.587 Y14.959 E454.1211
G1 X19.816 Y14.959 E461.0341
G1 X11.847 Y1.157 E500.7895
G1 X9.076 Y1.157 E507.7025
G1 X17.044 Y14.959 E547.4579
G1 X14.273 Y14.959 E554.3709
G1 X6.305 Y1.157 E594.1264
G1 X3.533 Y1.157 E601.0393
G1 X11.502 Y14.959 E640.7948
G1 X11.301 Y14.959 E641.2960
G1 X19.916 Y29.881 E684.2775
G1 X20.017 Y29.707 E684.7788
G1 X25.214 Y38.709 E710.7083
G1 X22.443 Y38.709 E717.6213
G1 X1.140 Y1.812 E823.8998
G1 X1.140 Y6.612 E835.8735
G1 X19.671 Y38.709 E928.3261
G1 X16.900 Y38.709 E935.2391
G1 X1.140 Y11.412 E1013.8657
G1 X1.140 Y16.212 E1025.8394
G1 X14.129 Y38.709 E1090.6400
G1 X11.358 Y38.709 E1097.5530
G1 X1.140 Y21.012 E1148.5277
G1 X1.140 Y25.812 E1160.5013
G1 X8.586 Y38.709 E1197.6500
G1 X5.815 Y38.709 E1204.5630
G1 X1.140 Y30.612 E1227.8857
G1 X1.140 Y35.412 E1239.8593
G1 X3.044 Y38.709 E1249.3561
; layer end
##End
; Build Summary
;   Build time: 0 hours 4 minutes
;   Filament length: 6122.9 mm (6.12 m)
;   Plastic volume: 14727.39 mm^3 (14.73 cc)
;   Plastic weight: 18.41 g (0.04 lb)
;   Material cost: 0.85
