; G-Code generated by Simplify3D(R) Version 3.1.1
; Apr 12, 2019 at 2:22:09 PM
; Settings Summary
;   processName,Gutroff_Olli(1)
;   applyToModels,block_bohrung_q40_r10
;   profileName,Default (modified)
;   profileVersion,2015-05-01 08:00:00
;   baseProfile,
;   printMaterial,PLA
;   printQuality,High
;   printExtruders,
;   extruderName,Primary Extruder
;   extruderToolheadNumber,0
;   extruderDiameter,1
;   extruderAutoWidth,0
;   extruderWidth,2.4
;   extrusionMultiplier,1
;   extruderUseRetract,0
;   extruderRetractionDistance,0
;   extruderExtraRestartDistance,0
;   extruderRetractionZLift,5
;   extruderRetractionSpeed,1800
;   extruderUseCoasting,0
;   extruderCoastingDistance,0.2
;   extruderUseWipe,0
;   extruderWipeDistance,5
;   primaryExtruder,0
;   layerHeight,2.5
;   topSolidLayers,0
;   bottomSolidLayers,0
;   perimeterOutlines,2
;   printPerimetersInsideOut,0
;   startPointOption,1
;   startPointOriginX,0
;   startPointOriginY,0
;   startPointOriginZ,300
;   sequentialIslands,0
;   spiralVaseMode,0
;   firstLayerHeightPercentage,100
;   firstLayerWidthPercentage,100
;   firstLayerUnderspeed,1
;   useRaft,0
;   raftExtruder,0
;   raftLayers,3
;   raftOffset,3
;   raftSeparationDistance,0.14
;   raftInfill,85
;   disableRaftBaseLayers,0
;   useSkirt,0
;   skirtExtruder,0
;   skirtLayers,2
;   skirtOutlines,2
;   skirtOffset,4
;   usePrimePillar,0
;   primePillarExtruder,999
;   primePillarWidth,12
;   primePillarLocation,7
;   primePillarSpeedMultiplier,1
;   useOozeShield,0
;   oozeShieldExtruder,999
;   oozeShieldOffset,2
;   oozeShieldOutlines,1
;   oozeShieldSidewallShape,1
;   oozeShieldSidewallAngle,30
;   oozeShieldSpeedMultiplier,1
;   infillExtruder,0
;   internalInfillPattern,Rectilinear
;   externalInfillPattern,Rectilinear
;   infillPercentage,100
;   outlineOverlapPercentage,20
;   infillExtrusionWidthPercentage,100
;   minInfillLength,4
;   infillLayerInterval,1
;   infillAngles,45,-45
;   overlapInfillAngles,0
;   generateSupport,0
;   supportExtruder,0
;   supportInfillPercentage,40
;   supportExtraInflation,0
;   denseSupportLayers,0
;   denseSupportInfillPercentage,70
;   supportLayerInterval,1
;   supportHorizontalPartOffset,0.3
;   supportUpperSeparationLayers,1
;   supportLowerSeparationLayers,1
;   supportType,0
;   supportGridSpacing,4
;   maxOverhangAngle,45
;   supportAngles,0
;   temperatureName,Primary Extruder
;   temperatureNumber,0
;   temperatureSetpointCount,1
;   temperatureSetpointLayers,1
;   temperatureSetpointTemperatures,0
;   temperatureStabilizeAtStartup,1
;   temperatureHeatedBed,0
;   temperatureRelayBetweenLayers,0
;   temperatureRelayBetweenLoops,0
;   fanLayers,1,2
;   fanSpeeds,0,100
;   blipFanToFullPower,0
;   adjustSpeedForCooling,0
;   minSpeedLayerTime,15
;   minCoolingSpeedSlowdown,20
;   increaseFanForCooling,0
;   minFanLayerTime,45
;   maxCoolingFanSpeed,100
;   increaseFanForBridging,0
;   bridgingFanSpeed,100
;   use5D,1
;   relativeEdistances,0
;   allowEaxisZeroing,1
;   independentExtruderAxes,0
;   includeM10123,0
;   stickySupport,1
;   applyToolheadOffsets,0
;   gcodeXoffset,0
;   gcodeYoffset,0
;   gcodeZoffset,0
;   overrideMachineDefinition,0
;   machineTypeOverride,0
;   strokeXoverride,200
;   strokeYoverride,200
;   strokeZoverride,200
;   originOffsetXoverride,0
;   originOffsetYoverride,0
;   originOffsetZoverride,0
;   homeXdirOverride,-1
;   homeYdirOverride,-1
;   homeZdirOverride,-1
;   flipXoverride,1
;   flipYoverride,-1
;   flipZoverride,1
;   toolheadOffsets,0,0|0,0|0,0|0,0|0,0|0,0
;   overrideFirmwareConfiguration,0
;   firmwareTypeOverride,RepRap (Marlin/Repetier/Sprinter)
;   GPXconfigOverride,r2
;   baudRateOverride,115200
;   overridePrinterModels,0
;   printerModelsOverride
;   startingGcode,##Start
;   layerChangeGcode,#LayerChange
;   retractionGcode,#Retraction
;   toolChangeGcode,
;   endingGcode,##End
;   exportFileFormat,gcode
;   celebration,0
;   celebrationSong,Random Song
;   postProcessing,
;   defaultSpeed,600
;   outlineUnderspeed,1
;   solidInfillUnderspeed,0.8
;   supportUnderspeed,0.8
;   rapidXYspeed,4800
;   rapidZspeed,1000
;   minBridgingArea,40
;   bridgingExtraInflation,1
;   bridgingExtrusionMultiplier,1
;   bridgingSpeedMultiplier,1
;   filamentDiameter,1.75
;   filamentPricePerKg,46
;   filamentDensity,1.25
;   useMinPrintHeight,0
;   minPrintHeight,0
;   useMaxPrintHeight,0
;   maxPrintHeight,0
;   useDiaphragm,0
;   diaphragmLayerInterval,3
;   robustSlicing,0
;   mergeAllIntoSolid,0
;   onlyRetractWhenCrossingOutline,1
;   retractBetweenLayers,0
;   useRetractionMinTravel,0
;   retractionMinTravel,3
;   retractWhileWiping,0
;   onlyWipeOutlines,1
;   avoidCrossingOutline,0
;   maxMovementDetourFactor,3
;   toolChangeRetractionDistance,0
;   toolChangeExtraRestartDistance,0
;   toolChangeRetractionSpeed,600
;   allowThinWallGapFill,1
;   thinWallAllowedOverlapPercentage,50
;   horizontalSizeCompensation,0
G90
M82
M106 S0
M104 S0 T0
##Start
G92 E0
#Retraction
G1 E0.0000 F1800
G1 Z7.500 F1000
; layer 1, Z = 2.5
#LayerChange
T0
; tool H2.500 W2.400
; outer perimeter
G1 X38.877 Y1.192 F4800
G1 Z2.500 F1000
G1 E0.0000 F540
G92 E0
G1 X38.877 Y38.792 E93.7936 F600
G1 X1.277 Y38.792 E187.5871
G1 X1.277 Y1.192 E281.3807
G1 X38.877 Y1.192 E375.1743
; inner perimeter
G1 X36.477 Y3.592 F4800
G92 E0
G1 X36.477 Y36.392 E81.8199 F600
G1 X3.677 Y36.392 E163.6398
G1 X3.677 Y3.592 E245.4597
G1 X36.477 Y3.592 E327.2796
; outer perimeter
G1 X25.483 Y16.870 F4800
G92 E0
G1 X23.198 Y14.586 E8.0601 F600
G1 X20.077 Y13.750 E16.1191
G1 X16.957 Y14.586 E24.1782
G1 X14.672 Y16.870 E32.2383
G1 X13.835 Y19.992 E40.3001
G1 X14.672 Y23.113 E48.3620
G1 X16.957 Y25.398 E56.4221
G1 X20.077 Y26.234 E64.4812
G1 X23.198 Y25.398 E72.5402
G1 X25.483 Y23.113 E80.6003
G1 X26.320 Y19.992 E88.6622
G1 X25.483 Y16.870 E96.7240
; inner perimeter
G1 X27.635 Y15.627 F4800
G92 E0
G1 X24.440 Y12.434 E11.2684 F600
G1 X20.077 Y11.265 E22.5353
G1 X15.715 Y12.434 E33.8021
G1 X12.520 Y15.627 E45.0705
G1 X11.350 Y19.992 E56.3412
G1 X12.520 Y24.356 E67.6120
G1 X15.715 Y27.550 E78.8804
G1 X20.077 Y28.719 E90.1473
G1 X24.440 Y27.550 E101.4141
G1 X27.635 Y24.356 E112.6825
G1 X28.805 Y19.992 E123.9533
G1 X27.635 Y15.627 E135.2240
; infill
G1 X29.744 Y16.082 F4800
G92 E0
G1 X34.557 Y20.895 E16.9791 F600
G1 X34.557 Y24.289 E25.4457
G1 X30.680 Y20.412 E39.1255
G1 X29.962 Y23.088 E46.0382
G1 X34.557 Y27.683 E62.2488
G1 X34.557 Y31.078 E70.7154
G1 X29.093 Y25.613 E89.9929
G1 X27.396 Y27.310 E95.9797
G1 X34.557 Y34.472 E121.2448
G1 X31.163 Y34.472 E129.7114
G1 X25.698 Y29.007 E148.9903
G1 X25.434 Y29.271 E149.9232
G1 X23.174 Y29.877 E155.7591
G1 X27.769 Y34.472 E171.9695
G1 X24.375 Y34.472 E180.4361
G1 X20.497 Y30.594 E194.1166
G1 X7.405 Y34.472 F4800
G92 E0
G1 X5.597 Y32.665 E6.3751 F600
G1 X5.597 Y29.270 E14.8417
G1 X10.799 Y34.472 E33.1904
G1 X14.193 Y34.472 E41.6571
G1 X5.597 Y25.876 E71.9794
G1 X5.597 Y22.482 E80.4461
G1 X17.587 Y34.472 E122.7421
G1 X20.981 Y34.472 E131.2087
G1 X16.168 Y29.659 E148.1870
G1 X14.721 Y29.271 E151.9247
G1 X10.799 Y25.350 E165.7597
G1 X10.410 Y23.901 E169.5013
G1 X5.597 Y19.088 E186.4804
G1 X5.597 Y15.694 E194.9470
G1 X9.475 Y19.572 E208.6267
G1 X10.193 Y16.895 E215.5395
G1 X5.597 Y12.300 E231.7500
G1 X5.597 Y8.906 E240.2167
G1 X11.062 Y14.370 E259.4942
G1 X12.759 Y12.673 E265.4810
G1 X5.597 Y5.512 E290.7460
G1 X8.992 Y5.512 E299.2127
G1 X14.456 Y10.977 E318.4915
G1 X14.721 Y10.712 E319.4244
G1 X16.981 Y10.107 E325.2603
G1 X12.386 Y5.512 E341.4707
G1 X15.780 Y5.512 E349.9373
G1 X19.658 Y9.390 E363.6178
G1 X20.077 Y9.277 E364.7017
G1 X23.987 Y10.324 E374.7971
G1 X19.174 Y5.512 E391.7754
G1 X22.568 Y5.512 E400.2420
G1 X34.557 Y17.501 E442.5379
G1 X34.557 Y14.107 E451.0046
G1 X25.962 Y5.512 E481.3268
G1 X29.356 Y5.512 E489.7935
G1 X34.557 Y10.713 E508.1421
G1 X34.557 Y7.319 E516.6088
G1 X32.750 Y5.512 E522.9837
; layer 2, Z = 5
M106 S255
#LayerChange
; outer perimeter
G1 X38.877 Y38.792 F4800
G1 Z5.000 F1000
G92 E0
G1 X1.277 Y38.792 E93.7936 F600
G1 X1.277 Y1.192 E187.5871
G1 X38.877 Y1.192 E281.3807
G1 X38.877 Y38.792 E375.1743
; inner perimeter
G1 X36.477 Y36.392 F4800
G92 E0
G1 X3.677 Y36.392 E81.8199 F600
G1 X3.677 Y3.592 E163.6398
G1 X36.477 Y3.592 E245.4597
G1 X36.477 Y36.392 E327.2796
; outer perimeter
G1 X25.483 Y23.113 F4800
G92 E0
G1 X26.320 Y19.992 E8.0619 F600
G1 X25.483 Y16.870 E16.1237
G1 X23.198 Y14.586 E24.1838
G1 X20.077 Y13.750 E32.2428
G1 X16.957 Y14.586 E40.3019
G1 X14.672 Y16.870 E48.3620
G1 X13.835 Y19.992 E56.4238
G1 X14.672 Y23.113 E64.4857
G1 X16.957 Y25.398 E72.5458
G1 X20.077 Y26.234 E80.6048
G1 X23.198 Y25.398 E88.6639
G1 X25.483 Y23.113 E96.7240
; inner perimeter
G1 X27.635 Y24.356 F4800
G92 E0
G1 X28.805 Y19.992 E11.2708 F600
G1 X27.635 Y15.627 E22.5415
G1 X24.440 Y12.434 E33.8099
G1 X20.077 Y11.265 E45.0767
G1 X15.715 Y12.434 E56.3436
G1 X12.520 Y15.627 E67.6120
G1 X11.350 Y19.992 E78.8827
G1 X12.520 Y24.356 E90.1535
G1 X15.715 Y27.550 E101.4219
G1 X20.077 Y28.719 E112.6888
G1 X24.440 Y27.550 E123.9556
G1 X27.635 Y24.356 E135.2240
; infill
G1 X30.680 Y19.572 F4800
G92 E0
G1 X34.557 Y15.694 E13.6797 F600
G1 X34.557 Y12.300 E22.1463
G1 X29.962 Y16.895 E38.3569
G1 X29.356 Y14.633 E44.1976
G1 X29.093 Y14.370 E45.1260
G1 X34.557 Y8.906 E64.4034
G1 X34.557 Y5.512 E72.8701
G1 X27.396 Y12.673 E98.1350
G1 X25.698 Y10.977 E104.1218
G1 X31.163 Y5.512 E123.4008
G1 X27.769 Y5.512 E131.8674
G1 X23.174 Y10.107 E148.0778
G1 X20.497 Y9.390 E154.9910
G1 X24.375 Y5.512 E168.6715
G1 X20.981 Y5.512 E177.1381
G1 X16.168 Y10.324 E194.1163
G1 X5.597 Y7.319 F4800
G92 E0
G1 X7.405 Y5.512 E6.3752 F600
G1 X10.799 Y5.512 E14.8418
G1 X5.597 Y10.713 E33.1906
G1 X5.597 Y14.107 E41.6573
G1 X14.193 Y5.512 E71.9797
G1 X17.587 Y5.512 E80.4464
G1 X5.597 Y17.501 E122.7425
G1 X5.597 Y20.895 E131.2091
G1 X10.410 Y16.082 E148.1881
G1 X9.363 Y19.992 E158.2842
G1 X9.475 Y20.412 E159.3688
G1 X5.597 Y24.289 E173.0486
G1 X5.597 Y27.684 E181.5153
G1 X10.193 Y23.088 E197.7259
G1 X10.799 Y25.350 E203.5664
G1 X11.062 Y25.613 E204.4950
G1 X5.597 Y31.078 E223.7726
G1 X5.597 Y34.472 E232.2391
G1 X12.759 Y27.310 E257.5041
G1 X14.456 Y29.007 E263.4909
G1 X8.992 Y34.472 E282.7697
G1 X12.386 Y34.472 E291.2363
G1 X16.981 Y29.877 E307.4467
G1 X19.658 Y30.594 E314.3599
G1 X15.780 Y34.472 E328.0402
G1 X19.174 Y34.472 E336.5069
G1 X23.987 Y29.659 E353.4852
G1 X25.434 Y29.271 E357.2227
G1 X29.356 Y25.350 E371.0578
G1 X29.744 Y23.901 E374.7992
G1 X34.557 Y19.088 E391.7783
G1 X34.557 Y22.482 E400.2450
G1 X22.568 Y34.472 E442.5408
G1 X25.962 Y34.472 E451.0074
G1 X34.557 Y25.876 E481.3296
G1 X34.557 Y29.271 E489.7962
G1 X29.356 Y34.472 E508.1447
G1 X32.750 Y34.472 E516.6114
G1 X34.557 Y32.665 E522.9863
; layer 3, Z = 7.5
#LayerChange
; outer perimeter
G1 X38.877 Y38.792 F4800
G1 Z7.500 F1000
G92 E0
G1 X1.277 Y38.792 E93.7936 F600
G1 X1.277 Y1.192 E187.5871
G1 X38.877 Y1.192 E281.3807
G1 X38.877 Y38.792 E375.1743
; inner perimeter
G1 X36.477 Y36.392 F4800
G92 E0
G1 X3.677 Y36.392 E81.8199 F600
G1 X3.677 Y3.592 E163.6398
G1 X36.477 Y3.592 E245.4597
G1 X36.477 Y36.392 E327.2796
; outer perimeter
G1 X25.483 Y23.113 F4800
G92 E0
G1 X26.320 Y19.992 E8.0619 F600
G1 X25.483 Y16.870 E16.1237
G1 X23.198 Y14.586 E24.1838
G1 X20.077 Y13.750 E32.2428
G1 X16.957 Y14.586 E40.3019
G1 X14.672 Y16.870 E48.3620
G1 X13.835 Y19.992 E56.4238
G1 X14.672 Y23.113 E64.4857
G1 X16.957 Y25.398 E72.5458
G1 X20.077 Y26.234 E80.6048
G1 X23.198 Y25.398 E88.6639
G1 X25.483 Y23.113 E96.7240
; inner perimeter
G1 X27.635 Y24.356 F4800
G92 E0
G1 X28.805 Y19.992 E11.2708 F600
G1 X27.635 Y15.627 E22.5415
G1 X24.440 Y12.434 E33.8099
G1 X20.077 Y11.265 E45.0767
G1 X15.715 Y12.434 E56.3436
G1 X12.520 Y15.627 E67.6120
G1 X11.350 Y19.992 E78.8827
G1 X12.520 Y24.356 E90.1535
G1 X15.715 Y27.550 E101.4219
G1 X20.077 Y28.719 E112.6888
G1 X24.440 Y27.550 E123.9556
G1 X27.635 Y24.356 E135.2240
; infill
G1 X29.744 Y16.082 F4800
G92 E0
G1 X34.557 Y20.895 E16.9791 F600
G1 X34.557 Y24.289 E25.4457
G1 X30.680 Y20.412 E39.1255
G1 X29.962 Y23.088 E46.0382
G1 X34.557 Y27.683 E62.2488
G1 X34.557 Y31.078 E70.7154
G1 X29.093 Y25.613 E89.9929
G1 X27.396 Y27.310 E95.9797
G1 X34.557 Y34.472 E121.2448
G1 X31.163 Y34.472 E129.7114
G1 X25.698 Y29.007 E148.9903
G1 X25.434 Y29.271 E149.9232
G1 X23.174 Y29.877 E155.7591
G1 X27.769 Y34.472 E171.9695
G1 X24.375 Y34.472 E180.4361
G1 X20.497 Y30.594 E194.1166
G1 X7.405 Y34.472 F4800
G92 E0
G1 X5.597 Y32.665 E6.3751 F600
G1 X5.597 Y29.270 E14.8417
G1 X10.799 Y34.472 E33.1904
G1 X14.193 Y34.472 E41.6571
G1 X5.597 Y25.876 E71.9794
G1 X5.597 Y22.482 E80.4461
G1 X17.587 Y34.472 E122.7421
G1 X20.981 Y34.472 E131.2087
G1 X16.168 Y29.659 E148.1870
G1 X14.721 Y29.271 E151.9247
G1 X10.799 Y25.350 E165.7597
G1 X10.410 Y23.901 E169.5013
G1 X5.597 Y19.088 E186.4804
G1 X5.597 Y15.694 E194.9470
G1 X9.475 Y19.572 E208.6267
G1 X10.193 Y16.895 E215.5395
G1 X5.597 Y12.300 E231.7500
G1 X5.597 Y8.906 E240.2167
G1 X11.062 Y14.370 E259.4942
G1 X12.759 Y12.673 E265.4810
G1 X5.597 Y5.512 E290.7460
G1 X8.992 Y5.512 E299.2127
G1 X14.456 Y10.977 E318.4915
G1 X14.721 Y10.712 E319.4244
G1 X16.981 Y10.107 E325.2603
G1 X12.386 Y5.512 E341.4707
G1 X15.780 Y5.512 E349.9373
G1 X19.658 Y9.390 E363.6178
G1 X20.077 Y9.277 E364.7017
G1 X23.987 Y10.324 E374.7971
G1 X19.174 Y5.512 E391.7754
G1 X22.568 Y5.512 E400.2420
G1 X34.557 Y17.501 E442.5379
G1 X34.557 Y14.107 E451.0046
G1 X25.962 Y5.512 E481.3268
G1 X29.356 Y5.512 E489.7935
G1 X34.557 Y10.713 E508.1421
G1 X34.557 Y7.319 E516.6088
G1 X32.750 Y5.512 E522.9837
; layer 4, Z = 10
#LayerChange
; outer perimeter
G1 X1.277 Y1.192 F4800
G1 Z10.000 F1000
G92 E0
G1 X38.877 Y1.192 E93.7936 F600
G1 X38.877 Y38.792 E187.5871
G1 X1.277 Y38.792 E281.3807
G1 X1.277 Y1.192 E375.1743
; inner perimeter
G1 X3.677 Y3.592 F4800
G92 E0
G1 X36.477 Y3.592 E81.8199 F600
G1 X36.477 Y36.392 E163.6398
G1 X3.677 Y36.392 E245.4597
G1 X3.677 Y3.592 E327.2796
; outer perimeter
G1 X14.672 Y16.870 F4800
G92 E0
G1 X13.835 Y19.992 E8.0618 F600
G1 X14.672 Y23.113 E16.1237
G1 X16.957 Y25.398 E24.1838
G1 X20.077 Y26.234 E32.2429
G1 X23.198 Y25.398 E40.3019
G1 X25.483 Y23.113 E48.3620
G1 X26.320 Y19.992 E56.4239
G1 X25.483 Y16.870 E64.4857
G1 X23.198 Y14.586 E72.5458
G1 X20.077 Y13.750 E80.6049
G1 X16.957 Y14.586 E88.6639
G1 X14.672 Y16.870 E96.7240
; inner perimeter
G1 X12.520 Y15.627 F4800
G92 E0
G1 X11.350 Y19.992 E11.2707 F600
G1 X12.520 Y24.356 E22.5415
G1 X15.715 Y27.550 E33.8099
G1 X20.077 Y28.719 E45.0767
G1 X24.440 Y27.550 E56.3436
G1 X27.635 Y24.356 E67.6120
G1 X28.805 Y19.992 E78.8828
G1 X27.635 Y15.627 E90.1535
G1 X24.440 Y12.434 E101.4219
G1 X20.077 Y11.265 E112.6888
G1 X15.715 Y12.434 E123.9556
G1 X12.520 Y15.627 E135.2240
; infill
G1 X16.168 Y10.324 F4800
G92 E0
G1 X20.981 Y5.512 E16.9782 F600
G1 X24.375 Y5.512 E25.4448
G1 X20.497 Y9.390 E39.1253
G1 X23.174 Y10.107 E46.0385
G1 X27.769 Y5.512 E62.2489
G1 X31.163 Y5.512 E70.7156
G1 X25.698 Y10.977 E89.9945
G1 X27.396 Y12.673 E95.9813
G1 X34.557 Y5.512 E121.2462
G1 X34.557 Y8.906 E129.7129
G1 X29.093 Y14.370 E148.9903
G1 X29.356 Y14.633 E149.9187
G1 X29.962 Y16.895 E155.7595
G1 X34.557 Y12.300 E171.9700
G1 X34.557 Y15.694 E180.4366
G1 X30.680 Y19.572 E194.1163
G1 X34.557 Y32.665 F4800
G92 E0
G1 X32.750 Y34.472 E6.3749 F600
G1 X29.356 Y34.472 E14.8415
G1 X34.557 Y29.271 E33.1900
G1 X34.557 Y25.876 E41.6567
G1 X25.962 Y34.472 E71.9788
G1 X22.568 Y34.472 E80.4455
G1 X34.557 Y22.482 E122.7413
G1 X34.557 Y19.088 E131.2080
G1 X29.744 Y23.901 E148.1871
G1 X29.356 Y25.350 E151.9285
G1 X25.434 Y29.271 E165.7635
G1 X23.987 Y29.659 E169.5011
G1 X19.174 Y34.472 E186.4794
G1 X15.780 Y34.472 E194.9460
G1 X19.658 Y30.594 E208.6264
G1 X16.981 Y29.877 E215.5396
G1 X12.386 Y34.472 E231.7499
G1 X8.992 Y34.472 E240.2166
G1 X14.456 Y29.007 E259.4954
G1 X12.759 Y27.310 E265.4822
G1 X5.597 Y34.472 E290.7471
G1 X5.597 Y31.078 E299.2137
G1 X11.062 Y25.613 E318.4912
G1 X10.799 Y25.350 E319.4198
G1 X10.193 Y23.088 E325.2604
G1 X5.597 Y27.684 E341.4710
G1 X5.597 Y24.289 E349.9376
G1 X9.475 Y20.412 E363.6174
G1 X9.363 Y19.992 E364.7021
