; G-Code generated by Simplify3D(R) Version 3.1.1
; Apr 12, 2019 at 3:40:16 PM
; Settings Summary
;   processName,Gutroff_Olli(1)
;   applyToModels,block_bohrung_q40_r10
;   profileName,Default (modified)
;   profileVersion,2015-05-01 08:00:00
;   baseProfile,
;   printMaterial,PLA
;   printQuality,High
;   printExtruders,
;   extruderName,Primary Extruder
;   extruderToolheadNumber,0
;   extruderDiameter,1
;   extruderAutoWidth,0
;   extruderWidth,2.4
;   extrusionMultiplier,1
;   extruderUseRetract,0
;   extruderRetractionDistance,0
;   extruderExtraRestartDistance,0
;   extruderRetractionZLift,5
;   extruderRetractionSpeed,1800
;   extruderUseCoasting,0
;   extruderCoastingDistance,0.2
;   extruderUseWipe,0
;   extruderWipeDistance,5
;   primaryExtruder,0
;   layerHeight,2.5
;   topSolidLayers,0
;   bottomSolidLayers,0
;   perimeterOutlines,0
;   printPerimetersInsideOut,0
;   startPointOption,1
;   startPointOriginX,0
;   startPointOriginY,0
;   startPointOriginZ,0
;   sequentialIslands,0
;   spiralVaseMode,0
;   firstLayerHeightPercentage,100
;   firstLayerWidthPercentage,100
;   firstLayerUnderspeed,1
;   useRaft,0
;   raftExtruder,0
;   raftLayers,3
;   raftOffset,3
;   raftSeparationDistance,0.14
;   raftInfill,85
;   disableRaftBaseLayers,0
;   useSkirt,0
;   skirtExtruder,0
;   skirtLayers,2
;   skirtOutlines,2
;   skirtOffset,4
;   usePrimePillar,0
;   primePillarExtruder,999
;   primePillarWidth,12
;   primePillarLocation,7
;   primePillarSpeedMultiplier,1
;   useOozeShield,0
;   oozeShieldExtruder,999
;   oozeShieldOffset,2
;   oozeShieldOutlines,1
;   oozeShieldSidewallShape,1
;   oozeShieldSidewallAngle,30
;   oozeShieldSpeedMultiplier,1
;   infillExtruder,0
;   internalInfillPattern,Rectilinear
;   externalInfillPattern,Rectilinear
;   infillPercentage,100
;   outlineOverlapPercentage,99
;   infillExtrusionWidthPercentage,100
;   minInfillLength,4
;   infillLayerInterval,1
;   infillAngles,45,-45
;   overlapInfillAngles,0
;   generateSupport,0
;   supportExtruder,0
;   supportInfillPercentage,40
;   supportExtraInflation,0
;   denseSupportLayers,0
;   denseSupportInfillPercentage,70
;   supportLayerInterval,1
;   supportHorizontalPartOffset,0.3
;   supportUpperSeparationLayers,1
;   supportLowerSeparationLayers,1
;   supportType,0
;   supportGridSpacing,4
;   maxOverhangAngle,45
;   supportAngles,0
;   temperatureName,Primary Extruder
;   temperatureNumber,0
;   temperatureSetpointCount,1
;   temperatureSetpointLayers,1
;   temperatureSetpointTemperatures,0
;   temperatureStabilizeAtStartup,1
;   temperatureHeatedBed,0
;   temperatureRelayBetweenLayers,0
;   temperatureRelayBetweenLoops,0
;   fanLayers,1,2
;   fanSpeeds,0,100
;   blipFanToFullPower,0
;   adjustSpeedForCooling,0
;   minSpeedLayerTime,15
;   minCoolingSpeedSlowdown,20
;   increaseFanForCooling,0
;   minFanLayerTime,45
;   maxCoolingFanSpeed,100
;   increaseFanForBridging,0
;   bridgingFanSpeed,100
;   use5D,1
;   relativeEdistances,0
;   allowEaxisZeroing,1
;   independentExtruderAxes,0
;   includeM10123,0
;   stickySupport,1
;   applyToolheadOffsets,0
;   gcodeXoffset,0
;   gcodeYoffset,0
;   gcodeZoffset,0
;   overrideMachineDefinition,0
;   machineTypeOverride,0
;   strokeXoverride,200
;   strokeYoverride,200
;   strokeZoverride,200
;   originOffsetXoverride,0
;   originOffsetYoverride,0
;   originOffsetZoverride,0
;   homeXdirOverride,-1
;   homeYdirOverride,-1
;   homeZdirOverride,-1
;   flipXoverride,1
;   flipYoverride,-1
;   flipZoverride,1
;   toolheadOffsets,0,0|0,0|0,0|0,0|0,0|0,0
;   overrideFirmwareConfiguration,0
;   firmwareTypeOverride,RepRap (Marlin/Repetier/Sprinter)
;   GPXconfigOverride,r2
;   baudRateOverride,115200
;   overridePrinterModels,0
;   printerModelsOverride
;   startingGcode,##Start
;   layerChangeGcode,#LayerChange
;   retractionGcode,#Retraction
;   toolChangeGcode,
;   endingGcode,##End
;   exportFileFormat,gcode
;   celebration,0
;   celebrationSong,Random Song
;   postProcessing,
;   defaultSpeed,600
;   outlineUnderspeed,1
;   solidInfillUnderspeed,0.8
;   supportUnderspeed,0.8
;   rapidXYspeed,4800
;   rapidZspeed,1000
;   minBridgingArea,40
;   bridgingExtraInflation,1
;   bridgingExtrusionMultiplier,1
;   bridgingSpeedMultiplier,1
;   filamentDiameter,1.75
;   filamentPricePerKg,46
;   filamentDensity,1.25
;   useMinPrintHeight,0
;   minPrintHeight,0
;   useMaxPrintHeight,0
;   maxPrintHeight,0
;   useDiaphragm,0
;   diaphragmLayerInterval,3
;   robustSlicing,0
;   mergeAllIntoSolid,0
;   onlyRetractWhenCrossingOutline,1
;   retractBetweenLayers,0
;   useRetractionMinTravel,0
;   retractionMinTravel,3
;   retractWhileWiping,0
;   onlyWipeOutlines,1
;   avoidCrossingOutline,0
;   maxMovementDetourFactor,3
;   toolChangeRetractionDistance,0
;   toolChangeExtraRestartDistance,0
;   toolChangeRetractionSpeed,600
;   allowThinWallGapFill,1
;   thinWallAllowedOverlapPercentage,50
;   horizontalSizeCompensation,0
G90
M82
M106 S0
M104 S0 T0
##Start
G92 E0
#Retraction
G1 E0.0000 F1800
G1 Z7.500 F1000
; layer 1, Z = 2.5
#LayerChange
T0
; tool H2.500 W2.400
; infill
G1 X19.366 Y26.068 F4800
G1 Z2.500 F1000
G1 E0.0000 F540
G92 E0
G1 X32.065 Y38.768 E44.8015 F600
G1 X35.459 Y38.768 E53.2682
G1 X22.343 Y25.652 E99.5384
G1 X23.211 Y25.419 E101.7779
G1 X24.358 Y24.272 E105.8253
G1 X38.853 Y38.768 E156.9620
G1 X38.853 Y35.374 E165.4287
G1 X25.737 Y22.257 E211.6992
G1 X38.637 Y1.216 F4800
G92 E0
G1 X38.853 Y1.432 E0.7646 F600
G1 X38.853 Y4.827 E9.2313
G1 X35.243 Y1.216 E21.9696
G1 X31.848 Y1.216 E30.4362
G1 X38.853 Y8.221 E55.1481
G1 X38.853 Y11.615 E63.6148
G1 X28.454 Y1.216 E100.3003
G1 X25.060 Y1.216 E108.7670
G1 X38.853 Y15.009 E157.4262
G1 X38.853 Y18.403 E165.8929
G1 X21.666 Y1.216 E226.5257
G1 X18.272 Y1.216 E234.9924
G1 X38.853 Y21.797 E307.5989
G1 X38.853 Y25.191 E316.0655
G1 X14.878 Y1.216 E400.6457
G1 X11.484 Y1.216 E409.1124
G1 X38.853 Y28.585 E505.6662
G1 X38.853 Y31.979 E514.1328
G1 X26.154 Y19.280 E558.9340
G1 X25.505 Y16.858 E565.1897
G1 X23.211 Y14.564 E573.2819
G1 X20.789 Y13.915 E579.5344
G1 X8.090 Y1.216 E624.3360
G1 X4.696 Y1.216 E632.8027
G1 X17.812 Y14.332 E679.0729
G1 X16.944 Y14.564 E681.3124
G1 X15.797 Y15.711 E685.3598
G1 X1.301 Y1.216 E736.4965
G1 X1.301 Y4.610 E744.9631
G1 X14.418 Y17.726 E791.2336
G1 X13.810 Y19.992 E797.0851
G1 X14.001 Y20.703 E798.9234
G1 X1.301 Y8.004 E843.7246
G1 X1.301 Y11.398 E852.1913
G1 X28.671 Y38.768 E948.7452
G1 X25.277 Y38.768 E957.2118
G1 X1.301 Y14.792 E1041.7921
G1 X1.301 Y18.186 E1050.2587
G1 X21.883 Y38.768 E1122.8653
G1 X18.489 Y38.768 E1131.3320
G1 X1.301 Y21.580 E1191.9649
G1 X1.301 Y24.974 E1200.4316
G1 X15.095 Y38.768 E1249.0909
G1 X11.701 Y38.768 E1257.5575
G1 X1.301 Y28.369 E1294.2432
G1 X1.301 Y31.763 E1302.7098
G1 X8.306 Y38.768 E1327.4218
G1 X4.912 Y38.768 E1335.8885
G1 X1.301 Y35.157 E1348.6268
G1 X1.301 Y38.551 E1357.0935
G1 X1.518 Y38.768 E1357.8582
; layer 2, Z = 5
M106 S255
#LayerChange
; infill
G1 X26.154 Y20.704 F4800
G1 Z5.000 F1000
G92 E0
G1 X38.853 Y8.004 E44.8013 F600
G1 X38.853 Y4.610 E53.2679
G1 X25.737 Y17.726 E99.5384
G1 X25.505 Y16.858 E101.7808
G1 X24.358 Y15.711 E105.8256
G1 X38.853 Y1.216 E156.9622
G1 X35.459 Y1.216 E165.4288
G1 X22.343 Y14.332 E211.6990
G1 X1.301 Y1.432 F4800
G92 E0
G1 X1.518 Y1.216 E0.7648 F600
G1 X4.912 Y1.216 E9.2315
G1 X1.301 Y4.827 E21.9699
G1 X1.301 Y8.221 E30.4366
G1 X8.306 Y1.216 E55.1487
G1 X11.701 Y1.216 E63.6153
G1 X1.301 Y11.615 E100.3011
G1 X1.301 Y15.009 E108.7677
G1 X15.095 Y1.216 E157.4272
G1 X18.489 Y1.216 E165.8938
G1 X1.301 Y18.403 E226.5269
G1 X1.301 Y21.797 E234.9935
G1 X21.883 Y1.216 E307.6002
G1 X25.277 Y1.216 E316.0669
G1 X1.301 Y25.191 E400.6472
G1 X1.301 Y28.585 E409.1139
G1 X28.671 Y1.216 E505.6679
G1 X32.065 Y1.216 E514.1345
G1 X19.366 Y13.915 E558.9361
G1 X16.944 Y14.564 E565.1888
G1 X14.650 Y16.858 E573.2810
G1 X14.001 Y19.280 E579.5369
G1 X1.301 Y31.980 E624.3380
G1 X1.301 Y35.374 E632.8046
G1 X14.418 Y22.258 E679.0752
G1 X14.650 Y23.126 E681.3175
G1 X15.797 Y24.272 E685.3623
G1 X1.301 Y38.768 E736.4990
G1 X4.696 Y38.768 E744.9656
G1 X17.812 Y25.652 E791.2358
G1 X20.077 Y26.259 E797.0873
G1 X20.789 Y26.068 E798.9259
G1 X8.090 Y38.768 E843.7276
G1 X11.484 Y38.768 E852.1942
G1 X38.853 Y11.398 E948.7479
G1 X38.853 Y14.792 E957.2146
G1 X14.878 Y38.768 E1041.7946
G1 X18.272 Y38.768 E1050.2613
G1 X38.853 Y18.186 E1122.8677
G1 X38.853 Y21.580 E1131.3343
G1 X21.666 Y38.768 E1191.9671
G1 X25.060 Y38.768 E1200.4338
G1 X38.853 Y24.975 E1249.0929
G1 X38.853 Y28.369 E1257.5595
G1 X28.454 Y38.768 E1294.2450
G1 X31.849 Y38.768 E1302.7116
G1 X38.853 Y31.763 E1327.4235
G1 X38.853 Y35.157 E1335.8901
G1 X35.243 Y38.768 E1348.6283
G1 X38.637 Y38.768 E1357.0949
G1 X38.853 Y38.551 E1357.8595
; layer 3, Z = 7.5
#LayerChange
; infill
G1 X25.737 Y22.257 F4800
G1 Z7.500 F1000
G92 E0
G1 X38.853 Y35.374 E46.2705 F600
G1 X38.853 Y38.768 E54.7371
G1 X24.358 Y24.272 E105.8739
G1 X23.211 Y25.419 E109.9213
G1 X22.343 Y25.652 E112.1608
G1 X35.459 Y38.768 E158.4310
G1 X32.065 Y38.768 E166.8976
G1 X19.366 Y26.068 E211.6992
G1 X1.518 Y38.768 F4800
G92 E0
G1 X1.301 Y38.551 E0.7647 F600
G1 X1.301 Y35.157 E9.2314
G1 X4.912 Y38.768 E21.9697
G1 X8.306 Y38.768 E30.4364
G1 X1.301 Y31.763 E55.1484
G1 X1.301 Y28.369 E63.6150
G1 X11.701 Y38.768 E100.3007
G1 X15.095 Y38.768 E108.7673
G1 X1.301 Y24.974 E157.4266
G1 X1.301 Y21.580 E165.8933
G1 X18.489 Y38.768 E226.5262
G1 X21.883 Y38.768 E234.9929
G1 X1.301 Y18.186 E307.5995
G1 X1.301 Y14.792 E316.0661
G1 X25.277 Y38.768 E400.6464
G1 X28.671 Y38.768 E409.1130
G1 X1.301 Y11.398 E505.6669
G1 X1.301 Y8.004 E514.1336
G1 X14.001 Y20.703 E558.9348
G1 X13.810 Y19.992 E560.7731
G1 X14.418 Y17.726 E566.6246
G1 X1.301 Y4.610 E612.8951
G1 X1.301 Y1.216 E621.3617
G1 X15.797 Y15.711 E672.4984
G1 X16.944 Y14.564 E676.5458
G1 X17.812 Y14.332 E678.7853
G1 X4.696 Y1.216 E725.0555
G1 X8.090 Y1.216 E733.5222
G1 X20.789 Y13.915 E778.3238
G1 X23.211 Y14.564 E784.5763
G1 X25.505 Y16.858 E792.6685
G1 X26.154 Y19.280 E798.9242
G1 X38.853 Y31.979 E843.7254
G1 X38.853 Y28.585 E852.1920
G1 X11.484 Y1.216 E948.7458
G1 X14.878 Y1.216 E957.2125
G1 X38.853 Y25.191 E1041.7926
G1 X38.853 Y21.797 E1050.2593
G1 X18.272 Y1.216 E1122.8658
G1 X21.666 Y1.216 E1131.3325
G1 X38.853 Y18.403 E1191.9653
G1 X38.853 Y15.009 E1200.4320
G1 X25.060 Y1.216 E1249.0912
G1 X28.454 Y1.216 E1257.5578
G1 X38.853 Y11.615 E1294.2434
G1 X38.853 Y8.221 E1302.7101
G1 X31.848 Y1.216 E1327.4220
G1 X35.243 Y1.216 E1335.8886
G1 X38.853 Y4.827 E1348.6269
G1 X38.853 Y1.432 E1357.0936
G1 X38.637 Y1.216 E1357.8582
; layer 4, Z = 10
#LayerChange
; infill
G1 X22.343 Y14.332 F4800
G1 Z10.000 F1000
G92 E0
G1 X35.459 Y1.216 E46.2702 F600
G1 X38.853 Y1.216 E54.7368
G1 X24.358 Y15.711 E105.8734
G1 X25.505 Y16.858 E109.9182
G1 X25.737 Y17.726 E112.1606
G1 X38.853 Y4.610 E158.4311
G1 X38.853 Y8.004 E166.8977
G1 X26.154 Y20.704 E211.6990
G1 X38.853 Y38.551 F4800
G92 E0
G1 X38.637 Y38.768 E0.7645 F600
G1 X35.243 Y38.768 E9.2312
G1 X38.853 Y35.157 E21.9693
G1 X38.853 Y31.763 E30.4360
G1 X31.849 Y38.768 E55.1478
G1 X28.454 Y38.768 E63.6145
G1 X38.853 Y28.369 E100.2999
G1 X38.853 Y24.975 E108.7666
G1 X25.060 Y38.768 E157.4257
G1 X21.666 Y38.768 E165.8923
G1 X38.853 Y21.580 E226.5251
G1 X38.853 Y18.186 E234.9918
G1 X18.272 Y38.768 E307.5982
G1 X14.878 Y38.768 E316.0648
G1 X38.853 Y14.792 E400.6449
G1 X38.853 Y11.398 E409.1115
G1 X11.484 Y38.768 E505.6652
G1 X8.090 Y38.768 E514.1319
G1 X20.789 Y26.068 E558.9335
G1 X20.077 Y26.259 E560.7721
G1 X17.812 Y25.652 E566.6237
G1 X4.696 Y38.768 E612.8938
G1 X1.301 Y38.768 E621.3605
G1 X15.797 Y24.272 E672.4971
G1 X14.650 Y23.126 E676.5420
G1 X14.418 Y22.258 E678.7843
G1 X1.301 Y35.374 E725.0548
G1 X1.301 Y31.980 E733.5215
G1 X14.001 Y19.280 E778.3226
G1 X14.650 Y16.858 E784.5785
G1 X16.944 Y14.564 E792.6706
G1 X19.366 Y13.915 E798.9234
G1 X32.065 Y1.216 E843.7249
G1 X28.671 Y1.216 E852.1916
G1 X1.301 Y28.585 E948.7456
G1 X1.301 Y25.191 E957.2122
G1 X25.277 Y1.216 E1041.7926
G1 X21.883 Y1.216 E1050.2592
G1 X1.301 Y21.797 E1122.8659
G1 X1.301 Y18.403 E1131.3326
G1 X18.489 Y1.216 E1191.9657
G1 X15.095 Y1.216 E1200.4323
G1 X1.301 Y15.009 E1249.0917
G1 X1.301 Y11.615 E1257.5584
G1 X11.701 Y1.216 E1294.2441
G1 X8.306 Y1.216 E1302.7108
G1 X1.301 Y8.221 E1327.4229
G1 X1.301 Y4.827 E1335.8895
G1 X4.912 Y1.216 E1348.6280
G1 X1.518 Y1.216 E1357.0946
G1 X1.301 Y1.432 E1357.8595
; layer 5, Z = 12.5
#LayerChange
; infill
G1 X19.366 Y26.068 F4800
G1 Z12.500 F1000
G92 E0
G1 X32.065 Y38.768 E44.8015 F600
G1 X35.459 Y38.768 E53.2682
G1 X22.343 Y25.652 E99.5384
G1 X23.211 Y25.419 E101.7779
G1 X24.358 Y24.272 E105.8253
G1 X38.853 Y38.768 E156.9620
G1 X38.853 Y35.374 E165.4287
G1 X25.737 Y22.257 E211.6992
G1 X38.637 Y1.216 F4800
G92 E0
G1 X38.853 Y1.432 E0.7646 F600
G1 X38.853 Y4.827 E9.2313
G1 X35.243 Y1.216 E21.9696
G1 X31.848 Y1.216 E30.4362
G1 X38.853 Y8.221 E55.1481
G1 X38.853 Y11.615 E63.6148
G1 X28.454 Y1.216 E100.3003
G1 X25.060 Y1.216 E108.7670
G1 X38.853 Y15.009 E157.4262
G1 X38.853 Y18.403 E165.8929
G1 X21.666 Y1.216 E226.5257
G1 X18.272 Y1.216 E234.9924
G1 X38.853 Y21.797 E307.5989
G1 X38.853 Y25.191 E316.0655
G1 X14.878 Y1.216 E400.6457
G1 X11.484 Y1.216 E409.1124
G1 X38.853 Y28.585 E505.6662
G1 X38.853 Y31.979 E514.1328
G1 X26.154 Y19.280 E558.9340
G1 X25.505 Y16.858 E565.1897
G1 X23.211 Y14.564 E573.2819
G1 X20.789 Y13.915 E579.5344
G1 X8.090 Y1.216 E624.3360
G1 X4.696 Y1.216 E632.8027
G1 X17.812 Y14.332 E679.0729
G1 X16.944 Y14.564 E681.3124
G1 X15.797 Y15.711 E685.3598
G1 X1.301 Y1.216 E736.4965
G1 X1.301 Y4.610 E744.9631
G1 X14.418 Y17.726 E791.2336
G1 X13.810 Y19.992 E797.0851
G1 X14.001 Y20.703 E798.9234
G1 X1.301 Y8.004 E843.7246
G1 X1.301 Y11.398 E852.1913
G1 X28.671 Y38.768 E948.7452
G1 X25.277 Y38.768 E957.2118
G1 X1.301 Y14.792 E1041.7921
G1 X1.301 Y18.186 E1050.2587
G1 X21.883 Y38.768 E1122.8653
G1 X18.489 Y38.768 E1131.3320
G1 X1.301 Y21.580 E1191.9649
G1 X1.301 Y24.974 E1200.4316
G1 X15.095 Y38.768 E1249.0909
G1 X11.701 Y38.768 E1257.5575
G1 X1.301 Y28.369 E1294.2432
G1 X1.301 Y31.763 E1302.7098
G1 X8.306 Y38.768 E1327.4218
G1 X4.912 Y38.768 E1335.8885
G1 X1.301 Y35.157 E1348.6268
G1 X1.301 Y38.551 E1357.0935
G1 X1.518 Y38.768 E1357.8582
; layer 6, Z = 15
#LayerChange
; infill
G1 X26.154 Y20.704 F4800
G1 Z15.000 F1000
G92 E0
G1 X38.853 Y8.004 E44.8013 F600
G1 X38.853 Y4.610 E53.2679
G1 X25.737 Y17.726 E99.5384
G1 X25.505 Y16.858 E101.7808
G1 X24.358 Y15.711 E105.8256
G1 X38.853 Y1.216 E156.9622
G1 X35.459 Y1.216 E165.4288
G1 X22.343 Y14.332 E211.6990
G1 X1.301 Y1.432 F4800
G92 E0
G1 X1.518 Y1.216 E0.7648 F600
G1 X4.912 Y1.216 E9.2315
G1 X1.301 Y4.827 E21.9699
G1 X1.301 Y8.221 E30.4366
G1 X8.306 Y1.216 E55.1487
G1 X11.701 Y1.216 E63.6153
G1 X1.301 Y11.615 E100.3011
G1 X1.301 Y15.009 E108.7677
G1 X15.095 Y1.216 E157.4272
G1 X18.489 Y1.216 E165.8938
G1 X1.301 Y18.403 E226.5269
G1 X1.301 Y21.797 E234.9935
G1 X21.883 Y1.216 E307.6002
G1 X25.277 Y1.216 E316.0669
G1 X1.301 Y25.191 E400.6472
G1 X1.301 Y28.585 E409.1139
G1 X28.671 Y1.216 E505.6679
G1 X32.065 Y1.216 E514.1345
G1 X19.366 Y13.915 E558.9361
G1 X16.944 Y14.564 E565.1888
G1 X14.650 Y16.858 E573.2810
G1 X14.001 Y19.280 E579.5369
G1 X1.301 Y31.980 E624.3380
G1 X1.301 Y35.374 E632.8046
G1 X14.418 Y22.258 E679.0752
G1 X14.650 Y23.126 E681.3175
G1 X15.797 Y24.272 E685.3623
G1 X1.301 Y38.768 E736.4990
G1 X4.696 Y38.768 E744.9656
G1 X17.812 Y25.652 E791.2358
G1 X20.077 Y26.259 E797.0873
G1 X20.789 Y26.068 E798.9259
G1 X8.090 Y38.768 E843.7276
G1 X11.484 Y38.768 E852.1942
G1 X38.853 Y11.398 E948.7479
G1 X38.853 Y14.792 E957.2146
G1 X14.878 Y38.768 E1041.7946
G1 X18.272 Y38.768 E1050.2613
G1 X38.853 Y18.186 E1122.8677
G1 X38.853 Y21.580 E1131.3343
G1 X21.666 Y38.768 E1191.9671
G1 X25.060 Y38.768 E1200.4338
G1 X38.853 Y24.975 E1249.0929
G1 X38.853 Y28.369 E1257.5595
G1 X28.454 Y38.768 E1294.2450
G1 X31.849 Y38.768 E1302.7116
G1 X38.853 Y31.763 E1327.4235
G1 X38.853 Y35.157 E1335.8901
G1 X35.243 Y38.768 E1348.6283
G1 X38.637 Y38.768 E1357.0949
G1 X38.853 Y38.551 E1357.8595
; layer end
##End
; Build Summary
;   Build time: 0 hours 6 minutes
