; G-Code generated by Simplify3D(R) Version 3.1.1
; Apr 12, 2019 at 1:03:48 PM
; Settings Summary
;   processName,Gutroff_Olli(1)
;   applyToModels,block_bohrung
;   profileName,Default (modified)
;   profileVersion,2015-05-01 08:00:00
;   baseProfile,
;   printMaterial,PLA
;   printQuality,High
;   printExtruders,
;   extruderName,Primary Extruder
;   extruderToolheadNumber,0
;   extruderDiameter,1
;   extruderAutoWidth,0
;   extruderWidth,2.4
;   extrusionMultiplier,1
;   extruderUseRetract,0
;   extruderRetractionDistance,0
;   extruderExtraRestartDistance,0
;   extruderRetractionZLift,5
;   extruderRetractionSpeed,1800
;   extruderUseCoasting,0
;   extruderCoastingDistance,0.2
;   extruderUseWipe,0
;   extruderWipeDistance,5
;   primaryExtruder,0
;   layerHeight,1.5
;   topSolidLayers,0
;   bottomSolidLayers,0
;   perimeterOutlines,0
;   printPerimetersInsideOut,0
;   startPointOption,1
;   startPointOriginX,0
;   startPointOriginY,0
;   startPointOriginZ,300
;   sequentialIslands,0
;   spiralVaseMode,0
;   firstLayerHeightPercentage,150
;   firstLayerWidthPercentage,100
;   firstLayerUnderspeed,1
;   useRaft,0
;   raftExtruder,0
;   raftLayers,3
;   raftOffset,3
;   raftSeparationDistance,0.14
;   raftInfill,85
;   disableRaftBaseLayers,0
;   useSkirt,0
;   skirtExtruder,0
;   skirtLayers,2
;   skirtOutlines,2
;   skirtOffset,4
;   usePrimePillar,0
;   primePillarExtruder,999
;   primePillarWidth,12
;   primePillarLocation,7
;   primePillarSpeedMultiplier,1
;   useOozeShield,0
;   oozeShieldExtruder,999
;   oozeShieldOffset,2
;   oozeShieldOutlines,1
;   oozeShieldSidewallShape,1
;   oozeShieldSidewallAngle,30
;   oozeShieldSpeedMultiplier,1
;   infillExtruder,0
;   internalInfillPattern,Rectilinear
;   externalInfillPattern,Rectilinear
;   infillPercentage,100
;   outlineOverlapPercentage,99
;   infillExtrusionWidthPercentage,100
;   minInfillLength,4
;   infillLayerInterval,1
;   infillAngles,45,-45
;   overlapInfillAngles,0
;   generateSupport,0
;   supportExtruder,0
;   supportInfillPercentage,40
;   supportExtraInflation,0
;   denseSupportLayers,0
;   denseSupportInfillPercentage,70
;   supportLayerInterval,1
;   supportHorizontalPartOffset,0.3
;   supportUpperSeparationLayers,1
;   supportLowerSeparationLayers,1
;   supportType,0
;   supportGridSpacing,4
;   maxOverhangAngle,45
;   supportAngles,0
;   temperatureName,Primary Extruder
;   temperatureNumber,0
;   temperatureSetpointCount,1
;   temperatureSetpointLayers,1
;   temperatureSetpointTemperatures,0
;   temperatureStabilizeAtStartup,1
;   temperatureHeatedBed,0
;   temperatureRelayBetweenLayers,0
;   temperatureRelayBetweenLoops,0
;   fanLayers,1,2
;   fanSpeeds,0,100
;   blipFanToFullPower,0
;   adjustSpeedForCooling,0
;   minSpeedLayerTime,15
;   minCoolingSpeedSlowdown,20
;   increaseFanForCooling,0
;   minFanLayerTime,45
;   maxCoolingFanSpeed,100
;   increaseFanForBridging,0
;   bridgingFanSpeed,100
;   use5D,1
;   relativeEdistances,0
;   allowEaxisZeroing,1
;   independentExtruderAxes,0
;   includeM10123,0
;   stickySupport,1
;   applyToolheadOffsets,0
;   gcodeXoffset,0
;   gcodeYoffset,0
;   gcodeZoffset,0
;   overrideMachineDefinition,0
;   machineTypeOverride,0
;   strokeXoverride,200
;   strokeYoverride,200
;   strokeZoverride,200
;   originOffsetXoverride,0
;   originOffsetYoverride,0
;   originOffsetZoverride,0
;   homeXdirOverride,-1
;   homeYdirOverride,-1
;   homeZdirOverride,-1
;   flipXoverride,1
;   flipYoverride,-1
;   flipZoverride,1
;   toolheadOffsets,0,0|0,0|0,0|0,0|0,0|0,0
;   overrideFirmwareConfiguration,0
;   firmwareTypeOverride,RepRap (Marlin/Repetier/Sprinter)
;   GPXconfigOverride,r2
;   baudRateOverride,115200
;   overridePrinterModels,0
;   printerModelsOverride
;   startingGcode,##Start
;   layerChangeGcode,#LayerChange
;   retractionGcode,#Retraction
;   toolChangeGcode,
;   endingGcode,##End
;   exportFileFormat,gcode
;   celebration,0
;   celebrationSong,Random Song
;   postProcessing,
;   defaultSpeed,600
;   outlineUnderspeed,1
;   solidInfillUnderspeed,0.8
;   supportUnderspeed,0.8
;   rapidXYspeed,4800
;   rapidZspeed,1000
;   minBridgingArea,40
;   bridgingExtraInflation,1
;   bridgingExtrusionMultiplier,1
;   bridgingSpeedMultiplier,1
;   filamentDiameter,1.75
;   filamentPricePerKg,46
;   filamentDensity,1.25
;   useMinPrintHeight,0
;   minPrintHeight,0
;   useMaxPrintHeight,0
;   maxPrintHeight,0
;   useDiaphragm,0
;   diaphragmLayerInterval,3
;   robustSlicing,0
;   mergeAllIntoSolid,0
;   onlyRetractWhenCrossingOutline,1
;   retractBetweenLayers,0
;   useRetractionMinTravel,0
;   retractionMinTravel,3
;   retractWhileWiping,0
;   onlyWipeOutlines,1
;   avoidCrossingOutline,0
;   maxMovementDetourFactor,3
;   toolChangeRetractionDistance,0
;   toolChangeExtraRestartDistance,0
;   toolChangeRetractionSpeed,600
;   allowThinWallGapFill,1
;   thinWallAllowedOverlapPercentage,50
;   horizontalSizeCompensation,0
G90
M82
M106 S0
M104 S0 T0
##Start
G92 E0
#Retraction
G1 E0.0000 F1800
G1 Z7.250 F1000
; layer 1, Z = 2.25
#LayerChange
T0
; tool H2.250 W2.400
; infill
G1 X17.782 Y1.402 F4800
G1 Z2.250 F1000
G1 E0.0000 F540
G92 E0
G1 X18.911 Y2.531 E3.5828 F600
G1 X18.911 Y5.925 E11.2028
G1 X14.388 Y1.402 E25.5618
G1 X10.994 Y1.402 E33.1818
G1 X18.911 Y9.319 E58.3171
G1 X18.911 Y12.713 E65.9371
G1 X7.600 Y1.402 E101.8488
G1 X4.206 Y1.402 E109.4687
G1 X18.911 Y16.107 E156.1566
G1 X18.911 Y18.954 E162.5486
G1 X18.364 Y18.954 E163.7766
G1 X1.359 Y1.949 E217.7674
G1 X1.359 Y5.343 E225.3874
G1 X14.969 Y18.954 E268.6019
G1 X11.575 Y18.954 E276.2218
G1 X1.359 Y8.737 E308.6600
G1 X1.359 Y12.132 E316.2800
G1 X8.181 Y18.954 E337.9419
G1 X4.787 Y18.954 E345.5619
G1 X1.359 Y15.526 E356.4475
G1 X1.359 Y18.920 E364.0675
G1 X1.393 Y18.954 E364.1769
; infill
G1 X31.940 Y18.954 F4800
G92 E0
G1 X31.359 Y18.373 E1.8461 F600
G1 X31.359 Y14.979 E9.4661
G1 X35.334 Y18.954 E22.0885
G1 X38.728 Y18.954 E29.7085
G1 X31.359 Y11.585 E53.1071
G1 X31.359 Y8.190 E60.7271
G1 X42.122 Y18.954 E94.9021
G1 X45.516 Y18.954 E102.5221
G1 X31.359 Y4.796 E147.4733
G1 X31.359 Y1.402 E155.0932
G1 X48.911 Y18.954 E210.8207
G1 X48.911 Y15.560 E218.4407
G1 X34.753 Y1.402 E263.3918
G1 X38.147 Y1.402 E271.0118
G1 X48.911 Y12.166 E305.1867
G1 X48.911 Y8.772 E312.8066
G1 X41.541 Y1.402 E336.2052
G1 X44.935 Y1.402 E343.8252
G1 X48.911 Y5.378 E356.4475
G1 X48.911 Y1.984 E364.0675
G1 X48.329 Y1.402 E365.9135
; infill
G1 X62.487 Y18.954 F4800
G92 E0
G1 X61.359 Y17.826 E3.5829 F600
G1 X61.359 Y14.432 E11.2029
G1 X65.881 Y18.954 E25.5620
G1 X69.275 Y18.954 E33.1820
G1 X61.359 Y11.038 E58.3174
G1 X61.359 Y7.643 E65.9374
G1 X72.669 Y18.954 E101.8491
G1 X76.063 Y18.954 E109.4691
G1 X61.359 Y4.249 E156.1571
G1 X61.359 Y1.402 E162.5490
G1 X61.906 Y1.402 E163.7771
G1 X78.911 Y18.407 E217.7678
G1 X78.911 Y15.013 E225.3877
G1 X65.300 Y1.402 E268.6021
G1 X68.694 Y1.402 E276.2221
G1 X78.911 Y11.619 E308.6602
G1 X78.911 Y8.225 E316.2802
G1 X72.088 Y1.402 E337.9420
G1 X75.482 Y1.402 E345.5620
G1 X78.911 Y4.831 E356.4475
G1 X78.911 Y1.437 E364.0675
G1 X78.876 Y1.402 E364.1768
; layer 2, Z = 3.75
M106 S255
#LayerChange
; tool H1.500 W2.400
; infill
G1 X78.911 Y18.920 F4800
G1 Z3.750 F1000
G92 E0
G1 X78.876 Y18.954 E0.0728 F600
G1 X75.482 Y18.954 E5.1528
G1 X78.911 Y15.526 E12.4098
G1 X78.911 Y12.132 E17.4897
G1 X72.088 Y18.954 E31.9309
G1 X68.694 Y18.954 E37.0109
G1 X78.911 Y8.738 E58.6363
G1 X78.911 Y5.343 E63.7162
G1 X65.300 Y18.954 E92.5258
G1 X61.906 Y18.954 E97.6058
G1 X78.911 Y1.949 E133.5995
G1 X78.911 Y1.402 E134.4183
G1 X76.064 Y1.402 E138.6795
G1 X61.359 Y16.107 E169.8049
G1 X61.359 Y12.713 E174.8849
G1 X72.669 Y1.402 E198.8261
G1 X69.275 Y1.402 E203.9060
G1 X61.359 Y9.319 E220.6631
G1 X61.359 Y5.925 E225.7430
G1 X65.881 Y1.402 E235.3159
G1 X62.487 Y1.402 E240.3958
G1 X61.359 Y2.531 E242.7845
; infill
G1 X48.911 Y18.373 F4800
G92 E0
G1 X48.329 Y18.954 E1.2306 F600
G1 X44.935 Y18.954 E6.3106
G1 X48.911 Y14.979 E14.7254
G1 X48.911 Y11.585 E19.8054
G1 X41.541 Y18.954 E35.4044
G1 X38.147 Y18.954 E40.4844
G1 X48.911 Y8.190 E63.2676
G1 X48.911 Y4.796 E68.3476
G1 X34.753 Y18.954 E98.3150
G1 X31.359 Y18.954 E103.3950
G1 X48.911 Y1.402 E140.5466
G1 X45.517 Y1.402 E145.6265
G1 X31.359 Y15.560 E175.5940
G1 X31.359 Y12.166 E180.6740
G1 X42.122 Y1.402 E203.4574
G1 X38.728 Y1.402 E208.5374
G1 X31.359 Y8.772 E224.1365
G1 X31.359 Y5.378 E229.2165
G1 X35.334 Y1.402 E237.6315
G1 X31.940 Y1.402 E242.7115
G1 X31.359 Y1.984 E243.9423
; infill
G1 X18.911 Y17.826 F4800
G92 E0
G1 X17.782 Y18.954 E2.3885 F600
G1 X14.388 Y18.954 E7.4685
G1 X18.911 Y14.432 E17.0411
G1 X18.911 Y11.038 E22.1211
G1 X10.994 Y18.954 E38.8780
G1 X7.600 Y18.954 E43.9579
G1 X18.911 Y7.643 E67.8990
G1 X18.911 Y4.249 E72.9790
G1 X4.206 Y18.954 E104.1042
G1 X1.359 Y18.954 E108.3655
G1 X1.359 Y18.407 E109.1842
G1 X18.364 Y1.402 E145.1781
G1 X14.969 Y1.402 E150.2581
G1 X1.359 Y15.013 E179.0678
G1 X1.359 Y11.619 E184.1478
G1 X11.575 Y1.402 E205.7733
G1 X8.181 Y1.402 E210.8533
G1 X1.359 Y8.225 E225.2946
G1 X1.359 Y4.831 E230.3746
G1 X4.787 Y1.402 E237.6317
G1 X1.393 Y1.402 E242.7117
G1 X1.359 Y1.437 E242.7846
; layer 3, Z = 5.25
#LayerChange
; infill
G1 X17.782 Y1.402 F4800
G1 Z5.250 F1000
G92 E0
G1 X18.911 Y2.531 E2.3885 F600
G1 X18.911 Y5.925 E7.4685
G1 X14.388 Y1.402 E17.0412
G1 X10.994 Y1.402 E22.1212
G1 X18.911 Y9.319 E38.8781
G1 X18.911 Y12.713 E43.9581
G1 X7.600 Y1.402 E67.8992
G1 X4.206 Y1.402 E72.9792
G1 X18.911 Y16.107 E104.1044
G1 X18.911 Y18.954 E108.3657
G1 X18.364 Y18.954 E109.1844
G1 X1.359 Y1.949 E145.1783
G1 X1.359 Y5.343 E150.2583
G1 X14.969 Y18.954 E179.0679
G1 X11.575 Y18.954 E184.1479
G1 X1.359 Y8.737 E205.7734
G1 X1.359 Y12.132 E210.8533
G1 X8.181 Y18.954 E225.2946
G1 X4.787 Y18.954 E230.3746
G1 X1.359 Y15.526 E237.6317
G1 X1.359 Y18.920 E242.7117
G1 X1.393 Y18.954 E242.7846
; infill
G1 X31.940 Y18.954 F4800
G92 E0
G1 X31.359 Y18.373 E1.2307 F600
G1 X31.359 Y14.979 E6.3107
G1 X35.334 Y18.954 E14.7257
G1 X38.728 Y18.954 E19.8056
G1 X31.359 Y11.585 E35.4048
G1 X31.359 Y8.190 E40.4847
G1 X42.122 Y18.954 E63.2680
G1 X45.516 Y18.954 E68.3480
G1 X31.359 Y4.796 E98.3155
G1 X31.359 Y1.402 E103.3955
G1 X48.911 Y18.954 E140.5471
G1 X48.911 Y15.560 E145.6271
G1 X34.753 Y1.402 E175.5945
G1 X38.147 Y1.402 E180.6745
G1 X48.911 Y12.166 E203.4578
G1 X48.911 Y8.772 E208.5378
G1 X41.541 Y1.402 E224.1368
G1 X44.935 Y1.402 E229.2168
G1 X48.911 Y5.378 E237.6317
G1 X48.911 Y1.984 E242.7117
G1 X48.329 Y1.402 E243.9423
; infill
G1 X62.487 Y18.954 F4800
G92 E0
G1 X61.359 Y17.826 E2.3886 F600
G1 X61.359 Y14.432 E7.4686
G1 X65.881 Y18.954 E17.0413
G1 X69.275 Y18.954 E22.1213
G1 X61.359 Y11.038 E38.8783
G1 X61.359 Y7.643 E43.9583
G1 X72.669 Y18.954 E67.8994
G1 X76.063 Y18.954 E72.9794
G1 X61.359 Y4.249 E104.1047
G1 X61.359 Y1.402 E108.3660
G1 X61.906 Y1.402 E109.1847
G1 X78.911 Y18.407 E145.1785
G1 X78.911 Y15.013 E150.2585
G1 X65.300 Y1.402 E179.0681
G1 X68.694 Y1.402 E184.1481
G1 X78.911 Y11.619 E205.7735
G1 X78.911 Y8.225 E210.8535
G1 X72.088 Y1.402 E225.2947
G1 X75.482 Y1.402 E230.3747
G1 X78.911 Y4.831 E237.6317
G1 X78.911 Y1.437 E242.7117
G1 X78.876 Y1.402 E242.7845
; layer 4, Z = 6.75
#LayerChange
; infill
G1 X78.911 Y18.920 F4800
G1 Z6.750 F1000
G92 E0
G1 X78.876 Y18.954 E0.0728 F600
G1 X75.482 Y18.954 E5.1528
G1 X78.911 Y15.526 E12.4098
G1 X78.911 Y12.132 E17.4897
G1 X72.088 Y18.954 E31.9309
G1 X68.694 Y18.954 E37.0109
G1 X78.911 Y8.738 E58.6363
G1 X78.911 Y5.343 E63.7162
G1 X65.300 Y18.954 E92.5258
G1 X61.906 Y18.954 E97.6058
G1 X78.911 Y1.949 E133.5995
G1 X78.911 Y1.402 E134.4183
G1 X76.064 Y1.402 E138.6795
G1 X61.359 Y16.107 E169.8049
G1 X61.359 Y12.713 E174.8849
G1 X72.669 Y1.402 E198.8261
G1 X69.275 Y1.402 E203.9060
G1 X61.359 Y9.319 E220.6631
G1 X61.359 Y5.925 E225.7430
G1 X65.881 Y1.402 E235.3159
G1 X62.487 Y1.402 E240.3958
G1 X61.359 Y2.531 E242.7845
; infill
G1 X48.911 Y18.373 F4800
G92 E0
G1 X48.329 Y18.954 E1.2306 F600
G1 X44.935 Y18.954 E6.3106
G1 X48.911 Y14.979 E14.7254
G1 X48.911 Y11.585 E19.8054
G1 X41.541 Y18.954 E35.4044
G1 X38.147 Y18.954 E40.4844
G1 X48.911 Y8.190 E63.2676
G1 X48.911 Y4.796 E68.3476
G1 X34.753 Y18.954 E98.3150
G1 X31.359 Y18.954 E103.3950
G1 X48.911 Y1.402 E140.5466
G1 X45.517 Y1.402 E145.6265
G1 X31.359 Y15.560 E175.5940
G1 X31.359 Y12.166 E180.6740
G1 X42.122 Y1.402 E203.4574
G1 X38.728 Y1.402 E208.5374
G1 X31.359 Y8.772 E224.1365
G1 X31.359 Y5.378 E229.2165
G1 X35.334 Y1.402 E237.6315
G1 X31.940 Y1.402 E242.7115
G1 X31.359 Y1.984 E243.9423
; infill
G1 X18.911 Y17.826 F4800
G92 E0
G1 X17.782 Y18.954 E2.3885 F600
G1 X14.388 Y18.954 E7.4685
G1 X18.911 Y14.432 E17.0411
G1 X18.911 Y11.038 E22.1211
G1 X10.994 Y18.954 E38.8780
G1 X7.600 Y18.954 E43.9579
G1 X18.911 Y7.643 E67.8990
G1 X18.911 Y4.249 E72.9790
G1 X4.206 Y18.954 E104.1042
G1 X1.359 Y18.954 E108.3655
G1 X1.359 Y18.407 E109.1842
G1 X18.364 Y1.402 E145.1781
G1 X14.969 Y1.402 E150.2581
G1 X1.359 Y15.013 E179.0678
G1 X1.359 Y11.619 E184.1478
G1 X11.575 Y1.402 E205.7733
G1 X8.181 Y1.402 E210.8533
G1 X1.359 Y8.225 E225.2946
G1 X1.359 Y4.831 E230.3746
G1 X4.787 Y1.402 E237.6317
G1 X1.393 Y1.402 E242.7117
G1 X1.359 Y1.437 E242.7846
; layer end
##End
; Build Summary
;   Build time: 0 hours 3 minutes
;   Filament length: 3282.8 mm (3.28 m)
;   Plastic volume: 7896.06 mm^3 (7.90 cc)
;   Plastic weight: 9.87 g (0.02 lb)
;   Material cost: 0.45
