; G-Code generated by Simplify3D(R) Version 3.1.1
; Apr 12, 2019 at 2:02:38 PM
; Settings Summary
;   processName,Gutroff_Olli(1)
;   applyToModels,block_bohrung_q40_r10
;   profileName,Default (modified)
;   profileVersion,2015-05-01 08:00:00
;   baseProfile,
;   printMaterial,PLA
;   printQuality,High
;   printExtruders,
;   extruderName,Primary Extruder
;   extruderToolheadNumber,0
;   extruderDiameter,1
;   extruderAutoWidth,0
;   extruderWidth,3
;   extrusionMultiplier,1
;   extruderUseRetract,0
;   extruderRetractionDistance,0
;   extruderExtraRestartDistance,0
;   extruderRetractionZLift,5
;   extruderRetractionSpeed,1800
;   extruderUseCoasting,0
;   extruderCoastingDistance,0.2
;   extruderUseWipe,0
;   extruderWipeDistance,5
;   primaryExtruder,0
;   layerHeight,2.5
;   topSolidLayers,0
;   bottomSolidLayers,0
;   perimeterOutlines,2
;   printPerimetersInsideOut,0
;   startPointOption,1
;   startPointOriginX,0
;   startPointOriginY,0
;   startPointOriginZ,300
;   sequentialIslands,0
;   spiralVaseMode,0
;   firstLayerHeightPercentage,100
;   firstLayerWidthPercentage,100
;   firstLayerUnderspeed,1
;   useRaft,0
;   raftExtruder,0
;   raftLayers,3
;   raftOffset,3
;   raftSeparationDistance,0.14
;   raftInfill,85
;   disableRaftBaseLayers,0
;   useSkirt,0
;   skirtExtruder,0
;   skirtLayers,2
;   skirtOutlines,2
;   skirtOffset,4
;   usePrimePillar,0
;   primePillarExtruder,999
;   primePillarWidth,12
;   primePillarLocation,7
;   primePillarSpeedMultiplier,1
;   useOozeShield,0
;   oozeShieldExtruder,999
;   oozeShieldOffset,2
;   oozeShieldOutlines,1
;   oozeShieldSidewallShape,1
;   oozeShieldSidewallAngle,30
;   oozeShieldSpeedMultiplier,1
;   infillExtruder,0
;   internalInfillPattern,Rectilinear
;   externalInfillPattern,Rectilinear
;   infillPercentage,100
;   outlineOverlapPercentage,20
;   infillExtrusionWidthPercentage,100
;   minInfillLength,4
;   infillLayerInterval,1
;   infillAngles,45,-45
;   overlapInfillAngles,0
;   generateSupport,0
;   supportExtruder,0
;   supportInfillPercentage,40
;   supportExtraInflation,0
;   denseSupportLayers,0
;   denseSupportInfillPercentage,70
;   supportLayerInterval,1
;   supportHorizontalPartOffset,0.3
;   supportUpperSeparationLayers,1
;   supportLowerSeparationLayers,1
;   supportType,0
;   supportGridSpacing,4
;   maxOverhangAngle,45
;   supportAngles,0
;   temperatureName,Primary Extruder
;   temperatureNumber,0
;   temperatureSetpointCount,1
;   temperatureSetpointLayers,1
;   temperatureSetpointTemperatures,0
;   temperatureStabilizeAtStartup,1
;   temperatureHeatedBed,0
;   temperatureRelayBetweenLayers,0
;   temperatureRelayBetweenLoops,0
;   fanLayers,1,2
;   fanSpeeds,0,100
;   blipFanToFullPower,0
;   adjustSpeedForCooling,0
;   minSpeedLayerTime,15
;   minCoolingSpeedSlowdown,20
;   increaseFanForCooling,0
;   minFanLayerTime,45
;   maxCoolingFanSpeed,100
;   increaseFanForBridging,0
;   bridgingFanSpeed,100
;   use5D,1
;   relativeEdistances,0
;   allowEaxisZeroing,1
;   independentExtruderAxes,0
;   includeM10123,0
;   stickySupport,1
;   applyToolheadOffsets,0
;   gcodeXoffset,0
;   gcodeYoffset,0
;   gcodeZoffset,0
;   overrideMachineDefinition,0
;   machineTypeOverride,0
;   strokeXoverride,200
;   strokeYoverride,200
;   strokeZoverride,200
;   originOffsetXoverride,0
;   originOffsetYoverride,0
;   originOffsetZoverride,0
;   homeXdirOverride,-1
;   homeYdirOverride,-1
;   homeZdirOverride,-1
;   flipXoverride,1
;   flipYoverride,-1
;   flipZoverride,1
;   toolheadOffsets,0,0|0,0|0,0|0,0|0,0|0,0
;   overrideFirmwareConfiguration,0
;   firmwareTypeOverride,RepRap (Marlin/Repetier/Sprinter)
;   GPXconfigOverride,r2
;   baudRateOverride,115200
;   overridePrinterModels,0
;   printerModelsOverride
;   startingGcode,##Start
;   layerChangeGcode,#LayerChange
;   retractionGcode,#Retraction
;   toolChangeGcode,
;   endingGcode,##End
;   exportFileFormat,gcode
;   celebration,0
;   celebrationSong,Random Song
;   postProcessing,
;   defaultSpeed,600
;   outlineUnderspeed,1
;   solidInfillUnderspeed,0.8
;   supportUnderspeed,0.8
;   rapidXYspeed,4800
;   rapidZspeed,1000
;   minBridgingArea,40
;   bridgingExtraInflation,1
;   bridgingExtrusionMultiplier,1
;   bridgingSpeedMultiplier,1
;   filamentDiameter,1.75
;   filamentPricePerKg,46
;   filamentDensity,1.25
;   useMinPrintHeight,0
;   minPrintHeight,0
;   useMaxPrintHeight,0
;   maxPrintHeight,0
;   useDiaphragm,0
;   diaphragmLayerInterval,3
;   robustSlicing,0
;   mergeAllIntoSolid,0
;   onlyRetractWhenCrossingOutline,1
;   retractBetweenLayers,0
;   useRetractionMinTravel,0
;   retractionMinTravel,3
;   retractWhileWiping,0
;   onlyWipeOutlines,1
;   avoidCrossingOutline,0
;   maxMovementDetourFactor,3
;   toolChangeRetractionDistance,0
;   toolChangeExtraRestartDistance,0
;   toolChangeRetractionSpeed,600
;   allowThinWallGapFill,1
;   thinWallAllowedOverlapPercentage,50
;   horizontalSizeCompensation,0
G90
M82
M106 S0
M104 S0 T0
##Start
G92 E0
#Retraction
G1 E0.0000 F1800
G1 Z7.500 F1000
; layer 1, Z = 2.5
#LayerChange
T0
; tool H2.500 W3.000
; outer perimeter
G1 X38.577 Y1.492 F4800
G1 Z2.500 F1000
G1 E0.0000 F540
G92 E0
G1 X38.577 Y38.492 E115.3711 F600
G1 X1.577 Y38.492 E230.7422
G1 X1.577 Y1.492 E346.1132
G1 X38.577 Y1.492 E461.4843
; inner perimeter
G1 X35.577 Y4.492 F4800
G92 E0
G1 X35.577 Y35.492 E96.6622 F600
G1 X4.577 Y35.492 E193.3245
G1 X4.577 Y4.492 E289.9867
G1 X35.577 Y4.492 E386.6490
; outer perimeter
G1 X25.752 Y16.715 F4800
G92 E0
G1 X23.353 Y14.317 E10.5765 F600
G1 X20.077 Y13.439 E21.1515
G1 X16.802 Y14.317 E31.7265
G1 X14.403 Y16.715 E42.3030
G1 X13.525 Y19.992 E52.8816
G1 X14.403 Y23.269 E63.4603
G1 X16.802 Y25.667 E74.0368
G1 X20.077 Y26.544 E84.6118
G1 X23.353 Y25.667 E95.1868
G1 X25.752 Y23.269 E105.7632
G1 X26.630 Y19.992 E116.3420
G1 X25.752 Y16.715 E126.9206
; inner perimeter
G1 X28.442 Y15.162 F4800
G92 E0
G1 X24.906 Y11.627 E15.5894 F600
G1 X20.077 Y10.333 E31.1766
G1 X15.249 Y11.627 E46.7638
G1 X11.713 Y15.162 E62.3532
G1 X10.419 Y19.992 E77.9457
G1 X11.713 Y24.822 E93.5384
G1 X15.249 Y28.357 E109.1278
G1 X20.077 Y29.650 E124.7150
G1 X24.906 Y28.357 E140.3023
G1 X28.442 Y24.822 E155.8916
G1 X29.736 Y19.992 E171.4843
G1 X28.442 Y15.162 E187.0768
; infill
G1 X31.448 Y22.877 F4800
G92 E0
G1 X33.177 Y24.606 E7.6275 F600
G1 X33.177 Y28.849 E20.8566
G1 X30.493 Y26.165 E32.6940
G1 X28.372 Y28.286 E42.0484
G1 X33.177 Y33.092 E63.2412
G1 X28.935 Y33.092 E76.4703
G1 X26.250 Y30.407 E88.3098
G1 X26.148 Y30.509 E88.7584
G1 X22.962 Y31.362 E99.0423
G1 X24.692 Y33.092 E106.6698
G1 X20.450 Y33.092 E119.8989
G1 X19.279 Y31.921 E125.0618
G1 X7.722 Y33.092 F4800
G92 E0
G1 X6.977 Y32.348 E3.2815 F600
G1 X6.977 Y28.105 E16.5107
G1 X11.964 Y33.092 E38.5011
G1 X16.207 Y33.092 E51.7302
G1 X6.977 Y23.862 E92.4294
G1 X6.977 Y19.620 E105.6585
G1 X8.148 Y20.790 E110.8199
G1 X7.934 Y19.992 E113.3973
G1 X8.707 Y17.107 E122.7106
G1 X6.977 Y15.377 E130.3381
G1 X6.977 Y11.134 E143.5672
G1 X9.662 Y13.819 E155.4046
G1 X11.783 Y11.698 E164.7590
G1 X6.977 Y6.892 E185.9518
G1 X11.220 Y6.892 E199.1809
G1 X13.905 Y9.577 E211.0203
G1 X14.007 Y9.475 E211.4689
G1 X17.192 Y8.621 E221.7528
G1 X15.463 Y6.892 E229.3803
G1 X19.705 Y6.892 E242.6094
G1 X20.876 Y8.062 E247.7723
G1 X26.148 Y9.475 E264.7909
G1 X30.593 Y13.919 E284.3906
G1 X32.007 Y19.193 E301.4170
G1 X33.177 Y20.364 E306.5784
G1 X33.177 Y16.121 E319.8075
G1 X23.948 Y6.892 E360.5066
G1 X28.191 Y6.892 E373.7357
G1 X33.177 Y11.878 E395.7260
G1 X33.177 Y7.636 E408.9551
G1 X32.433 Y6.892 E412.2366
; layer 2, Z = 5
M106 S255
#LayerChange
; outer perimeter
G1 X38.577 Y38.492 F4800
G1 Z5.000 F1000
G92 E0
G1 X1.577 Y38.492 E115.3711 F600
G1 X1.577 Y1.492 E230.7422
G1 X38.577 Y1.492 E346.1132
G1 X38.577 Y38.492 E461.4843
; inner perimeter
G1 X35.577 Y35.492 F4800
G92 E0
G1 X4.577 Y35.492 E96.6623 F600
G1 X4.577 Y4.492 E193.3245
G1 X35.577 Y4.492 E289.9868
G1 X35.577 Y35.492 E386.6490
; outer perimeter
G1 X25.752 Y23.269 F4800
G92 E0
G1 X26.630 Y19.992 E10.5788 F600
G1 X25.752 Y16.715 E21.1574
G1 X23.353 Y14.317 E31.7338
G1 X20.077 Y13.439 E42.3089
G1 X16.802 Y14.317 E52.8839
G1 X14.403 Y16.715 E63.4603
G1 X13.525 Y19.992 E74.0390
G1 X14.403 Y23.269 E84.6177
G1 X16.802 Y25.667 E95.1941
G1 X20.077 Y26.544 E105.7692
G1 X23.353 Y25.667 E116.3442
G1 X25.752 Y23.269 E126.9206
; inner perimeter
G1 X28.442 Y24.822 F4800
G92 E0
G1 X29.736 Y19.992 E15.5927 F600
G1 X28.442 Y15.162 E31.1852
G1 X24.906 Y11.627 E46.7746
G1 X20.077 Y10.333 E62.3618
G1 X15.249 Y11.627 E77.9490
G1 X11.713 Y15.162 E93.5384
G1 X10.419 Y19.992 E109.1309
G1 X11.713 Y24.822 E124.7236
G1 X15.249 Y28.357 E140.3130
G1 X20.077 Y29.650 E155.9002
G1 X24.906 Y28.357 E171.4875
G1 X28.442 Y24.822 E187.0768
; infill
G1 X32.007 Y20.790 F4800
G92 E0
G1 X33.177 Y19.620 E5.1614 F600
G1 X33.177 Y15.377 E18.3906
G1 X31.448 Y17.107 E26.0180
G1 X30.593 Y13.919 E36.3085
G1 X30.493 Y13.819 E36.7508
G1 X33.177 Y11.134 E48.5881
G1 X33.177 Y6.892 E61.8172
G1 X28.372 Y11.698 E83.0099
G1 X26.250 Y9.577 E92.3643
G1 X28.935 Y6.892 E104.2039
G1 X24.692 Y6.892 E117.4330
G1 X22.962 Y8.621 E125.0605
G1 X6.977 Y7.636 F4800
G92 E0
G1 X7.722 Y6.892 E3.2817 F600
G1 X11.964 Y6.892 E16.5108
G1 X6.977 Y11.879 E38.5013
G1 X6.977 Y16.121 E51.7304
G1 X16.207 Y6.892 E92.4298
G1 X20.450 Y6.892 E105.6589
G1 X19.279 Y8.062 E110.8217
G1 X14.007 Y9.475 E127.8405
G1 X9.562 Y13.919 E147.4403
G1 X8.148 Y19.193 E164.4669
G1 X6.977 Y20.364 E169.6282
G1 X6.977 Y24.606 E182.8573
G1 X8.707 Y22.877 E190.4849
G1 X9.562 Y26.064 E200.7751
G1 X9.662 Y26.165 E201.2176
G1 X6.977 Y28.849 E213.0550
G1 X6.977 Y33.092 E226.2840
G1 X11.783 Y28.286 E247.4768
G1 X13.905 Y30.407 E256.8312
G1 X11.220 Y33.092 E268.6706
G1 X15.463 Y33.092 E281.8997
G1 X17.192 Y31.362 E289.5272
G1 X20.077 Y32.135 E298.8401
G1 X20.876 Y31.921 E301.4187
G1 X19.705 Y33.092 E306.5816
G1 X23.948 Y33.092 E319.8108
G1 X33.177 Y23.862 E360.5097
G1 X33.177 Y28.105 E373.7389
G1 X28.191 Y33.092 E395.7290
G1 X32.433 Y33.092 E408.9581
G1 X33.177 Y32.348 E412.2394
; layer 3, Z = 7.5
#LayerChange
; outer perimeter
G1 X38.577 Y38.492 F4800
G1 Z7.500 F1000
G92 E0
G1 X1.577 Y38.492 E115.3711 F600
G1 X1.577 Y1.492 E230.7422
G1 X38.577 Y1.492 E346.1132
G1 X38.577 Y38.492 E461.4843
; inner perimeter
G1 X35.577 Y35.492 F4800
G92 E0
G1 X4.577 Y35.492 E96.6623 F600
G1 X4.577 Y4.492 E193.3245
G1 X35.577 Y4.492 E289.9868
G1 X35.577 Y35.492 E386.6490
; outer perimeter
G1 X25.752 Y23.269 F4800
G92 E0
G1 X26.630 Y19.992 E10.5788 F600
G1 X25.752 Y16.715 E21.1574
G1 X23.353 Y14.317 E31.7338
G1 X20.077 Y13.439 E42.3089
G1 X16.802 Y14.317 E52.8839
G1 X14.403 Y16.715 E63.4603
G1 X13.525 Y19.992 E74.0390
G1 X14.403 Y23.269 E84.6177
G1 X16.802 Y25.667 E95.1941
G1 X20.077 Y26.544 E105.7692
G1 X23.353 Y25.667 E116.3442
G1 X25.752 Y23.269 E126.9206
; inner perimeter
G1 X28.442 Y24.822 F4800
G92 E0
G1 X29.736 Y19.992 E15.5927 F600
G1 X28.442 Y15.162 E31.1852
G1 X24.906 Y11.627 E46.7746
G1 X20.077 Y10.333 E62.3618
G1 X15.249 Y11.627 E77.9490
G1 X11.713 Y15.162 E93.5384
G1 X10.419 Y19.992 E109.1309
G1 X11.713 Y24.822 E124.7236
G1 X15.249 Y28.357 E140.3130
G1 X20.077 Y29.650 E155.9002
G1 X24.906 Y28.357 E171.4875
G1 X28.442 Y24.822 E187.0768
; infill
G1 X31.448 Y22.877 F4800
G92 E0
G1 X33.177 Y24.606 E7.6275 F600
G1 X33.177 Y28.849 E20.8566
G1 X30.493 Y26.165 E32.6940
G1 X28.372 Y28.286 E42.0484
G1 X33.177 Y33.092 E63.2412
G1 X28.935 Y33.092 E76.4703
G1 X26.250 Y30.407 E88.3098
G1 X26.148 Y30.509 E88.7584
G1 X22.962 Y31.362 E99.0423
G1 X24.692 Y33.092 E106.6698
G1 X20.450 Y33.092 E119.8989
G1 X19.279 Y31.921 E125.0618
G1 X7.722 Y33.092 F4800
G92 E0
G1 X6.977 Y32.348 E3.2815 F600
G1 X6.977 Y28.105 E16.5107
G1 X11.964 Y33.092 E38.5011
G1 X16.207 Y33.092 E51.7302
G1 X6.977 Y23.862 E92.4294
G1 X6.977 Y19.620 E105.6585
G1 X8.148 Y20.790 E110.8199
G1 X7.934 Y19.992 E113.3973
G1 X8.707 Y17.107 E122.7106
G1 X6.977 Y15.377 E130.3381
G1 X6.977 Y11.134 E143.5672
G1 X9.662 Y13.819 E155.4046
G1 X11.783 Y11.698 E164.7590
G1 X6.977 Y6.892 E185.9518
G1 X11.220 Y6.892 E199.1809
G1 X13.905 Y9.577 E211.0203
G1 X14.007 Y9.475 E211.4689
G1 X17.192 Y8.621 E221.7528
G1 X15.463 Y6.892 E229.3803
G1 X19.705 Y6.892 E242.6094
G1 X20.876 Y8.062 E247.7723
G1 X26.148 Y9.475 E264.7909
G1 X30.593 Y13.919 E284.3906
G1 X32.007 Y19.193 E301.4170
G1 X33.177 Y20.364 E306.5784
G1 X33.177 Y16.121 E319.8075
G1 X23.948 Y6.892 E360.5066
G1 X28.191 Y6.892 E373.7357
G1 X33.177 Y11.878 E395.7260
G1 X33.177 Y7.636 E408.9551
G1 X32.433 Y6.892 E412.2366
; layer 4, Z = 10
#LayerChange
; outer perimeter
G1 X1.577 Y1.492 F4800
G1 Z10.000 F1000
G92 E0
G1 X38.577 Y1.492 E115.3711 F600
G1 X38.577 Y38.492 E230.7422
G1 X1.577 Y38.492 E346.1132
G1 X1.577 Y1.492 E461.4843
; inner perimeter
G1 X4.577 Y4.492 F4800
G92 E0
G1 X35.577 Y4.492 E96.6623 F600
G1 X35.577 Y35.492 E193.3245
G1 X4.577 Y35.492 E289.9868
G1 X4.577 Y4.492 E386.6490
; outer perimeter
G1 X14.403 Y16.715 F4800
G92 E0
G1 X13.525 Y19.992 E10.5786 F600
G1 X14.403 Y23.269 E21.1574
G1 X16.802 Y25.667 E31.7338
G1 X20.077 Y26.544 E42.3088
G1 X23.353 Y25.667 E52.8839
G1 X25.752 Y23.269 E63.4603
G1 X26.630 Y19.992 E74.0391
G1 X25.752 Y16.715 E84.6177
G1 X23.353 Y14.317 E95.1941
G1 X20.077 Y13.439 E105.7692
G1 X16.802 Y14.317 E116.3442
G1 X14.403 Y16.715 E126.9206
; inner perimeter
G1 X11.713 Y15.162 F4800
G92 E0
G1 X10.419 Y19.992 E15.5925 F600
G1 X11.713 Y24.822 E31.1852
G1 X15.249 Y28.357 E46.7746
G1 X20.077 Y29.650 E62.3618
G1 X24.906 Y28.357 E77.9490
G1 X28.442 Y24.822 E93.5384
G1 X29.736 Y19.992 E109.1311
G1 X28.442 Y15.162 E124.7236
G1 X24.906 Y11.627 E140.3130
G1 X20.077 Y10.333 E155.9002
G1 X15.249 Y11.627 E171.4874
G1 X11.713 Y15.162 E187.0768
; infill
G1 X6.977 Y7.636 F4800
G92 E0
G1 X7.722 Y6.892 E3.2817 F600
G1 X11.964 Y6.892 E16.5108
G1 X6.977 Y11.879 E38.5013
G1 X6.977 Y16.121 E51.7304
G1 X16.207 Y6.892 E92.4298
G1 X20.450 Y6.892 E105.6589
G1 X19.279 Y8.062 E110.8217
G1 X14.007 Y9.475 E127.8405
G1 X9.562 Y13.919 E147.4403
G1 X8.148 Y19.193 E164.4669
G1 X6.977 Y20.364 E169.6282
G1 X6.977 Y24.606 E182.8573
G1 X8.707 Y22.877 E190.4849
G1 X9.562 Y26.064 E200.7751
G1 X9.662 Y26.165 E201.2176
G1 X6.977 Y28.849 E213.0550
G1 X6.977 Y33.092 E226.2840
G1 X11.783 Y28.286 E247.4768
G1 X13.905 Y30.407 E256.8312
G1 X11.220 Y33.092 E268.6706
G1 X15.463 Y33.092 E281.8997
G1 X17.192 Y31.362 E289.5272
G1 X20.077 Y32.135 E298.8401
G1 X20.876 Y31.921 E301.4187
G1 X19.705 Y33.092 E306.5816
G1 X23.948 Y33.092 E319.8108
G1 X33.177 Y23.862 E360.5097
G1 X33.177 Y28.105 E373.7389
G1 X28.191 Y33.092 E395.7290
G1 X32.433 Y33.092 E408.9581
G1 X33.177 Y32.348 E412.2394
G1 X32.007 Y20.790 F4800
G92 E0
G1 X33.177 Y19.620 E5.1614 F600
G1 X33.177 Y15.377 E18.3906
G1 X31.448 Y17.107 E26.0180
G1 X30.593 Y13.919 E36.3085
G1 X30.493 Y13.819 E36.7508
G1 X33.177 Y11.134 E48.5881
G1 X33.177 Y6.892 E61.8172
G1 X28.372 Y11.698 E83.0099
G1 X26.250 Y9.577 E92.3643
G1 X28.935 Y6.892 E104.2039
G1 X24.692 Y6.892 E117.4330
G1 X22.962 Y8.621 E125.0605
; layer 5, Z = 12.5
#LayerChange
; outer perimeter
G1 X38.577 Y38.492 F4800
G1 Z12.500 F1000
G92 E0
G1 X1.577 Y38.492 E115.3711 F600
G1 X1.577 Y1.492 E230.7422
G1 X38.577 Y1.492 E346.1132
G1 X38.577 Y38.492 E461.4843
; inner perimeter
G1 X35.577 Y35.492 F4800
G92 E0
G1 X4.577 Y35.492 E96.6623 F600
G1 X4.577 Y4.492 E193.3245
G1 X35.577 Y4.492 E289.9868
G1 X35.577 Y35.492 E386.6490
; outer perimeter
G1 X25.752 Y23.269 F4800
G92 E0
G1 X26.630 Y19.992 E10.5788 F600
G1 X25.752 Y16.715 E21.1574
G1 X23.353 Y14.317 E31.7338
G1 X20.077 Y13.439 E42.3089
G1 X16.802 Y14.317 E52.8839
G1 X14.403 Y16.715 E63.4603
G1 X13.525 Y19.992 E74.0390
G1 X14.403 Y23.269 E84.6177
G1 X16.802 Y25.667 E95.1941
G1 X20.077 Y26.544 E105.7692
G1 X23.353 Y25.667 E116.3442
G1 X25.752 Y23.269 E126.9206
; inner perimeter
G1 X28.442 Y24.822 F4800
G92 E0
G1 X29.736 Y19.992 E15.5927 F600
G1 X28.442 Y15.162 E31.1852
G1 X24.906 Y11.627 E46.7746
G1 X20.077 Y10.333 E62.3618
G1 X15.249 Y11.627 E77.9490
G1 X11.713 Y15.162 E93.5384
G1 X10.419 Y19.992 E109.1309
G1 X11.713 Y24.822 E124.7236
G1 X15.249 Y28.357 E140.3130
