; G-Code generated by Simplify3D(R) Version 3.1.1
; Apr 12, 2019 at 12:58:08 PM
; Settings Summary
;   processName,Gutroff_Olli(1)
;   applyToModels,block_bohrung_q40_r10
;   profileName,Default (modified)
;   profileVersion,2015-05-01 08:00:00
;   baseProfile,
;   printMaterial,PLA
;   printQuality,High
;   printExtruders,
;   extruderName,Primary Extruder
;   extruderToolheadNumber,0
;   extruderDiameter,1
;   extruderAutoWidth,0
;   extruderWidth,2.4
;   extrusionMultiplier,1
;   extruderUseRetract,0
;   extruderRetractionDistance,0
;   extruderExtraRestartDistance,0
;   extruderRetractionZLift,5
;   extruderRetractionSpeed,1800
;   extruderUseCoasting,0
;   extruderCoastingDistance,0.2
;   extruderUseWipe,0
;   extruderWipeDistance,5
;   primaryExtruder,0
;   layerHeight,1.5
;   topSolidLayers,0
;   bottomSolidLayers,0
;   perimeterOutlines,0
;   printPerimetersInsideOut,0
;   startPointOption,1
;   startPointOriginX,0
;   startPointOriginY,0
;   startPointOriginZ,300
;   sequentialIslands,0
;   spiralVaseMode,0
;   firstLayerHeightPercentage,150
;   firstLayerWidthPercentage,100
;   firstLayerUnderspeed,1
;   useRaft,0
;   raftExtruder,0
;   raftLayers,3
;   raftOffset,3
;   raftSeparationDistance,0.14
;   raftInfill,85
;   disableRaftBaseLayers,0
;   useSkirt,0
;   skirtExtruder,0
;   skirtLayers,2
;   skirtOutlines,2
;   skirtOffset,4
;   usePrimePillar,0
;   primePillarExtruder,999
;   primePillarWidth,12
;   primePillarLocation,7
;   primePillarSpeedMultiplier,1
;   useOozeShield,0
;   oozeShieldExtruder,999
;   oozeShieldOffset,2
;   oozeShieldOutlines,1
;   oozeShieldSidewallShape,1
;   oozeShieldSidewallAngle,30
;   oozeShieldSpeedMultiplier,1
;   infillExtruder,0
;   internalInfillPattern,Rectilinear
;   externalInfillPattern,Rectilinear
;   infillPercentage,100
;   outlineOverlapPercentage,99
;   infillExtrusionWidthPercentage,100
;   minInfillLength,4
;   infillLayerInterval,1
;   infillAngles,45,-45
;   overlapInfillAngles,0
;   generateSupport,0
;   supportExtruder,0
;   supportInfillPercentage,40
;   supportExtraInflation,0
;   denseSupportLayers,0
;   denseSupportInfillPercentage,70
;   supportLayerInterval,1
;   supportHorizontalPartOffset,0.3
;   supportUpperSeparationLayers,1
;   supportLowerSeparationLayers,1
;   supportType,0
;   supportGridSpacing,4
;   maxOverhangAngle,45
;   supportAngles,0
;   temperatureName,Primary Extruder
;   temperatureNumber,0
;   temperatureSetpointCount,1
;   temperatureSetpointLayers,1
;   temperatureSetpointTemperatures,0
;   temperatureStabilizeAtStartup,1
;   temperatureHeatedBed,0
;   temperatureRelayBetweenLayers,0
;   temperatureRelayBetweenLoops,0
;   fanLayers,1,2
;   fanSpeeds,0,100
;   blipFanToFullPower,0
;   adjustSpeedForCooling,0
;   minSpeedLayerTime,15
;   minCoolingSpeedSlowdown,20
;   increaseFanForCooling,0
;   minFanLayerTime,45
;   maxCoolingFanSpeed,100
;   increaseFanForBridging,0
;   bridgingFanSpeed,100
;   use5D,1
;   relativeEdistances,0
;   allowEaxisZeroing,1
;   independentExtruderAxes,0
;   includeM10123,0
;   stickySupport,1
;   applyToolheadOffsets,0
;   gcodeXoffset,0
;   gcodeYoffset,0
;   gcodeZoffset,0
;   overrideMachineDefinition,0
;   machineTypeOverride,0
;   strokeXoverride,200
;   strokeYoverride,200
;   strokeZoverride,200
;   originOffsetXoverride,0
;   originOffsetYoverride,0
;   originOffsetZoverride,0
;   homeXdirOverride,-1
;   homeYdirOverride,-1
;   homeZdirOverride,-1
;   flipXoverride,1
;   flipYoverride,-1
;   flipZoverride,1
;   toolheadOffsets,0,0|0,0|0,0|0,0|0,0|0,0
;   overrideFirmwareConfiguration,0
;   firmwareTypeOverride,RepRap (Marlin/Repetier/Sprinter)
;   GPXconfigOverride,r2
;   baudRateOverride,115200
;   overridePrinterModels,0
;   printerModelsOverride
;   startingGcode,##Start
;   layerChangeGcode,#LayerChange
;   retractionGcode,#Retraction
;   toolChangeGcode,
;   endingGcode,##End
;   exportFileFormat,gcode
;   celebration,0
;   celebrationSong,Random Song
;   postProcessing,
;   defaultSpeed,600
;   outlineUnderspeed,1
;   solidInfillUnderspeed,0.8
;   supportUnderspeed,0.8
;   rapidXYspeed,4800
;   rapidZspeed,1000
;   minBridgingArea,40
;   bridgingExtraInflation,1
;   bridgingExtrusionMultiplier,1
;   bridgingSpeedMultiplier,1
;   filamentDiameter,1.75
;   filamentPricePerKg,46
;   filamentDensity,1.25
;   useMinPrintHeight,0
;   minPrintHeight,0
;   useMaxPrintHeight,0
;   maxPrintHeight,0
;   useDiaphragm,0
;   diaphragmLayerInterval,3
;   robustSlicing,0
;   mergeAllIntoSolid,0
;   onlyRetractWhenCrossingOutline,1
;   retractBetweenLayers,0
;   useRetractionMinTravel,0
;   retractionMinTravel,3
;   retractWhileWiping,0
;   onlyWipeOutlines,1
;   avoidCrossingOutline,0
;   maxMovementDetourFactor,3
;   toolChangeRetractionDistance,0
;   toolChangeExtraRestartDistance,0
;   toolChangeRetractionSpeed,600
;   allowThinWallGapFill,1
;   thinWallAllowedOverlapPercentage,50
;   horizontalSizeCompensation,0
G90
M82
M106 S0
M104 S0 T0
##Start
G92 E0
#Retraction
G1 E0.0000 F1800
G1 Z7.250 F1000
; layer 1, Z = 2.25
#LayerChange
T0
; tool H2.250 W2.400
; infill
G1 X19.366 Y26.068 F4800
G1 Z2.250 F1000
G1 E0.0000 F540
G92 E0
G1 X32.065 Y38.768 E40.3214 F600
G1 X35.459 Y38.768 E47.9414
G1 X22.343 Y25.652 E89.5846
G1 X23.211 Y25.419 E91.6001
G1 X24.358 Y24.272 E95.2428
G1 X38.853 Y38.768 E141.2658
G1 X38.853 Y35.374 E148.8858
G1 X25.737 Y22.257 E190.5293
G1 X38.637 Y1.216 F4800
G92 E0
G1 X38.853 Y1.432 E0.6882 F600
G1 X38.853 Y4.827 E8.3081
G1 X35.243 Y1.216 E19.7726
G1 X31.848 Y1.216 E27.3926
G1 X38.853 Y8.221 E49.6333
G1 X38.853 Y11.615 E57.2533
G1 X28.454 Y1.216 E90.2703
G1 X25.060 Y1.216 E97.8903
G1 X38.853 Y15.009 E141.6836
G1 X38.853 Y18.403 E149.3036
G1 X21.666 Y1.216 E203.8732
G1 X18.272 Y1.216 E211.4931
G1 X38.853 Y21.797 E276.8390
G1 X38.853 Y25.191 E284.4590
G1 X14.878 Y1.216 E360.5811
G1 X11.484 Y1.216 E368.2011
G1 X38.853 Y28.585 E455.0996
G1 X38.853 Y31.979 E462.7195
G1 X26.154 Y19.280 E503.0406
G1 X25.505 Y16.858 E508.6707
G1 X23.211 Y14.564 E515.9537
G1 X20.789 Y13.915 E521.5810
G1 X8.090 Y1.216 E561.9024
G1 X4.696 Y1.216 E569.5224
G1 X17.812 Y14.332 E611.1656
G1 X16.944 Y14.564 E613.1812
G1 X15.797 Y15.711 E616.8238
G1 X1.301 Y1.216 E662.8468
G1 X1.301 Y4.610 E670.4668
G1 X14.418 Y17.726 E712.1102
G1 X13.810 Y19.992 E717.3766
G1 X14.001 Y20.703 E719.0311
G1 X1.301 Y8.004 E759.3521
G1 X1.301 Y11.398 E766.9721
G1 X28.671 Y38.768 E853.8706
G1 X25.277 Y38.768 E861.4906
G1 X1.301 Y14.792 E937.6129
G1 X1.301 Y18.186 E945.2328
G1 X21.883 Y38.768 E1010.5788
G1 X18.489 Y38.768 E1018.1988
G1 X1.301 Y21.580 E1072.7684
G1 X1.301 Y24.974 E1080.3884
G1 X15.095 Y38.768 E1124.1818
G1 X11.701 Y38.768 E1131.8018
G1 X1.301 Y28.369 E1164.8188
G1 X1.301 Y31.763 E1172.4388
G1 X8.306 Y38.768 E1194.6796
G1 X4.912 Y38.768 E1202.2996
G1 X1.301 Y35.157 E1213.7641
G1 X1.301 Y38.551 E1221.3841
G1 X1.518 Y38.768 E1222.0724
; layer 2, Z = 3.75
M106 S255
#LayerChange
; tool H1.500 W2.400
; infill
G1 X26.154 Y20.704 F4800
G1 Z3.750 F1000
G92 E0
G1 X38.853 Y8.004 E26.8808 F600
G1 X38.853 Y4.610 E31.9607
G1 X25.737 Y17.726 E59.7230
G1 X25.505 Y16.858 E61.0685
G1 X24.358 Y15.711 E63.4953
G1 X38.853 Y1.216 E94.1773
G1 X35.459 Y1.216 E99.2573
G1 X22.343 Y14.332 E127.0194
G1 X1.301 Y1.432 F4800
G92 E0
G1 X1.518 Y1.216 E0.4589 F600
G1 X4.912 Y1.216 E5.5389
G1 X1.301 Y4.827 E13.1820
G1 X1.301 Y8.221 E18.2619
G1 X8.306 Y1.216 E33.0892
G1 X11.701 Y1.216 E38.1692
G1 X1.301 Y11.615 E60.1807
G1 X1.301 Y15.009 E65.2606
G1 X15.095 Y1.216 E94.4563
G1 X18.489 Y1.216 E99.5363
G1 X1.301 Y18.403 E135.9161
G1 X1.301 Y21.797 E140.9961
G1 X21.883 Y1.216 E184.5601
G1 X25.277 Y1.216 E189.6401
G1 X1.301 Y25.191 E240.3883
G1 X1.301 Y28.585 E245.4683
G1 X28.671 Y1.216 E303.4007
G1 X32.065 Y1.216 E308.4807
G1 X19.366 Y13.915 E335.3616
G1 X16.944 Y14.564 E339.1133
G1 X14.650 Y16.858 E343.9686
G1 X14.001 Y19.280 E347.7221
G1 X1.301 Y31.980 E374.6028
G1 X1.301 Y35.374 E379.6828
G1 X14.418 Y22.258 E407.4451
G1 X14.650 Y23.126 E408.7905
G1 X15.797 Y24.272 E411.2174
G1 X1.301 Y38.768 E441.8994
G1 X4.696 Y38.768 E446.9794
G1 X17.812 Y25.652 E474.7415
G1 X20.077 Y26.259 E478.2524
G1 X20.789 Y26.068 E479.3556
G1 X8.090 Y38.768 E506.2365
G1 X11.484 Y38.768 E511.3165
G1 X38.853 Y11.398 E569.2488
G1 X38.853 Y14.792 E574.3287
G1 X14.878 Y38.768 E625.0768
G1 X18.272 Y38.768 E630.1568
G1 X38.853 Y18.186 E673.7206
G1 X38.853 Y21.580 E678.8006
G1 X21.666 Y38.768 E715.1803
G1 X25.060 Y38.768 E720.2603
G1 X38.853 Y24.975 E749.4557
G1 X38.853 Y28.369 E754.5357
G1 X28.454 Y38.768 E776.5470
G1 X31.849 Y38.768 E781.6270
G1 X38.853 Y31.763 E796.4541
G1 X38.853 Y35.157 E801.5341
G1 X35.243 Y38.768 E809.1770
G1 X38.637 Y38.768 E814.2570
G1 X38.853 Y38.551 E814.7157
; layer 3, Z = 5.25
#LayerChange
; infill
G1 X25.737 Y22.257 F4800
G1 Z5.250 F1000
G92 E0
G1 X38.853 Y35.374 E27.7623 F600
G1 X38.853 Y38.768 E32.8423
G1 X24.358 Y24.272 E63.5243
G1 X23.211 Y25.419 E65.9528
G1 X22.343 Y25.652 E67.2965
G1 X35.459 Y38.768 E95.0586
G1 X32.065 Y38.768 E100.1386
G1 X19.366 Y26.068 E127.0195
G1 X1.518 Y38.768 F4800
G92 E0
G1 X1.301 Y38.551 E0.4588 F600
G1 X1.301 Y35.157 E5.5388
G1 X4.912 Y38.768 E13.1818
G1 X8.306 Y38.768 E18.2618
G1 X1.301 Y31.763 E33.0890
G1 X1.301 Y28.369 E38.1690
G1 X11.701 Y38.768 E60.1804
G1 X15.095 Y38.768 E65.2604
G1 X1.301 Y24.974 E94.4560
G1 X1.301 Y21.580 E99.5360
G1 X18.489 Y38.768 E135.9157
G1 X21.883 Y38.768 E140.9957
G1 X1.301 Y18.186 E184.5597
G1 X1.301 Y14.792 E189.6397
G1 X25.277 Y38.768 E240.3878
G1 X28.671 Y38.768 E245.4678
G1 X1.301 Y11.398 E303.4002
G1 X1.301 Y8.004 E308.4802
G1 X14.001 Y20.703 E335.3609
G1 X13.810 Y19.992 E336.4638
G1 X14.418 Y17.726 E339.9748
G1 X1.301 Y4.610 E367.7371
G1 X1.301 Y1.216 E372.8170
G1 X15.797 Y15.711 E403.4990
G1 X16.944 Y14.564 E405.9275
G1 X17.812 Y14.332 E407.2712
G1 X4.696 Y1.216 E435.0333
G1 X8.090 Y1.216 E440.1133
G1 X20.789 Y13.915 E466.9943
G1 X23.211 Y14.564 E470.7458
G1 X25.505 Y16.858 E475.6011
G1 X26.154 Y19.280 E479.3545
G1 X38.853 Y31.979 E506.2352
G1 X38.853 Y28.585 E511.3152
G1 X11.484 Y1.216 E569.2475
G1 X14.878 Y1.216 E574.3275
G1 X38.853 Y25.191 E625.0756
G1 X38.853 Y21.797 E630.1556
G1 X18.272 Y1.216 E673.7195
G1 X21.666 Y1.216 E678.7995
G1 X38.853 Y18.403 E715.1792
G1 X38.853 Y15.009 E720.2592
G1 X25.060 Y1.216 E749.4547
G1 X28.454 Y1.216 E754.5347
G1 X38.853 Y11.615 E776.5460
G1 X38.853 Y8.221 E781.6260
G1 X31.848 Y1.216 E796.4532
G1 X35.243 Y1.216 E801.5332
G1 X38.853 Y4.827 E809.1761
G1 X38.853 Y1.432 E814.2561
G1 X38.637 Y1.216 E814.7149
; layer 4, Z = 6.75
#LayerChange
; infill
G1 X22.343 Y14.332 F4800
G1 Z6.750 F1000
G92 E0
G1 X35.459 Y1.216 E27.7621 F600
G1 X38.853 Y1.216 E32.8421
G1 X24.358 Y15.711 E63.5241
G1 X25.505 Y16.858 E65.9509
G1 X25.737 Y17.726 E67.2964
G1 X38.853 Y4.610 E95.0587
G1 X38.853 Y8.004 E100.1386
G1 X26.154 Y20.704 E127.0194
G1 X38.853 Y38.551 F4800
G92 E0
G1 X38.637 Y38.768 E0.4587 F600
G1 X35.243 Y38.768 E5.5387
G1 X38.853 Y35.157 E13.1816
G1 X38.853 Y31.763 E18.2616
G1 X31.849 Y38.768 E33.0887
G1 X28.454 Y38.768 E38.1687
G1 X38.853 Y28.369 E60.1800
G1 X38.853 Y24.975 E65.2599
G1 X25.060 Y38.768 E94.4554
G1 X21.666 Y38.768 E99.5354
G1 X38.853 Y21.580 E135.9151
G1 X38.853 Y18.186 E140.9951
G1 X18.272 Y38.768 E184.5589
G1 X14.878 Y38.768 E189.6389
G1 X38.853 Y14.792 E240.3869
G1 X38.853 Y11.398 E245.4669
G1 X11.484 Y38.768 E303.3991
G1 X8.090 Y38.768 E308.4791
G1 X20.789 Y26.068 E335.3601
G1 X20.077 Y26.259 E336.4633
G1 X17.812 Y25.652 E339.9742
G1 X4.696 Y38.768 E367.7363
G1 X1.301 Y38.768 E372.8163
G1 X15.797 Y24.272 E403.4983
G1 X14.650 Y23.126 E405.9252
G1 X14.418 Y22.258 E407.2706
G1 X1.301 Y35.374 E435.0329
G1 X1.301 Y31.980 E440.1129
G1 X14.001 Y19.280 E466.9936
G1 X14.650 Y16.858 E470.7471
G1 X16.944 Y14.564 E475.6024
G1 X19.366 Y13.915 E479.3540
G1 X32.065 Y1.216 E506.2350
G1 X28.671 Y1.216 E511.3149
G1 X1.301 Y28.585 E569.2473
G1 X1.301 Y25.191 E574.3273
G1 X25.277 Y1.216 E625.0756
G1 X21.883 Y1.216 E630.1555
G1 X1.301 Y21.797 E673.7196
G1 X1.301 Y18.403 E678.7996
G1 X18.489 Y1.216 E715.1794
G1 X15.095 Y1.216 E720.2594
G1 X1.301 Y15.009 E749.4550
G1 X1.301 Y11.615 E754.5350
G1 X11.701 Y1.216 E776.5465
G1 X8.306 Y1.216 E781.6265
G1 X1.301 Y8.221 E796.4537
G1 X1.301 Y4.827 E801.5337
G1 X4.912 Y1.216 E809.1768
G1 X1.518 Y1.216 E814.2568
G1 X1.301 Y1.432 E814.7157
; layer 5, Z = 8.25
#LayerChange
; infill
G1 X19.366 Y26.068 F4800
G1 Z8.250 F1000
G92 E0
G1 X32.065 Y38.768 E26.8809 F600
G1 X35.459 Y38.768 E31.9609
G1 X22.343 Y25.652 E59.7230
G1 X23.211 Y25.419 E61.0668
G1 X24.358 Y24.272 E63.4952
G1 X38.853 Y38.768 E94.1772
G1 X38.853 Y35.374 E99.2572
G1 X25.737 Y22.257 E127.0195
G1 X38.637 Y1.216 F4800
G92 E0
G1 X38.853 Y1.432 E0.4588 F600
G1 X38.853 Y4.827 E5.5388
G1 X35.243 Y1.216 E13.1817
G1 X31.848 Y1.216 E18.2617
G1 X38.853 Y8.221 E33.0889
G1 X38.853 Y11.615 E38.1689
G1 X28.454 Y1.216 E60.1802
G1 X25.060 Y1.216 E65.2602
G1 X38.853 Y15.009 E94.4557
G1 X38.853 Y18.403 E99.5357
G1 X21.666 Y1.216 E135.9154
G1 X18.272 Y1.216 E140.9954
G1 X38.853 Y21.797 E184.5593
G1 X38.853 Y25.191 E189.6393
G1 X14.878 Y1.216 E240.3874
G1 X11.484 Y1.216 E245.4674
G1 X38.853 Y28.585 E303.3997
G1 X38.853 Y31.979 E308.4797
G1 X26.154 Y19.280 E335.3604
G1 X25.505 Y16.858 E339.1138
G1 X23.211 Y14.564 E343.9691
G1 X20.789 Y13.915 E347.7207
G1 X8.090 Y1.216 E374.6016
G1 X4.696 Y1.216 E379.6816
G1 X17.812 Y14.332 E407.4437
G1 X16.944 Y14.564 E408.7874
G1 X15.797 Y15.711 E411.2159
G1 X1.301 Y1.216 E441.8979
G1 X1.301 Y4.610 E446.9778
G1 X14.418 Y17.726 E474.7401
G1 X13.810 Y19.992 E478.2511
G1 X14.001 Y20.703 E479.3541
G1 X1.301 Y8.004 E506.2348
G1 X1.301 Y11.398 E511.3148
G1 X28.671 Y38.768 E569.2471
G1 X25.277 Y38.768 E574.3271
G1 X1.301 Y14.792 E625.0752
G1 X1.301 Y18.186 E630.1552
G1 X21.883 Y38.768 E673.7192
G1 X18.489 Y38.768 E678.7992
G1 X1.301 Y21.580 E715.1789
G1 X1.301 Y24.974 E720.2589
G1 X15.095 Y38.768 E749.4545
G1 X11.701 Y38.768 E754.5345
G1 X1.301 Y28.369 E776.5459
G1 X1.301 Y31.763 E781.6259
G1 X8.306 Y38.768 E796.4531
G1 X4.912 Y38.768 E801.5331
G1 X1.301 Y35.157 E809.1761
G1 X1.301 Y38.551 E814.2561
G1 X1.518 Y38.768 E814.7149
; layer 6, Z = 9.75
#LayerChange
; infill
G1 X26.154 Y20.704 F4800
G1 Z9.750 F1000
G92 E0
G1 X38.853 Y8.004 E26.8808 F600
G1 X38.853 Y4.610 E31.9607
G1 X25.737 Y17.726 E59.7230
G1 X25.505 Y16.858 E61.0685
G1 X24.358 Y15.711 E63.4953
G1 X38.853 Y1.216 E94.1773
G1 X35.459 Y1.216 E99.2573
G1 X22.343 Y14.332 E127.0194
G1 X1.301 Y1.432 F4800
G92 E0
G1 X1.518 Y1.216 E0.4589 F600
G1 X4.912 Y1.216 E5.5389
G1 X1.301 Y4.827 E13.1820
G1 X1.301 Y8.221 E18.2619
G1 X8.306 Y1.216 E33.0892
G1 X11.701 Y1.216 E38.1692
G1 X1.301 Y11.615 E60.1807
G1 X1.301 Y15.009 E65.2606
G1 X15.095 Y1.216 E94.4563
G1 X18.489 Y1.216 E99.5363
G1 X1.301 Y18.403 E135.9161
G1 X1.301 Y21.797 E140.9961
G1 X21.883 Y1.216 E184.5601
G1 X25.277 Y1.216 E189.6401
G1 X1.301 Y25.191 E240.3883
G1 X1.301 Y28.585 E245.4683
G1 X28.671 Y1.216 E303.4007
G1 X32.065 Y1.216 E308.4807
G1 X19.366 Y13.915 E335.3616
G1 X16.944 Y14.564 E339.1133
G1 X14.650 Y16.858 E343.9686
G1 X14.001 Y19.280 E347.7221
G1 X1.301 Y31.980 E374.6028
G1 X1.301 Y35.374 E379.6828
G1 X14.418 Y22.258 E407.4451
G1 X14.650 Y23.126 E408.7905
G1 X15.797 Y24.272 E411.2174
G1 X1.301 Y38.768 E441.8994
G1 X4.696 Y38.768 E446.9794
G1 X17.812 Y25.652 E474.7415
G1 X20.077 Y26.259 E478.2524
G1 X20.789 Y26.068 E479.3556
G1 X8.090 Y38.768 E506.2365
G1 X11.484 Y38.768 E511.3165
G1 X38.853 Y11.398 E569.2488
G1 X38.853 Y14.792 E574.3287
G1 X14.878 Y38.768 E625.0768
G1 X18.272 Y38.768 E630.1568
G1 X38.853 Y18.186 E673.7206
G1 X38.853 Y21.580 E678.8006
G1 X21.666 Y38.768 E715.1803
G1 X25.060 Y38.768 E720.2603
G1 X38.853 Y24.975 E749.4557
G1 X38.853 Y28.369 E754.5357
G1 X28.454 Y38.768 E776.5470
G1 X31.849 Y38.768 E781.6270
G1 X38.853 Y31.763 E796.4541
G1 X38.853 Y35.157 E801.5341
G1 X35.243 Y38.768 E809.1770
G1 X38.637 Y38.768 E814.2570
G1 X38.853 Y38.551 E814.7157
; layer end
##End
; Build Summary
;   Build time: 0 hours 6 minutes
;   Filament length: 6121.3 mm (6.12 m)
;   Plastic volume: 14723.39 mm^3 (14.72 cc)
