; G-Code generated by Simplify3D(R) Version 3.1.1
; Apr 12, 2019 at 3:09:18 PM
; Settings Summary
;   processName,Gutroff_Olli(1)
;   applyToModels,block_dreieck_ecke
;   profileName,Default (modified)
;   profileVersion,2015-05-01 08:00:00
;   baseProfile,
;   printMaterial,PLA
;   printQuality,High
;   printExtruders,
;   extruderName,Primary Extruder
;   extruderToolheadNumber,0
;   extruderDiameter,1
;   extruderAutoWidth,0
;   extruderWidth,2.4
;   extrusionMultiplier,1
;   extruderUseRetract,0
;   extruderRetractionDistance,0
;   extruderExtraRestartDistance,0
;   extruderRetractionZLift,5
;   extruderRetractionSpeed,1800
;   extruderUseCoasting,0
;   extruderCoastingDistance,0.2
;   extruderUseWipe,0
;   extruderWipeDistance,5
;   primaryExtruder,0
;   layerHeight,2.5
;   topSolidLayers,0
;   bottomSolidLayers,0
;   perimeterOutlines,0
;   printPerimetersInsideOut,0
;   startPointOption,3
;   startPointOriginX,0
;   startPointOriginY,0
;   startPointOriginZ,0
;   sequentialIslands,0
;   spiralVaseMode,0
;   firstLayerHeightPercentage,100
;   firstLayerWidthPercentage,100
;   firstLayerUnderspeed,1
;   useRaft,0
;   raftExtruder,0
;   raftLayers,3
;   raftOffset,3
;   raftSeparationDistance,0.14
;   raftInfill,85
;   disableRaftBaseLayers,0
;   useSkirt,0
;   skirtExtruder,0
;   skirtLayers,2
;   skirtOutlines,2
;   skirtOffset,4
;   usePrimePillar,0
;   primePillarExtruder,999
;   primePillarWidth,12
;   primePillarLocation,7
;   primePillarSpeedMultiplier,1
;   useOozeShield,0
;   oozeShieldExtruder,999
;   oozeShieldOffset,2
;   oozeShieldOutlines,1
;   oozeShieldSidewallShape,1
;   oozeShieldSidewallAngle,30
;   oozeShieldSpeedMultiplier,1
;   infillExtruder,0
;   internalInfillPattern,Rectilinear
;   externalInfillPattern,Rectilinear
;   infillPercentage,100
;   outlineOverlapPercentage,99
;   infillExtrusionWidthPercentage,100
;   minInfillLength,4
;   infillLayerInterval,1
;   infillAngles,60,-60,0
;   overlapInfillAngles,0
;   generateSupport,0
;   supportExtruder,0
;   supportInfillPercentage,40
;   supportExtraInflation,0
;   denseSupportLayers,0
;   denseSupportInfillPercentage,70
;   supportLayerInterval,1
;   supportHorizontalPartOffset,0.3
;   supportUpperSeparationLayers,1
;   supportLowerSeparationLayers,1
;   supportType,0
;   supportGridSpacing,4
;   maxOverhangAngle,45
;   supportAngles,0
;   temperatureName,Primary Extruder
;   temperatureNumber,0
;   temperatureSetpointCount,1
;   temperatureSetpointLayers,1
;   temperatureSetpointTemperatures,0
;   temperatureStabilizeAtStartup,1
;   temperatureHeatedBed,0
;   temperatureRelayBetweenLayers,0
;   temperatureRelayBetweenLoops,0
;   fanLayers,1,2
;   fanSpeeds,0,100
;   blipFanToFullPower,0
;   adjustSpeedForCooling,0
;   minSpeedLayerTime,15
;   minCoolingSpeedSlowdown,20
;   increaseFanForCooling,0
;   minFanLayerTime,45
;   maxCoolingFanSpeed,100
;   increaseFanForBridging,0
;   bridgingFanSpeed,100
;   use5D,1
;   relativeEdistances,0
;   allowEaxisZeroing,1
;   independentExtruderAxes,0
;   includeM10123,0
;   stickySupport,1
;   applyToolheadOffsets,0
;   gcodeXoffset,0
;   gcodeYoffset,0
;   gcodeZoffset,0
;   overrideMachineDefinition,0
;   machineTypeOverride,0
;   strokeXoverride,200
;   strokeYoverride,200
;   strokeZoverride,200
;   originOffsetXoverride,0
;   originOffsetYoverride,0
;   originOffsetZoverride,0
;   homeXdirOverride,-1
;   homeYdirOverride,-1
;   homeZdirOverride,-1
;   flipXoverride,1
;   flipYoverride,-1
;   flipZoverride,1
;   toolheadOffsets,0,0|0,0|0,0|0,0|0,0|0,0
;   overrideFirmwareConfiguration,0
;   firmwareTypeOverride,RepRap (Marlin/Repetier/Sprinter)
;   GPXconfigOverride,r2
;   baudRateOverride,115200
;   overridePrinterModels,0
;   printerModelsOverride
;   startingGcode,##Start
;   layerChangeGcode,#LayerChange
;   retractionGcode,#Retraction
;   toolChangeGcode,
;   endingGcode,##End
;   exportFileFormat,gcode
;   celebration,0
;   celebrationSong,Random Song
;   postProcessing,
;   defaultSpeed,600
;   outlineUnderspeed,1
;   solidInfillUnderspeed,0.8
;   supportUnderspeed,0.8
;   rapidXYspeed,4800
;   rapidZspeed,1000
;   minBridgingArea,40
;   bridgingExtraInflation,1
;   bridgingExtrusionMultiplier,1
;   bridgingSpeedMultiplier,1
;   filamentDiameter,1.75
;   filamentPricePerKg,46
;   filamentDensity,1.25
;   useMinPrintHeight,0
;   minPrintHeight,0
;   useMaxPrintHeight,0
;   maxPrintHeight,0
;   useDiaphragm,0
;   diaphragmLayerInterval,3
;   robustSlicing,0
;   mergeAllIntoSolid,0
;   onlyRetractWhenCrossingOutline,1
;   retractBetweenLayers,0
;   useRetractionMinTravel,0
;   retractionMinTravel,3
;   retractWhileWiping,0
;   onlyWipeOutlines,1
;   avoidCrossingOutline,0
;   maxMovementDetourFactor,3
;   toolChangeRetractionDistance,0
;   toolChangeExtraRestartDistance,0
;   toolChangeRetractionSpeed,600
;   allowThinWallGapFill,1
;   thinWallAllowedOverlapPercentage,50
;   horizontalSizeCompensation,0
G90
M82
M106 S0
M104 S0 T0
##Start
G92 E0
#Retraction
G1 E0.0000 F1800
G1 Z7.500 F1000
; layer 1, Z = 2.5
#LayerChange
T0
; tool H2.500 W2.400
; infill
G1 X1.128 Y2.785 F4800
G1 Z2.500 F1000
G1 E0.0000 F540
G92 E0
G1 X1.680 Y3.742 E2.7573 F600
G1 X4.452 Y3.742 E9.6703
G1 X2.978 Y1.190 E17.0210
G1 X5.750 Y1.190 E23.9340
G1 X7.223 Y3.742 E31.2848
G1 X9.994 Y3.742 E38.1978
G1 X8.521 Y1.190 E45.5485
G1 X11.292 Y1.190 E52.4615
G1 X32.973 Y38.742 E160.6267
G1 X35.744 Y38.742 E167.5397
G1 X30.275 Y29.270 E194.8226
G1 X29.904 Y29.914 E196.6773
G1 X21.289 Y14.992 E239.6589
G1 X22.032 Y14.992 E241.5135
G1 X14.063 Y1.190 E281.2689
G1 X16.835 Y1.190 E288.1819
G1 X24.803 Y14.992 E327.9373
G1 X27.575 Y14.992 E334.8503
G1 X19.606 Y1.190 E374.6057
G1 X22.377 Y1.190 E381.5187
G1 X30.346 Y14.992 E421.2740
G1 X33.117 Y14.992 E428.1870
G1 X25.149 Y1.190 E467.9424
G1 X27.920 Y1.190 E474.8554
G1 X35.888 Y14.992 E514.6108
G1 X38.519 Y14.992 E521.1727
G1 X37.204 Y17.270 E527.7345
G1 X48.680 Y37.147 E584.9888
G1 X48.680 Y32.347 E596.9624
G1 X30.691 Y1.190 E686.7080
G1 X33.462 Y1.190 E693.6210
G1 X48.680 Y27.547 E769.5406
G1 X48.680 Y22.747 E781.5142
G1 X36.234 Y1.190 E843.6078
G1 X39.005 Y1.190 E850.5208
G1 X48.680 Y17.947 E898.7884
G1 X48.680 Y13.147 E910.7621
G1 X41.776 Y1.190 E945.2037
G1 X44.548 Y1.190 E952.1167
G1 X48.680 Y8.347 E972.7324
G1 X48.680 Y3.547 E984.7060
G1 X47.319 Y1.190 E991.4957
G1 X35.818 Y19.670 F4800
G92 E0
G1 X46.829 Y38.742 E54.9350 F600
G1 X44.058 Y38.742 E61.8479
G1 X34.432 Y22.070 E109.8699
G1 X33.047 Y24.470 E116.7829
G1 X41.287 Y38.742 E157.8919
G1 X38.515 Y38.742 E164.8048
G1 X31.661 Y26.870 E199.0008
G1 X13.574 Y38.742 F4800
G92 E0
G1 X11.128 Y34.505 E12.2036 F600
G1 X11.128 Y29.705 E24.1773
G1 X16.345 Y38.742 E50.2069
G1 X19.116 Y38.742 E57.1199
G1 X11.128 Y24.905 E96.9755
G1 X11.128 Y20.105 E108.9492
G1 X21.888 Y38.742 E162.6307
G1 X24.659 Y38.742 E169.5437
G1 X11.128 Y15.305 E237.0513
G1 X11.128 Y10.505 E249.0249
G1 X27.430 Y38.742 E330.3585
G1 X30.202 Y38.742 E337.2715
G1 X11.128 Y5.705 E432.4310
; layer 2, Z = 5
M106 S255
#LayerChange
; infill
G1 X1.128 Y3.547 F4800
G1 Z5.000 F1000
G92 E0
G1 X2.489 Y1.190 E6.7899 F600
G1 X5.260 Y1.190 E13.7029
G1 X3.787 Y3.742 E21.0537
G1 X6.558 Y3.742 E27.9667
G1 X8.031 Y1.190 E35.3174
G1 X10.803 Y1.190 E42.2304
G1 X9.329 Y3.742 E49.5812
G1 X11.128 Y3.742 E54.0677
G1 X11.128 Y5.427 E58.2705
G1 X13.574 Y1.190 E70.4742
G1 X16.345 Y1.190 E77.3871
G1 X11.128 Y10.227 E103.4168
G1 X11.128 Y15.027 E115.3905
G1 X19.116 Y1.190 E155.2461
G1 X21.888 Y1.190 E162.1591
G1 X11.128 Y19.827 E215.8408
G1 X11.128 Y24.627 E227.8144
G1 X24.659 Y1.190 E295.3220
G1 X27.430 Y1.190 E302.2350
G1 X11.128 Y29.427 E383.5686
G1 X11.128 Y34.227 E395.5423
G1 X21.761 Y15.810 E448.5905
G1 X23.146 Y18.210 E455.5035
G1 X11.292 Y38.742 E514.6444
G1 X14.063 Y38.742 E521.5574
G1 X24.532 Y20.610 E573.7853
G1 X25.918 Y23.010 E580.6983
G1 X16.835 Y38.742 E626.0132
G1 X19.606 Y38.742 E632.9262
G1 X27.303 Y25.410 E671.3281
G1 X28.689 Y27.810 E678.2411
G1 X22.377 Y38.742 E709.7301
G1 X25.149 Y38.742 E716.6431
G1 X46.829 Y1.190 E824.8083
G1 X48.680 Y1.190 E829.4244
G1 X48.680 Y2.785 E833.4027
G1 X27.920 Y38.742 E936.9742
G1 X30.691 Y38.742 E943.8871
G1 X48.680 Y7.585 E1033.6326
G1 X48.680 Y12.385 E1045.6063
G1 X33.462 Y38.742 E1121.5258
G1 X36.234 Y38.742 E1128.4388
G1 X48.680 Y17.185 E1190.5323
G1 X48.680 Y21.985 E1202.5060
G1 X39.005 Y38.742 E1250.7735
G1 X41.776 Y38.742 E1257.6865
G1 X48.680 Y26.785 E1292.1281
G1 X48.680 Y31.585 E1304.1018
G1 X44.548 Y38.742 E1324.7174
G1 X47.319 Y38.742 E1331.6304
G1 X48.680 Y36.385 E1338.4200
G1 X36.089 Y14.992 F4800
G92 E0
G1 X44.058 Y1.190 E39.7554 F600
G1 X41.287 Y1.190 E46.6684
G1 X33.318 Y14.992 E86.4238
G1 X30.547 Y14.992 E93.3368
G1 X38.515 Y1.190 E133.0922
G1 X35.744 Y1.190 E140.0051
G1 X27.776 Y14.992 E179.7605
G1 X25.004 Y14.992 E186.6735
G1 X32.973 Y1.190 E226.4289
G1 X30.202 Y1.190 E233.3419
G1 X22.233 Y14.992 E273.0973
; layer 3, Z = 7.5
#LayerChange
; infill
G1 X37.033 Y17.566 F4800
G1 Z7.500 F1000
G92 E0
G1 X48.680 Y17.566 E29.0533 F600
G1 X48.680 Y19.966 E35.0402
G1 X35.647 Y19.966 E67.5500
G1 X34.262 Y22.366 E74.4630
G1 X48.680 Y22.366 E110.4293
G1 X48.680 Y24.766 E116.4161
G1 X32.876 Y24.766 E155.8389
G1 X31.490 Y27.166 E162.7519
G1 X48.680 Y27.166 E205.6311
G1 X48.680 Y29.566 E211.6180
G1 X30.105 Y29.566 E257.9537
G1 X48.680 Y36.766 F4800
G92 E0
G1 X11.128 Y36.766 E93.6738 F600
G1 X11.128 Y34.366 E99.6607
G1 X48.680 Y34.366 E193.3345
G1 X48.680 Y31.966 E199.3213
G1 X11.128 Y31.966 E292.9952
G1 X11.128 Y29.566 E298.9820
G1 X29.703 Y29.566 E345.3177
G1 X28.317 Y27.166 E352.2307
G1 X11.128 Y27.166 E395.1100
G1 X11.128 Y24.766 E401.0968
G1 X26.932 Y24.766 E440.5196
G1 X25.546 Y22.366 E447.4326
G1 X11.128 Y22.366 E483.3988
G1 X11.128 Y19.966 E489.3857
G1 X24.160 Y19.966 E521.8955
G1 X22.775 Y17.566 E528.8084
G1 X11.128 Y17.566 E557.8617
G1 X11.128 Y15.166 E563.8486
G1 X21.389 Y15.166 E589.4454
G1 X21.289 Y14.992 E589.9466
G1 X38.519 Y14.992 E632.9281
G1 X38.418 Y15.166 E633.4293
G1 X48.680 Y15.166 E659.0262
G1 X48.680 Y12.766 E665.0130
G1 X11.128 Y12.766 E758.6869
G1 X11.128 Y10.366 E764.6737
G1 X48.680 Y10.366 E858.3475
G1 X48.680 Y7.966 E864.3343
G1 X11.128 Y7.966 E958.0082
G1 X11.128 Y5.566 E963.9950
G1 X48.680 Y5.566 E1057.6689
G1 X48.680 Y3.166 E1063.6557
G1 X1.128 Y3.166 E1182.2746
; layer 4, Z = 10
#LayerChange
; infill
G1 X1.128 Y2.785 F4800
G1 Z10.000 F1000
G92 E0
G1 X1.680 Y3.742 E2.7573 F600
G1 X4.452 Y3.742 E9.6703
G1 X2.978 Y1.190 E17.0210
G1 X5.750 Y1.190 E23.9340
G1 X7.223 Y3.742 E31.2848
G1 X9.994 Y3.742 E38.1978
G1 X8.521 Y1.190 E45.5485
G1 X11.292 Y1.190 E52.4615
G1 X32.973 Y38.742 E160.6267
G1 X35.744 Y38.742 E167.5397
G1 X30.275 Y29.270 E194.8226
G1 X29.904 Y29.914 E196.6773
G1 X21.289 Y14.992 E239.6589
G1 X22.032 Y14.992 E241.5135
G1 X14.063 Y1.190 E281.2689
G1 X16.835 Y1.190 E288.1819
G1 X24.803 Y14.992 E327.9373
G1 X27.575 Y14.992 E334.8503
G1 X19.606 Y1.190 E374.6057
G1 X22.377 Y1.190 E381.5187
G1 X30.346 Y14.992 E421.2740
G1 X33.117 Y14.992 E428.1870
G1 X25.149 Y1.190 E467.9424
G1 X27.920 Y1.190 E474.8554
G1 X35.888 Y14.992 E514.6108
G1 X38.519 Y14.992 E521.1727
G1 X37.204 Y17.270 E527.7345
G1 X48.680 Y37.147 E584.9888
G1 X48.680 Y32.347 E596.9624
G1 X30.691 Y1.190 E686.7080
G1 X33.462 Y1.190 E693.6210
G1 X48.680 Y27.547 E769.5406
G1 X48.680 Y22.747 E781.5142
G1 X36.234 Y1.190 E843.6078
G1 X39.005 Y1.190 E850.5208
G1 X48.680 Y17.947 E898.7884
G1 X48.680 Y13.147 E910.7621
G1 X41.776 Y1.190 E945.2037
G1 X44.548 Y1.190 E952.1167
G1 X48.680 Y8.347 E972.7324
G1 X48.680 Y3.547 E984.7060
G1 X47.319 Y1.190 E991.4957
G1 X35.818 Y19.670 F4800
G92 E0
G1 X46.829 Y38.742 E54.9350 F600
G1 X44.058 Y38.742 E61.8479
G1 X34.432 Y22.070 E109.8699
G1 X33.047 Y24.470 E116.7829
G1 X41.287 Y38.742 E157.8919
G1 X38.515 Y38.742 E164.8048
G1 X31.661 Y26.870 E199.0008
G1 X13.574 Y38.742 F4800
G92 E0
G1 X11.128 Y34.505 E12.2036 F600
G1 X11.128 Y29.705 E24.1773
G1 X16.345 Y38.742 E50.2069
G1 X19.116 Y38.742 E57.1199
G1 X11.128 Y24.905 E96.9755
G1 X11.128 Y20.105 E108.9492
G1 X21.888 Y38.742 E162.6307
G1 X24.659 Y38.742 E169.5437
G1 X11.128 Y15.305 E237.0513
G1 X11.128 Y10.505 E249.0249
G1 X27.430 Y38.742 E330.3585
G1 X30.202 Y38.742 E337.2715
G1 X11.128 Y5.705 E432.4310
; layer 5, Z = 12.5
#LayerChange
; infill
G1 X1.128 Y3.547 F4800
G1 Z12.500 F1000
G92 E0
G1 X2.489 Y1.190 E6.7899 F600
G1 X5.260 Y1.190 E13.7029
G1 X3.787 Y3.742 E21.0537
G1 X6.558 Y3.742 E27.9667
G1 X8.031 Y1.190 E35.3174
G1 X10.803 Y1.190 E42.2304
G1 X9.329 Y3.742 E49.5812
G1 X11.128 Y3.742 E54.0677
G1 X11.128 Y5.427 E58.2705
G1 X13.574 Y1.190 E70.4742
G1 X16.345 Y1.190 E77.3871
G1 X11.128 Y10.227 E103.4168
G1 X11.128 Y15.027 E115.3905
G1 X19.116 Y1.190 E155.2461
G1 X21.888 Y1.190 E162.1591
G1 X11.128 Y19.827 E215.8408
G1 X11.128 Y24.627 E227.8144
G1 X24.659 Y1.190 E295.3220
G1 X27.430 Y1.190 E302.2350
G1 X11.128 Y29.427 E383.5686
G1 X11.128 Y34.227 E395.5423
G1 X21.761 Y15.810 E448.5905
G1 X23.146 Y18.210 E455.5035
G1 X11.292 Y38.742 E514.6444
G1 X14.063 Y38.742 E521.5574
G1 X24.532 Y20.610 E573.7853
G1 X25.918 Y23.010 E580.6983
G1 X16.835 Y38.742 E626.0132
G1 X19.606 Y38.742 E632.9262
G1 X27.303 Y25.410 E671.3281
G1 X28.689 Y27.810 E678.2411
G1 X22.377 Y38.742 E709.7301
G1 X25.149 Y38.742 E716.6431
G1 X46.829 Y1.190 E824.8083
G1 X48.680 Y1.190 E829.4244
G1 X48.680 Y2.785 E833.4027
G1 X27.920 Y38.742 E936.9742
G1 X30.691 Y38.742 E943.8871
G1 X48.680 Y7.585 E1033.6326
G1 X48.680 Y12.385 E1045.6063
G1 X33.462 Y38.742 E1121.5258
G1 X36.234 Y38.742 E1128.4388
G1 X48.680 Y17.185 E1190.5323
G1 X48.680 Y21.985 E1202.5060
G1 X39.005 Y38.742 E1250.7735
G1 X41.776 Y38.742 E1257.6865
G1 X48.680 Y26.785 E1292.1281
G1 X48.680 Y31.585 E1304.1018
G1 X44.548 Y38.742 E1324.7174
G1 X47.319 Y38.742 E1331.6304
G1 X48.680 Y36.385 E1338.4200
G1 X36.089 Y14.992 F4800
G92 E0
G1 X44.058 Y1.190 E39.7554 F600
G1 X41.287 Y1.190 E46.6684
G1 X33.318 Y14.992 E86.4238
G1 X30.547 Y14.992 E93.3368
G1 X38.515 Y1.190 E133.0922
G1 X35.744 Y1.190 E140.0051
G1 X27.776 Y14.992 E179.7605
G1 X25.004 Y14.992 E186.6735
G1 X32.973 Y1.190 E226.4289
G1 X30.202 Y1.190 E233.3419
G1 X22.233 Y14.992 E273.0973
; layer 6, Z = 15
#LayerChange
; infill
G1 X37.033 Y17.566 F4800
G1 Z15.000 F1000
G92 E0
G1 X48.680 Y17.566 E29.0533 F600
G1 X48.680 Y19.966 E35.0402
G1 X35.647 Y19.966 E67.5500
G1 X34.262 Y22.366 E74.4630
G1 X48.680 Y22.366 E110.4293
G1 X48.680 Y24.766 E116.4161
G1 X32.876 Y24.766 E155.8389
G1 X31.490 Y27.166 E162.7519
G1 X48.680 Y27.166 E205.6311
G1 X48.680 Y29.566 E211.6180
G1 X30.105 Y29.566 E257.9537
G1 X48.680 Y36.766 F4800
G92 E0
G1 X11.128 Y36.766 E93.6738 F600
G1 X11.128 Y34.366 E99.6607
G1 X48.680 Y34.366 E193.3345
G1 X48.680 Y31.966 E199.3213
G1 X11.128 Y31.966 E292.9952
G1 X11.128 Y29.566 E298.9820
G1 X29.703 Y29.566 E345.3177
G1 X28.317 Y27.166 E352.2307
G1 X11.128 Y27.166 E395.1100
G1 X11.128 Y24.766 E401.0968
G1 X26.932 Y24.766 E440.5196
G1 X25.546 Y22.366 E447.4326
G1 X11.128 Y22.366 E483.3988
G1 X11.128 Y19.966 E489.3857
G1 X24.160 Y19.966 E521.8955
G1 X22.775 Y17.566 E528.8084
G1 X11.128 Y17.566 E557.8617
G1 X11.128 Y15.166 E563.8486
G1 X21.389 Y15.166 E589.4454
G1 X21.289 Y14.992 E589.9466
G1 X38.519 Y14.992 E632.9281
G1 X38.418 Y15.166 E633.4293
G1 X48.680 Y15.166 E659.0262
G1 X48.680 Y12.766 E665.0130
G1 X11.128 Y12.766 E758.6869
G1 X11.128 Y10.366 E764.6737
G1 X48.680 Y10.366 E858.3475
G1 X48.680 Y7.966 E864.3343
G1 X11.128 Y7.966 E958.0082
G1 X11.128 Y5.566 E963.9950
G1 X48.680 Y5.566 E1057.6689
G1 X48.680 Y3.166 E1063.6557
G1 X1.128 Y3.166 E1182.2746
; layer end
##End
; Build Summary
;   Build time: 0 hours 6 minutes
;   Filament length: 9349.3 mm (9.35 m)
;   Plastic volume: 22487.81 mm^3 (22.49 cc)
;   Plastic weight: 28.11 g (0.06 lb)
;   Material cost: 1.29
