; G-Code generated by Simplify3D(R) Version 3.1.1
; Apr 12, 2019 at 10:29:15 AM
; Settings Summary
;   processName,Gutroff_Olli
;   applyToModels,block_bohrung
;   profileName,Default (modified)
;   profileVersion,2015-05-01 08:00:00
;   baseProfile,
;   printMaterial,PLA
;   printQuality,High
;   printExtruders,
;   extruderName,Primary Extruder
;   extruderToolheadNumber,0
;   extruderDiameter,1
;   extruderAutoWidth,0
;   extruderWidth,4
;   extrusionMultiplier,1
;   extruderUseRetract,0
;   extruderRetractionDistance,0
;   extruderExtraRestartDistance,0
;   extruderRetractionZLift,5
;   extruderRetractionSpeed,1800
;   extruderUseCoasting,0
;   extruderCoastingDistance,0.2
;   extruderUseWipe,0
;   extruderWipeDistance,5
;   primaryExtruder,0
;   layerHeight,1.5
;   topSolidLayers,0
;   bottomSolidLayers,0
;   perimeterOutlines,1
;   printPerimetersInsideOut,0
;   startPointOption,1
;   startPointOriginX,0
;   startPointOriginY,0
;   startPointOriginZ,300
;   sequentialIslands,0
;   spiralVaseMode,0
;   firstLayerHeightPercentage,100
;   firstLayerWidthPercentage,100
;   firstLayerUnderspeed,1
;   useRaft,0
;   raftExtruder,0
;   raftLayers,3
;   raftOffset,3
;   raftSeparationDistance,0.14
;   raftInfill,85
;   disableRaftBaseLayers,0
;   useSkirt,0
;   skirtExtruder,0
;   skirtLayers,2
;   skirtOutlines,2
;   skirtOffset,4
;   usePrimePillar,0
;   primePillarExtruder,999
;   primePillarWidth,12
;   primePillarLocation,7
;   primePillarSpeedMultiplier,1
;   useOozeShield,0
;   oozeShieldExtruder,999
;   oozeShieldOffset,2
;   oozeShieldOutlines,1
;   oozeShieldSidewallShape,1
;   oozeShieldSidewallAngle,30
;   oozeShieldSpeedMultiplier,1
;   infillExtruder,0
;   internalInfillPattern,Rectilinear
;   externalInfillPattern,Rectilinear
;   infillPercentage,100
;   outlineOverlapPercentage,10
;   infillExtrusionWidthPercentage,100
;   minInfillLength,4
;   infillLayerInterval,1
;   infillAngles,0
;   overlapInfillAngles,0
;   generateSupport,0
;   supportExtruder,0
;   supportInfillPercentage,40
;   supportExtraInflation,0
;   denseSupportLayers,0
;   denseSupportInfillPercentage,70
;   supportLayerInterval,1
;   supportHorizontalPartOffset,0.3
;   supportUpperSeparationLayers,1
;   supportLowerSeparationLayers,1
;   supportType,0
;   supportGridSpacing,4
;   maxOverhangAngle,45
;   supportAngles,0
;   temperatureName,Primary Extruder
;   temperatureNumber,0
;   temperatureSetpointCount,1
;   temperatureSetpointLayers,1
;   temperatureSetpointTemperatures,0
;   temperatureStabilizeAtStartup,1
;   temperatureHeatedBed,0
;   temperatureRelayBetweenLayers,0
;   temperatureRelayBetweenLoops,0
;   fanLayers,1,2
;   fanSpeeds,0,100
;   blipFanToFullPower,0
;   adjustSpeedForCooling,0
;   minSpeedLayerTime,15
;   minCoolingSpeedSlowdown,20
;   increaseFanForCooling,0
;   minFanLayerTime,45
;   maxCoolingFanSpeed,100
;   increaseFanForBridging,0
;   bridgingFanSpeed,100
;   use5D,1
;   relativeEdistances,0
;   allowEaxisZeroing,1
;   independentExtruderAxes,0
;   includeM10123,0
;   stickySupport,1
;   applyToolheadOffsets,0
;   gcodeXoffset,0
;   gcodeYoffset,0
;   gcodeZoffset,0
;   overrideMachineDefinition,0
;   machineTypeOverride,0
;   strokeXoverride,200
;   strokeYoverride,200
;   strokeZoverride,200
;   originOffsetXoverride,0
;   originOffsetYoverride,0
;   originOffsetZoverride,0
;   homeXdirOverride,-1
;   homeYdirOverride,-1
;   homeZdirOverride,-1
;   flipXoverride,1
;   flipYoverride,-1
;   flipZoverride,1
;   toolheadOffsets,0,0|0,0|0,0|0,0|0,0|0,0
;   overrideFirmwareConfiguration,0
;   firmwareTypeOverride,RepRap (Marlin/Repetier/Sprinter)
;   GPXconfigOverride,r2
;   baudRateOverride,115200
;   overridePrinterModels,0
;   printerModelsOverride
;   startingGcode,##Start
;   layerChangeGcode,#LayerChange
;   retractionGcode,#Retraction
;   toolChangeGcode,
;   endingGcode,##End
;   exportFileFormat,gcode
;   celebration,0
;   celebrationSong,Random Song
;   postProcessing,
;   defaultSpeed,600
;   outlineUnderspeed,1
;   solidInfillUnderspeed,0.8
;   supportUnderspeed,0.8
;   rapidXYspeed,4800
;   rapidZspeed,1000
;   minBridgingArea,40
;   bridgingExtraInflation,1
;   bridgingExtrusionMultiplier,1
;   bridgingSpeedMultiplier,1
;   filamentDiameter,1.75
;   filamentPricePerKg,46
;   filamentDensity,1.25
;   useMinPrintHeight,0
;   minPrintHeight,0
;   useMaxPrintHeight,0
;   maxPrintHeight,0
;   useDiaphragm,0
;   diaphragmLayerInterval,3
;   robustSlicing,0
;   mergeAllIntoSolid,0
;   onlyRetractWhenCrossingOutline,1
;   retractBetweenLayers,0
;   useRetractionMinTravel,0
;   retractionMinTravel,3
;   retractWhileWiping,0
;   onlyWipeOutlines,1
;   avoidCrossingOutline,0
;   maxMovementDetourFactor,3
;   toolChangeRetractionDistance,0
;   toolChangeExtraRestartDistance,0
;   toolChangeRetractionSpeed,600
;   allowThinWallGapFill,1
;   thinWallAllowedOverlapPercentage,50
;   horizontalSizeCompensation,0
G90
M82
M106 S0
M104 S0 T0
##Start
G92 E0
#Retraction
G1 E0.0000 F1800
G1 Z6.500 F1000
; layer 1, Z = 1.5
#LayerChange
T0
; tool H1.500 W4.000
; outer perimeter
G1 X18.135 Y2.178 F4800
G1 Z1.500 F1000
G1 E0.0000 F540
G92 E0
G1 X18.135 Y18.178 E39.9122 F600
G1 X2.135 Y18.178 E79.8243
G1 X2.135 Y2.178 E119.7365
G1 X18.135 Y2.178 E159.6486
; infill
G1 X14.535 Y14.178 F4800
G92 E0
G1 X5.735 Y14.178 E21.9517 F600
G1 X5.735 Y10.178 E31.9297
G1 X14.535 Y10.178 E53.8814
G1 X14.535 Y6.178 E63.8595
G1 X5.735 Y6.178 E85.8111
; outer perimeter
G1 X48.135 Y18.178 F4800
G92 E0
G1 X32.135 Y18.178 E39.9122 F600
G1 X32.135 Y2.178 E79.8243
G1 X48.135 Y2.178 E119.7365
G1 X48.135 Y18.178 E159.6486
; infill
G1 X44.535 Y14.178 F4800
G92 E0
G1 X35.735 Y14.178 E21.9517 F600
G1 X35.735 Y10.178 E31.9297
G1 X44.535 Y10.178 E53.8814
G1 X44.535 Y6.178 E63.8595
G1 X35.735 Y6.178 E85.8111
; outer perimeter
G1 X78.135 Y18.178 F4800
G92 E0
G1 X62.135 Y18.178 E39.9122 F600
G1 X62.135 Y2.178 E79.8243
G1 X78.135 Y2.178 E119.7365
G1 X78.135 Y18.178 E159.6486
; infill
G1 X74.535 Y14.178 F4800
G92 E0
G1 X65.735 Y14.178 E21.9517 F600
G1 X65.735 Y10.178 E31.9297
G1 X74.535 Y10.178 E53.8814
G1 X74.535 Y6.178 E63.8595
G1 X65.735 Y6.178 E85.8111
; layer 2, Z = 3
M106 S255
#LayerChange
; outer perimeter
G1 X62.135 Y2.178 F4800
G1 Z3.000 F1000
G92 E0
G1 X78.135 Y2.178 E39.9122 F600
G1 X78.135 Y18.178 E79.8243
G1 X62.135 Y18.178 E119.7365
G1 X62.135 Y2.178 E159.6486
; infill
G1 X65.735 Y6.178 F4800
G92 E0
G1 X74.535 Y6.178 E21.9517 F600
G1 X74.535 Y10.178 E31.9297
G1 X65.735 Y10.178 E53.8814
G1 X65.735 Y14.178 E63.8595
G1 X74.535 Y14.178 E85.8111
; outer perimeter
G1 X48.135 Y18.178 F4800
G92 E0
G1 X32.135 Y18.178 E39.9122 F600
G1 X32.135 Y2.178 E79.8243
G1 X48.135 Y2.178 E119.7365
G1 X48.135 Y18.178 E159.6486
; infill
G1 X44.535 Y14.178 F4800
G92 E0
G1 X35.735 Y14.178 E21.9517 F600
G1 X35.735 Y10.178 E31.9297
G1 X44.535 Y10.178 E53.8814
G1 X44.535 Y6.178 E63.8595
G1 X35.735 Y6.178 E85.8111
; outer perimeter
G1 X2.135 Y18.178 F4800
G92 E0
G1 X2.135 Y2.178 E39.9122 F600
G1 X18.135 Y2.178 E79.8243
G1 X18.135 Y18.178 E119.7365
G1 X2.135 Y18.178 E159.6486
; infill
G1 X5.735 Y6.178 F4800
G92 E0
G1 X14.535 Y6.178 E21.9517 F600
G1 X14.535 Y10.178 E31.9297
G1 X5.735 Y10.178 E53.8814
G1 X5.735 Y14.178 E63.8595
G1 X14.535 Y14.178 E85.8111
; layer 3, Z = 4.5
#LayerChange
; outer perimeter
G1 X18.135 Y2.178 F4800
G1 Z4.500 F1000
G92 E0
G1 X18.135 Y18.178 E39.9122 F600
G1 X2.135 Y18.178 E79.8243
G1 X2.135 Y2.178 E119.7365
G1 X18.135 Y2.178 E159.6486
; infill
G1 X14.535 Y14.178 F4800
G92 E0
G1 X5.735 Y14.178 E21.9517 F600
G1 X5.735 Y10.178 E31.9297
G1 X14.535 Y10.178 E53.8814
G1 X14.535 Y6.178 E63.8595
G1 X5.735 Y6.178 E85.8111
; outer perimeter
G1 X48.135 Y2.178 F4800
G92 E0
G1 X48.135 Y18.178 E39.9122 F600
G1 X32.135 Y18.178 E79.8243
G1 X32.135 Y2.178 E119.7365
G1 X48.135 Y2.178 E159.6486
; infill
G1 X44.535 Y14.178 F4800
G92 E0
G1 X35.735 Y14.178 E21.9517 F600
G1 X35.735 Y10.178 E31.9297
G1 X44.535 Y10.178 E53.8814
G1 X44.535 Y6.178 E63.8595
G1 X35.735 Y6.178 E85.8111
; outer perimeter
G1 X62.135 Y2.178 F4800
G92 E0
G1 X78.135 Y2.178 E39.9122 F600
G1 X78.135 Y18.178 E79.8243
G1 X62.135 Y18.178 E119.7365
G1 X62.135 Y2.178 E159.6486
; infill
G1 X65.735 Y6.178 F4800
G92 E0
G1 X74.535 Y6.178 E21.9517 F600
G1 X74.535 Y10.178 E31.9297
G1 X65.735 Y10.178 E53.8814
G1 X65.735 Y14.178 E63.8595
G1 X74.535 Y14.178 E85.8111
; layer 4, Z = 6
#LayerChange
; outer perimeter
G1 X78.135 Y18.178 F4800
G1 Z6.000 F1000
G92 E0
G1 X62.135 Y18.178 E39.9122 F600
G1 X62.135 Y2.178 E79.8243
G1 X78.135 Y2.178 E119.7365
G1 X78.135 Y18.178 E159.6486
; infill
G1 X74.535 Y14.178 F4800
G92 E0
G1 X65.735 Y14.178 E21.9517 F600
G1 X65.735 Y10.178 E31.9297
G1 X74.535 Y10.178 E53.8814
G1 X74.535 Y6.178 E63.8595
G1 X65.735 Y6.178 E85.8111
; outer perimeter
G1 X48.135 Y18.178 F4800
G92 E0
G1 X32.135 Y18.178 E39.9122 F600
G1 X32.135 Y2.178 E79.8243
G1 X48.135 Y2.178 E119.7365
G1 X48.135 Y18.178 E159.6486
; infill
G1 X44.535 Y14.178 F4800
G92 E0
G1 X35.735 Y14.178 E21.9517 F600
G1 X35.735 Y10.178 E31.9297
G1 X44.535 Y10.178 E53.8814
G1 X44.535 Y6.178 E63.8595
G1 X35.735 Y6.178 E85.8111
; outer perimeter
G1 X2.135 Y18.178 F4800
G92 E0
G1 X2.135 Y2.178 E39.9122 F600
G1 X18.135 Y2.178 E79.8243
G1 X18.135 Y18.178 E119.7365
G1 X2.135 Y18.178 E159.6486
; infill
G1 X5.735 Y6.178 F4800
G92 E0
G1 X14.535 Y6.178 E21.9517 F600
G1 X14.535 Y10.178 E31.9297
G1 X5.735 Y10.178 E53.8814
G1 X5.735 Y14.178 E63.8595
G1 X14.535 Y14.178 E85.8111
; layer 5, Z = 7.5
#LayerChange
; outer perimeter
G1 X2.135 Y2.178 F4800
G1 Z7.500 F1000
G92 E0
G1 X18.135 Y2.178 E39.9122 F600
G1 X18.135 Y18.178 E79.8243
G1 X2.135 Y18.178 E119.7365
G1 X2.135 Y2.178 E159.6486
; infill
G1 X5.735 Y6.178 F4800
G92 E0
G1 X14.535 Y6.178 E21.9517 F600
G1 X14.535 Y10.178 E31.9297
G1 X5.735 Y10.178 E53.8814
G1 X5.735 Y14.178 E63.8595
G1 X14.535 Y14.178 E85.8111
; outer perimeter
G1 X48.135 Y18.178 F4800
G92 E0
G1 X32.135 Y18.178 E39.9122 F600
G1 X32.135 Y2.178 E79.8243
G1 X48.135 Y2.178 E119.7365
G1 X48.135 Y18.178 E159.6486
; infill
G1 X44.535 Y14.178 F4800
G92 E0
G1 X35.735 Y14.178 E21.9517 F600
G1 X35.735 Y10.178 E31.9297
G1 X44.535 Y10.178 E53.8814
G1 X44.535 Y6.178 E63.8595
G1 X35.735 Y6.178 E85.8111
; outer perimeter
G1 X78.135 Y2.178 F4800
G92 E0
G1 X78.135 Y18.178 E39.9122 F600
G1 X62.135 Y18.178 E79.8243
G1 X62.135 Y2.178 E119.7365
G1 X78.135 Y2.178 E159.6486
; infill
G1 X74.535 Y14.178 F4800
G92 E0
G1 X65.735 Y14.178 E21.9517 F600
G1 X65.735 Y10.178 E31.9297
G1 X74.535 Y10.178 E53.8814
G1 X74.535 Y6.178 E63.8595
G1 X65.735 Y6.178 E85.8111
; layer end
##End
; Build Summary
;   Build time: 0 hours 2 minutes
;   Filament length: 3681.9 mm (3.68 m)
;   Plastic volume: 8856.00 mm^3 (8.86 cc)
;   Plastic weight: 11.07 g (0.02 lb)
;   Material cost: 0.51
