; G-Code generated by Simplify3D(R) Version 3.1.1
; Mar 22, 2019 at 1:05:45 PM
; Settings Summary
;   processName,Process1
;   applyToModels,BTULogoKompaktversiondeutschPNGSW
;   profileName,Default (modified)
;   profileVersion,2015-05-01 08:00:00
;   baseProfile,
;   printMaterial,PLA
;   printQuality,High
;   printExtruders,
;   extruderName,Primary Extruder
;   extruderToolheadNumber,0
;   extruderDiameter,1
;   extruderAutoWidth,0
;   extruderWidth,3
;   extrusionMultiplier,1
;   extruderUseRetract,1
;   extruderRetractionDistance,0
;   extruderExtraRestartDistance,0
;   extruderRetractionZLift,5
;   extruderRetractionSpeed,1800
;   extruderUseCoasting,0
;   extruderCoastingDistance,0.2
;   extruderUseWipe,0
;   extruderWipeDistance,5
;   primaryExtruder,0
;   layerHeight,1.3
;   topSolidLayers,0
;   bottomSolidLayers,0
;   perimeterOutlines,1
;   printPerimetersInsideOut,1
;   startPointOption,1
;   startPointOriginX,0
;   startPointOriginY,0
;   startPointOriginZ,300
;   sequentialIslands,0
;   spiralVaseMode,0
;   firstLayerHeightPercentage,115
;   firstLayerWidthPercentage,100
;   firstLayerUnderspeed,1
;   useRaft,0
;   raftExtruder,0
;   raftLayers,3
;   raftOffset,3
;   raftSeparationDistance,0.14
;   raftInfill,85
;   disableRaftBaseLayers,0
;   useSkirt,0
;   skirtExtruder,0
;   skirtLayers,2
;   skirtOutlines,2
;   skirtOffset,4
;   usePrimePillar,0
;   primePillarExtruder,999
;   primePillarWidth,12
;   primePillarLocation,7
;   primePillarSpeedMultiplier,1
;   useOozeShield,0
;   oozeShieldExtruder,999
;   oozeShieldOffset,2
;   oozeShieldOutlines,1
;   oozeShieldSidewallShape,1
;   oozeShieldSidewallAngle,30
;   oozeShieldSpeedMultiplier,1
;   infillExtruder,0
;   internalInfillPattern,Rectilinear
;   externalInfillPattern,Rectilinear
;   infillPercentage,100
;   outlineOverlapPercentage,15
;   infillExtrusionWidthPercentage,100
;   minInfillLength,5
;   infillLayerInterval,1
;   infillAngles,45,-45
;   overlapInfillAngles,0
;   generateSupport,0
;   supportExtruder,0
;   supportInfillPercentage,40
;   supportExtraInflation,0
;   denseSupportLayers,0
;   denseSupportInfillPercentage,70
;   supportLayerInterval,1
;   supportHorizontalPartOffset,0.3
;   supportUpperSeparationLayers,1
;   supportLowerSeparationLayers,1
;   supportType,0
;   supportGridSpacing,4
;   maxOverhangAngle,45
;   supportAngles,0
;   temperatureName,Primary Extruder
;   temperatureNumber,0
;   temperatureSetpointCount,1
;   temperatureSetpointLayers,1
;   temperatureSetpointTemperatures,0
;   temperatureStabilizeAtStartup,1
;   temperatureHeatedBed,0
;   temperatureRelayBetweenLayers,0
;   temperatureRelayBetweenLoops,0
;   fanLayers,1,2
;   fanSpeeds,0,100
;   blipFanToFullPower,0
;   adjustSpeedForCooling,0
;   minSpeedLayerTime,15
;   minCoolingSpeedSlowdown,20
;   increaseFanForCooling,0
;   minFanLayerTime,45
;   maxCoolingFanSpeed,100
;   increaseFanForBridging,0
;   bridgingFanSpeed,100
;   use5D,1
;   relativeEdistances,0
;   allowEaxisZeroing,1
;   independentExtruderAxes,0
;   includeM10123,0
;   stickySupport,1
;   applyToolheadOffsets,0
;   gcodeXoffset,0
;   gcodeYoffset,0
;   gcodeZoffset,0
;   overrideMachineDefinition,0
;   machineTypeOverride,0
;   strokeXoverride,200
;   strokeYoverride,200
;   strokeZoverride,200
;   originOffsetXoverride,0
;   originOffsetYoverride,0
;   originOffsetZoverride,0
;   homeXdirOverride,-1
;   homeYdirOverride,-1
;   homeZdirOverride,-1
;   flipXoverride,1
;   flipYoverride,-1
;   flipZoverride,1
;   toolheadOffsets,0,0|0,0|0,0|0,0|0,0|0,0
;   overrideFirmwareConfiguration,0
;   firmwareTypeOverride,RepRap (Marlin/Repetier/Sprinter)
;   GPXconfigOverride,r2
;   baudRateOverride,115200
;   overridePrinterModels,0
;   printerModelsOverride
;   startingGcode,##Start
;   layerChangeGcode,#LayerChange
;   retractionGcode,#Retraction
;   toolChangeGcode,
;   endingGcode,##End
;   exportFileFormat,gcode
;   celebration,0
;   celebrationSong,Random Song
;   postProcessing,
;   defaultSpeed,600
;   outlineUnderspeed,1
;   solidInfillUnderspeed,0.8
;   supportUnderspeed,0.8
;   rapidXYspeed,4800
;   rapidZspeed,1000
;   minBridgingArea,40
;   bridgingExtraInflation,1
;   bridgingExtrusionMultiplier,1
;   bridgingSpeedMultiplier,1
;   filamentDiameter,1.75
;   filamentPricePerKg,46
;   filamentDensity,1.25
;   useMinPrintHeight,1
;   minPrintHeight,1.5
;   useMaxPrintHeight,1
;   maxPrintHeight,2.5
;   useDiaphragm,0
;   diaphragmLayerInterval,20
;   robustSlicing,0
;   mergeAllIntoSolid,0
;   onlyRetractWhenCrossingOutline,1
;   retractBetweenLayers,0
;   useRetractionMinTravel,0
;   retractionMinTravel,3
;   retractWhileWiping,0
;   onlyWipeOutlines,1
;   avoidCrossingOutline,0
;   maxMovementDetourFactor,3
;   toolChangeRetractionDistance,0
;   toolChangeExtraRestartDistance,0
;   toolChangeRetractionSpeed,600
;   allowThinWallGapFill,1
;   thinWallAllowedOverlapPercentage,50
;   horizontalSizeCompensation,0
G90
M82
M106 S0
M104 S0 T0
##Start
G92 E0
#Retraction
G1 E0.0000 F1800
G1 Z7.795 F1000
; layer 1, Z = 2.795
#LayerChange
T0
; tool H1.300 W3.000
; outer perimeter
G1 X3.907 Y46.803 F4800
G1 Z2.795 F1000
G1 E0.0000 F540
G92 E0
G1 X3.583 Y46.861 E0.5338 F600
G1 X3.247 Y46.900 E1.0811
G1 X2.612 Y47.029 E2.1325
G1 X1.805 Y47.067 E3.4421
G1 X1.782 Y47.066 E3.4790
G1 X1.030 Y46.980 E4.7068
G1 X0.258 Y46.814 E5.9866
G1 X-0.573 Y46.433 E7.4694
G1 X-0.582 Y46.430 E7.4854
G1 X-1.294 Y45.950 E8.8778
G1 X-1.634 Y45.636 E9.6277
G1 X-2.312 Y44.852 E11.3091
G1 X-2.541 Y44.349 E12.2054
G1 X-2.727 Y43.996 E12.8517
G1 X-3.065 Y43.254 E14.1741
G1 X-3.083 Y43.063 E14.4848
G1 X-3.240 Y42.434 E15.5361
G1 X-3.248 Y42.049 E16.1597
G1 X-3.284 Y41.564 E16.9493
G1 X-3.289 Y40.607 E18.5010
G1 X-3.286 Y2.178 E80.8111
G1 X-3.273 Y1.199 E82.3990
G1 X-3.212 Y-0.213 E84.6890
G1 X-3.152 Y-0.737 E85.5444
G1 X-3.131 Y-1.080 E86.1023
G1 X-3.026 Y-1.687 E87.1006
G1 X-3.009 Y-1.889 E87.4289
G1 X-2.860 Y-2.483 E88.4229
G1 X-2.816 Y-2.594 E88.6158
G1 X-2.568 Y-3.464 E90.0833
G1 X-2.555 Y-3.686 E90.4436
G1 X-2.415 Y-4.292 E91.4515
G1 X-2.298 Y-5.127 E92.8183
G1 X-2.153 Y-5.601 E93.6223
G1 X-2.125 Y-5.801 E93.9501
G1 X-1.883 Y-6.260 E94.7917
G1 X-1.467 Y-7.196 E96.4512
G1 X-1.390 Y-7.658 E97.2116
G1 X-1.315 Y-7.984 E97.7546
G1 X-1.076 Y-8.509 E98.6897
G1 X-0.590 Y-9.123 E99.9588
G1 X-0.511 Y-9.599 E100.7414
G1 X-0.388 Y-9.951 E101.3460
G1 X-0.146 Y-10.451 E102.2465
G1 X0.394 Y-11.007 E103.5036
G1 X0.519 Y-11.563 E104.4268
G1 X0.605 Y-11.789 E104.8185
G1 X0.908 Y-12.207 E105.6565
G1 X1.443 Y-12.862 E107.0274
G1 X1.693 Y-13.439 E108.0469
G1 X2.296 Y-13.860 E109.2387
G1 X2.491 Y-14.478 E110.2899
G1 X2.535 Y-14.568 E110.4523
G1 X2.606 Y-14.628 E110.6033
G1 X3.140 Y-14.874 E111.5564
G1 X3.291 Y-15.406 E112.4535
G1 X3.418 Y-15.595 E112.8222
G1 X3.876 Y-16.020 E113.8359
G1 X4.332 Y-16.568 E114.9917
G1 X4.569 Y-16.781 E115.5081
G1 X4.637 Y-16.802 E115.6236
G1 X4.837 Y-17.021 E116.1044
G1 X5.058 Y-17.219 E116.5852
G1 X5.080 Y-17.287 E116.7013
G1 X5.278 Y-17.504 E117.1768
G1 X5.496 Y-17.670 E117.6221
G1 X5.968 Y-17.809 E118.4188
G1 X6.157 Y-18.284 E119.2476
G1 X6.273 Y-18.417 E119.5343
G1 X6.417 Y-18.501 E119.8045
G1 X6.992 Y-18.676 E120.7784
G1 X7.313 Y-19.266 E121.8682
G1 X7.323 Y-19.279 E121.8946
G1 X7.984 Y-19.542 E123.0473
G1 X8.501 Y-20.109 E124.2918
G1 X9.363 Y-20.602 E125.9020
G1 X9.775 Y-20.686 E126.5833
G1 X10.086 Y-21.118 E127.4463
G1 X10.181 Y-21.207 E127.6571
G1 X10.801 Y-21.397 E128.7081
G1 X11.399 Y-21.763 E129.8463
G1 X11.435 Y-21.770 E129.9055
G1 X11.604 Y-21.889 E130.2393
G1 X11.768 Y-21.989 E130.5506
G1 X11.793 Y-22.021 E130.6171
G1 X12.031 Y-22.189 E131.0896
G1 X12.693 Y-22.356 E132.1975
G1 X13.271 Y-22.616 E133.2249
G1 X13.463 Y-22.644 E133.5386
G1 X14.077 Y-23.062 E134.7428
G1 X14.229 Y-23.088 E134.9924
G1 X14.701 Y-23.254 E135.8043
G1 X15.107 Y-23.339 E136.4773
G1 X15.505 Y-23.390 E137.1268
G1 X16.450 Y-23.736 E138.7586
G1 X16.984 Y-23.975 E139.7077
G1 X17.171 Y-23.997 E140.0126
G1 X17.682 Y-24.148 E140.8771
G1 X18.072 Y-24.185 E141.5122
G1 X18.481 Y-24.256 E142.1857
G1 X19.386 Y-24.338 E143.6587
G1 X20.021 Y-24.433 E144.7009
G1 X20.235 Y-24.441 E145.0467
G1 X21.062 Y-24.556 E146.4017
G1 X22.010 Y-24.647 E147.9448
G1 X22.916 Y-24.702 E149.4168
G1 X23.747 Y-24.671 E150.7650
G1 X24.799 Y-24.489 E152.4969
G1 X25.392 Y-24.342 E153.4870
G1 X26.153 Y-23.964 E154.8650
G1 X26.227 Y-23.942 E154.9907
G1 X26.236 Y-23.935 E155.0080
G1 X26.967 Y-23.430 E156.4489
G1 X27.290 Y-23.116 E157.1800
G1 X27.934 Y-22.343 E158.8109
G1 X28.078 Y-21.991 E159.4280
G1 X28.310 Y-21.508 E160.2974
G1 X28.560 Y-20.886 E161.3832
G1 X28.642 Y-20.714 E161.6928
G1 X28.644 Y-20.690 E161.7314
G1 X28.814 Y-19.912 E163.0234
G1 X28.832 Y-19.085 E164.3644
G1 X28.825 Y-18.855 E164.7378
G1 X28.717 Y-18.298 E165.6571
G1 X28.602 Y-18.109 E166.0155
G1 X28.370 Y-17.589 E166.9394
G1 X28.350 Y-17.451 E167.1646
G1 X28.003 Y-16.589 E168.6716
G1 X27.500 Y-16.147 E169.7574
G1 X27.277 Y-15.662 E170.6236
G1 X26.782 Y-15.428 E171.5103
G1 X26.375 Y-14.932 E172.5503
G1 X25.497 Y-14.558 E174.0978
G1 X25.382 Y-14.540 E174.2870
G1 X24.952 Y-14.335 E175.0594
G1 X24.711 Y-14.194 E175.5120
G1 X24.683 Y-14.191 E175.5576
G1 X24.124 Y-14.075 E176.4832
G1 X23.311 Y-14.026 E177.8045
G1 X22.811 Y-14.013 E178.6156
G1 X22.335 Y-13.970 E179.3904
G1 X21.794 Y-13.954 E180.2685
G1 X20.316 Y-13.802 E182.6763
G1 X19.619 Y-13.638 E183.8378
G1 X19.336 Y-13.603 E184.3003
G1 X18.693 Y-13.319 E185.4399
G1 X18.559 Y-13.231 E185.7004
G1 X18.424 Y-13.214 E185.9208
G1 X17.895 Y-12.938 E186.8889
G1 X17.545 Y-12.883 E187.4620
G1 X17.006 Y-12.726 E188.3721
G1 X16.000 Y-12.250 E190.1770
G1 X15.594 Y-11.867 E191.0821
G1 X15.397 Y-11.818 E191.4120
G1 X14.787 Y-11.570 E192.4788
G1 X14.179 Y-11.063 E193.7632
G1 X13.571 Y-10.569 E195.0312
G1 X12.825 Y-10.073 E196.4850
G1 X12.382 Y-9.498 E197.6611
G1 X11.707 Y-9.050 E198.9753
G1 X11.257 Y-8.315 E200.3719
G1 X10.951 Y-8.029 E201.0508
G1 X10.858 Y-7.989 E201.2155
G1 X10.763 Y-7.854 E201.4834
G1 X10.639 Y-7.738 E201.7590
G1 X10.613 Y-7.641 E201.9215
G1 X10.227 Y-7.091 E203.0103
G1 X9.869 Y-6.478 E204.1630
G1 X9.865 Y-6.460 E204.1927
G1 X9.309 Y-5.884 E205.4908
G1 X9.024 Y-4.910 E207.1350
G1 X8.736 Y-4.394 E208.0936
G1 X8.720 Y-4.284 E208.2741
G1 X8.645 Y-4.205 E208.4502
G1 X8.255 Y-3.596 E209.6227
G1 X8.191 Y-3.224 E210.2347
G1 X8.017 Y-2.611 E211.2682
G1 X7.906 Y-2.112 E212.0971
G1 X7.864 Y-1.663 E212.8280
G1 X7.698 Y-1.148 E213.7058
G1 X7.676 Y-0.789 E214.2897
G1 X7.477 Y-0.103 E215.4472
G1 X7.467 Y0.101 E215.7792
G1 X7.307 Y0.934 E217.1538
G1 X7.236 Y2.012 E218.9052
G1 X7.217 Y3.055 E220.5967
G1 X7.214 Y15.414 E240.6356
G1 X7.350 Y16.486 E242.3885
G1 X7.530 Y17.240 E243.6460
G1 X9.293 Y18.453 E247.1145
G1 X10.734 Y18.613 E249.4659
G1 X11.821 Y18.642 E251.2288
G1 X22.856 Y18.657 E269.1217
G1 X23.697 Y18.703 E270.4874
G1 X24.187 Y18.812 E271.3006
G1 X24.667 Y18.901 E272.0928
G1 X25.385 Y19.098 E273.2993
G1 X26.017 Y19.403 E274.4378
G1 X26.230 Y19.470 E274.7995
G1 X26.951 Y20.000 E276.2501
G1 X27.351 Y20.390 E277.1558
G1 X27.765 Y20.880 E278.1966
G1 X27.979 Y21.152 E278.7572
G1 X28.331 Y21.966 E280.1957
G1 X28.554 Y22.523 E281.1687
G1 X28.668 Y22.770 E281.6099
G1 X28.671 Y22.825 E281.6982
G1 X28.821 Y23.569 E282.9291
G1 X28.828 Y24.405 E284.2850
G1 X28.821 Y24.623 E284.6383
G1 X28.708 Y25.141 E285.4985
G1 X28.615 Y25.282 E285.7718
G1 X28.348 Y25.875 E286.8265
G1 X28.317 Y26.065 E287.1387
G1 X28.161 Y26.488 E287.8699
G1 X27.987 Y26.855 E288.5288
G1 X27.494 Y27.311 E289.6171
G1 X27.236 Y27.795 E290.5061
G1 X26.757 Y28.045 E291.3831
G1 X26.312 Y28.539 E292.4617
G1 X25.944 Y28.706 E293.1164
G1 X25.528 Y28.863 E293.8373
G1 X25.343 Y28.892 E294.1414
G1 X24.714 Y29.164 E295.2517
G1 X24.585 Y29.245 E295.5003
G1 X24.063 Y29.357 E296.3652
G1 X23.260 Y29.394 E297.6689
G1 X13.246 Y29.403 E313.9059
G1 X10.788 Y29.427 E317.8918
G1 X10.165 Y29.462 E318.9030
G1 X9.555 Y29.532 E319.8990
G1 X8.750 Y29.744 E321.2493
G1 X7.714 Y30.580 E323.4078
G1 X7.490 Y31.124 E324.3618
G1 X7.358 Y31.642 E325.2281
G1 X7.250 Y32.291 E326.2946
G1 X7.219 Y33.397 E328.0883
G1 X7.203 Y41.566 E341.3349
G1 X7.139 Y42.435 E342.7465
G1 X7.017 Y43.060 E343.7794
G1 X6.915 Y43.756 E344.9205
G1 X6.779 Y44.044 E345.4359
G1 X6.268 Y44.698 E346.7825
G1 X6.091 Y45.174 E347.6058
G1 X5.606 Y45.478 E348.5337
G1 X5.304 Y45.969 E349.4682
G1 X4.806 Y46.159 E350.3333
G1 X4.226 Y46.660 E351.5757
G1 X3.907 Y46.803 E352.1428
; infill
G1 X2.300 Y44.490 F4800
G92 E0
G1 X-0.735 Y41.456 E6.9585 F600
G1 X-0.739 Y40.601 E8.3451
G1 X-0.739 Y37.209 E13.8447
G1 X4.532 Y42.480 E25.9310
G1 X4.607 Y42.095 E26.5660
G1 X4.653 Y41.471 E27.5811
G1 X4.659 Y38.364 E32.6187
G1 X-0.739 Y32.966 E44.9956
G1 X-0.738 Y28.724 E51.8742
G1 X4.667 Y34.130 E64.2692
G1 X4.669 Y33.358 E65.5204
G1 X4.706 Y32.044 E67.6517
G1 X4.860 Y31.117 E69.1749
G1 X5.063 Y30.322 E70.5064
G1 X5.074 Y30.294 E70.5544
G1 X-0.738 Y24.482 E83.8823
G1 X-0.738 Y20.240 E90.7609
G1 X6.946 Y27.923 E108.3796
G1 X7.573 Y27.417 E109.6852
G1 X9.083 Y27.019 E112.2180
G1 X9.949 Y26.921 E113.6305
G1 X10.173 Y26.908 E113.9955
G1 X-0.737 Y15.997 E139.0141
G1 X-0.737 Y11.755 E145.8927
G1 X4.959 Y17.450 E158.9529
G1 X4.837 Y16.945 E159.7961
G1 X4.664 Y15.574 E162.0365
G1 X4.665 Y12.914 E166.3497
G1 X-0.737 Y7.513 E178.7349
G1 X-0.736 Y3.270 E185.6136
G1 X4.666 Y8.672 E198.0010
G1 X4.667 Y4.431 E204.8781
G1 X-0.588 Y-0.824 E216.9271
G1 X-0.495 Y-1.359 E217.8089
G1 X-0.485 Y-1.468 E217.9855
G1 X-0.428 Y-1.699 E218.3722
G1 X-0.399 Y-1.771 E218.4979
G1 X-0.040 Y-3.031 E220.6222
G1 X-0.022 Y-3.318 E221.0876
G1 X0.095 Y-3.827 E221.9346
G1 X0.164 Y-4.315 E222.7340
G1 X4.824 Y0.345 E233.4199
G1 X4.928 Y-0.199 E234.3183
G1 X4.943 Y-0.523 E234.8445
G1 X5.148 Y-1.228 E236.0351
G1 X5.173 Y-1.625 E236.6788
G1 X5.351 Y-2.178 E237.6209
G1 X5.381 Y-2.508 E238.1589
G1 X5.533 Y-3.189 E239.2892
G1 X1.308 Y-7.413 E248.9762
G1 X1.818 Y-8.056 E250.3071
G1 X1.968 Y-8.964 E251.7985
G1 X1.970 Y-8.969 E251.8077
G1 X2.724 Y-9.748 E253.5641
G1 X2.815 Y-10.149 E254.2318
G1 X6.749 Y-6.215 E263.2534
G1 X7.037 Y-7.202 E264.9203
G1 X7.801 Y-7.993 E266.7035
G1 X8.080 Y-8.470 E267.5997
G1 X8.263 Y-8.731 E268.1153
G1 X8.307 Y-8.900 E268.3988
G1 X4.581 Y-12.626 E276.9434
G1 X4.619 Y-12.748 E277.1507
G1 X5.271 Y-13.048 E278.3139
G1 X5.576 Y-14.118 E280.1181
G1 X5.730 Y-14.261 E280.4591
G1 X5.968 Y-14.547 E281.0617
G1 X6.057 Y-14.575 E281.2133
G1 X6.447 Y-15.002 E282.1517
G1 X10.284 Y-11.166 E290.9486
G1 X10.619 Y-11.389 E291.6026
G1 X11.062 Y-11.963 E292.7773
G1 X12.058 Y-12.626 E294.7178
G1 X12.578 Y-13.048 E295.8032
G1 X12.614 Y-13.078 E295.8797
G1 X8.880 Y-16.812 E304.4422
G1 X9.118 Y-17.249 E305.2491
G1 X9.472 Y-17.390 E305.8672
G1 X10.115 Y-18.095 E307.4140
G1 X10.274 Y-18.186 E307.7110
G1 X11.260 Y-18.387 E309.3433
G1 X11.381 Y-18.554 E309.6767
G1 X15.229 Y-14.706 E318.5001
G1 X16.099 Y-15.118 E320.0621
G1 X16.989 Y-15.377 E321.5648
G1 X17.084 Y-15.392 E321.7210
G1 X17.652 Y-15.688 E322.7596
G1 X17.783 Y-15.705 E322.9736
G1 X18.261 Y-15.916 E323.8211
G1 X14.028 Y-20.150 E333.5288
G1 X14.412 Y-20.205 E334.1579
G1 X15.152 Y-20.709 E335.6096
G1 X15.389 Y-20.793 E336.0179
G1 X15.531 Y-20.823 E336.2534
G1 X16.112 Y-20.897 E337.2020
G1 X17.145 Y-21.275 E338.9860
G1 X21.911 Y-16.509 E349.9153
G1 X22.182 Y-16.517 E350.3540
G1 X22.663 Y-16.560 E351.1375
G1 X23.201 Y-16.574 E352.0106
G1 X23.786 Y-16.609 E352.9598
G1 X23.807 Y-16.614 E352.9957
G1 X24.621 Y-17.003 E354.4583
G1 X24.791 Y-17.029 E354.7373
G1 X24.801 Y-17.033 E354.7541
G1 X25.174 Y-17.488 E355.7087
G1 X20.727 Y-21.935 E365.9059
G1 X21.441 Y21.205 F4800
G92 E0
G1 X25.717 Y25.481 E9.8037 F600
G1 X25.446 Y25.730 E10.4003
G1 X25.356 Y25.900 E10.7117
G1 X25.169 Y25.998 E11.0540
G1 X24.812 Y26.394 E11.9191
G1 X24.628 Y26.423 E12.2219
G1 X23.707 Y26.821 E13.8485
G1 X23.201 Y26.844 E14.6700
G1 X22.838 Y26.845 E15.2581
G1 X17.193 Y21.200 E28.2020
G1 X12.945 Y21.194 E35.0905
G1 X18.599 Y26.848 E48.0567
G1 X14.360 Y26.852 E54.9295
G1 X8.431 Y20.923 E68.5263
; outer perimeter
G1 X-45.999 Y-10.151 F4800
G92 E0
G1 X-45.311 Y-9.165 E1.9493 F600
