; G-Code generated by Simplify3D(R) Version 3.1.1
; Mar 12, 2019 at 2:44:18 PM
; Settings Summary
;   processName,Process1
;   applyToModels,gerade_testkanal
;   profileName,Default (modified)
;   profileVersion,2015-05-01 08:00:00
;   baseProfile,
;   printMaterial,PLA
;   printQuality,High
;   printExtruders,
;   extruderName,Primary Extruder
;   extruderToolheadNumber,0
;   extruderDiameter,1
;   extruderAutoWidth,0
;   extruderWidth,4
;   extrusionMultiplier,1
;   extruderUseRetract,1
;   extruderRetractionDistance,0
;   extruderExtraRestartDistance,0
;   extruderRetractionZLift,5
;   extruderRetractionSpeed,1800
;   extruderUseCoasting,0
;   extruderCoastingDistance,0.2
;   extruderUseWipe,0
;   extruderWipeDistance,5
;   primaryExtruder,0
;   layerHeight,1.3
;   topSolidLayers,1
;   bottomSolidLayers,0
;   perimeterOutlines,2
;   printPerimetersInsideOut,1
;   startPointOption,1
;   startPointOriginX,0
;   startPointOriginY,0
;   startPointOriginZ,300
;   sequentialIslands,0
;   spiralVaseMode,0
;   firstLayerHeightPercentage,115
;   firstLayerWidthPercentage,100
;   firstLayerUnderspeed,1
;   useRaft,0
;   raftExtruder,0
;   raftLayers,3
;   raftOffset,3
;   raftSeparationDistance,0.14
;   raftInfill,85
;   disableRaftBaseLayers,0
;   useSkirt,0
;   skirtExtruder,0
;   skirtLayers,2
;   skirtOutlines,2
;   skirtOffset,4
;   usePrimePillar,0
;   primePillarExtruder,999
;   primePillarWidth,12
;   primePillarLocation,7
;   primePillarSpeedMultiplier,1
;   useOozeShield,0
;   oozeShieldExtruder,999
;   oozeShieldOffset,2
;   oozeShieldOutlines,1
;   oozeShieldSidewallShape,1
;   oozeShieldSidewallAngle,30
;   oozeShieldSpeedMultiplier,1
;   infillExtruder,0
;   internalInfillPattern,Rectilinear
;   externalInfillPattern,Rectilinear
;   infillPercentage,100
;   outlineOverlapPercentage,0
;   infillExtrusionWidthPercentage,100
;   minInfillLength,5
;   infillLayerInterval,1
;   infillAngles,0,90
;   overlapInfillAngles,0
;   generateSupport,0
;   supportExtruder,0
;   supportInfillPercentage,40
;   supportExtraInflation,0
;   denseSupportLayers,0
;   denseSupportInfillPercentage,70
;   supportLayerInterval,1
;   supportHorizontalPartOffset,0.3
;   supportUpperSeparationLayers,1
;   supportLowerSeparationLayers,1
;   supportType,0
;   supportGridSpacing,4
;   maxOverhangAngle,45
;   supportAngles,0
;   temperatureName,Primary Extruder
;   temperatureNumber,0
;   temperatureSetpointCount,1
;   temperatureSetpointLayers,1
;   temperatureSetpointTemperatures,0
;   temperatureStabilizeAtStartup,1
;   temperatureHeatedBed,0
;   temperatureRelayBetweenLayers,0
;   temperatureRelayBetweenLoops,0
;   fanLayers,1,2
;   fanSpeeds,0,100
;   blipFanToFullPower,0
;   adjustSpeedForCooling,0
;   minSpeedLayerTime,15
;   minCoolingSpeedSlowdown,20
;   increaseFanForCooling,0
;   minFanLayerTime,45
;   maxCoolingFanSpeed,100
;   increaseFanForBridging,0
;   bridgingFanSpeed,100
;   use5D,1
;   relativeEdistances,0
;   allowEaxisZeroing,1
;   independentExtruderAxes,0
;   includeM10123,0
;   stickySupport,1
;   applyToolheadOffsets,0
;   gcodeXoffset,0
;   gcodeYoffset,0
;   gcodeZoffset,0
;   overrideMachineDefinition,0
;   machineTypeOverride,0
;   strokeXoverride,200
;   strokeYoverride,200
;   strokeZoverride,200
;   originOffsetXoverride,0
;   originOffsetYoverride,0
;   originOffsetZoverride,0
;   homeXdirOverride,-1
;   homeYdirOverride,-1
;   homeZdirOverride,-1
;   flipXoverride,1
;   flipYoverride,-1
;   flipZoverride,1
;   toolheadOffsets,0,0|0,0|0,0|0,0|0,0|0,0
;   overrideFirmwareConfiguration,0
;   firmwareTypeOverride,RepRap (Marlin/Repetier/Sprinter)
;   GPXconfigOverride,r2
;   baudRateOverride,115200
;   overridePrinterModels,0
;   printerModelsOverride
;   startingGcode,##Start
;   layerChangeGcode,#LayerChange
;   retractionGcode,#Retraction
;   toolChangeGcode,
;   endingGcode,##End
;   exportFileFormat,gcode
;   celebration,0
;   celebrationSong,Random Song
;   postProcessing,
;   defaultSpeed,600
;   outlineUnderspeed,1
;   solidInfillUnderspeed,0.8
;   supportUnderspeed,0.8
;   rapidXYspeed,4800
;   rapidZspeed,1000
;   minBridgingArea,40
;   bridgingExtraInflation,1
;   bridgingExtrusionMultiplier,1
;   bridgingSpeedMultiplier,1
;   filamentDiameter,1.75
;   filamentPricePerKg,46
;   filamentDensity,1.25
;   useMinPrintHeight,0
;   minPrintHeight,0
;   useMaxPrintHeight,0
;   maxPrintHeight,0
;   useDiaphragm,0
;   diaphragmLayerInterval,20
;   robustSlicing,0
;   mergeAllIntoSolid,0
;   onlyRetractWhenCrossingOutline,1
;   retractBetweenLayers,0
;   useRetractionMinTravel,0
;   retractionMinTravel,3
;   retractWhileWiping,0
;   onlyWipeOutlines,1
;   avoidCrossingOutline,0
;   maxMovementDetourFactor,3
;   toolChangeRetractionDistance,0
;   toolChangeExtraRestartDistance,0
;   toolChangeRetractionSpeed,600
;   allowThinWallGapFill,1
;   thinWallAllowedOverlapPercentage,50
;   horizontalSizeCompensation,0
G90
M82
M106 S0
M104 S0 T0
##Start
G92 E0
#Retraction
G1 E0.0000 F1800
G1 Z6.495 F1000
; layer 1, Z = 1.495
#LayerChange
T0
; tool H1.495 W4.000
; inner perimeter
G1 X4.999 Y-3.479 F4800
G1 Z1.495 F1000
G1 E0.0000 F540
G92 E0
G1 X3.927 Y0.521 E10.2958 F600
G1 X4.999 Y4.521 E20.5916
G1 X-1.722 Y4.521 E37.3005
G1 X-0.650 Y0.521 E47.5963
G1 X-1.722 Y-3.479 E57.8921
G1 X4.999 Y-3.479 E74.6011
; outer perimeter
G1 X16.441 Y-7.479 F4800
G92 E0
G1 X19.684 Y-6.834 E8.2198 F600
G1 X22.267 Y-5.108 E15.9441
G1 X23.993 Y-2.525 E23.6684
G1 X24.599 Y0.521 E31.3888
G1 X23.993 Y3.567 E39.1094
G1 X22.267 Y6.150 E46.8337
G1 X19.684 Y7.876 E54.5579
G1 X16.441 Y8.521 E62.7778
G1 X-13.165 Y8.521 E136.3841
G1 X-16.407 Y7.876 E144.6041
G1 X-18.991 Y6.150 E152.3283
G1 X-20.717 Y3.567 E160.0525
G1 X-21.323 Y0.521 E167.7732
G1 X-20.717 Y-2.525 E175.4936
G1 X-18.991 Y-5.108 E183.2178
G1 X-16.407 Y-6.834 E190.9422
G1 X-13.165 Y-7.479 E199.1620
G1 X16.441 Y-7.479 E272.7685
; inner perimeter
; outer perimeter
G1 X17.174 Y-4.736 F4800
G92 E0
G1 X14.138 Y-5.549 E7.8124 F600
G1 X11.103 Y-4.736 E15.6247
G1 X8.881 Y-2.514 E23.4371
G1 X8.068 Y0.521 E31.2495
G1 X8.881 Y3.556 E39.0618
G1 X11.103 Y5.778 E46.8743
G1 X14.138 Y6.591 E54.6866
G1 X17.174 Y5.778 E62.4990
G1 X19.395 Y3.556 E70.3114
G1 X20.209 Y0.521 E78.1238
G1 X19.395 Y-2.514 E85.9361
G1 X17.174 Y-4.736 E93.7485
; inner perimeter
; outer perimeter
G1 X-5.605 Y-2.514 F4800
G92 E0
G1 X-7.826 Y-4.736 E7.8123 F600
G1 X-10.862 Y-5.549 E15.6247
G1 X-13.897 Y-4.736 E23.4371
G1 X-16.119 Y-2.514 E31.2495
G1 X-16.932 Y0.521 E39.0618
G1 X-16.119 Y3.556 E46.8742
G1 X-13.897 Y5.778 E54.6866
G1 X-10.862 Y6.591 E62.4990
G1 X-7.826 Y5.778 E70.3113
G1 X-5.605 Y3.556 E78.1237
G1 X-4.791 Y0.521 E85.9361
G1 X-5.605 Y-2.514 E93.7485
; layer 2, Z = 2.795
M106 S255
#LayerChange
; tool H1.300 W4.000
; inner perimeter
G1 X4.999 Y4.521 F4800
G1 Z2.795 F1000
G92 E0
G1 X-1.722 Y4.521 E14.5295 F600
G1 X-0.650 Y0.521 E23.4824
G1 X-1.722 Y-3.479 E32.4353
G1 X4.999 Y-3.479 E46.9648
G1 X3.927 Y0.521 E55.9176
G1 X4.999 Y4.521 E64.8705
; outer perimeter
G1 X23.993 Y3.567 F4800
G92 E0
G1 X22.267 Y6.150 E6.7167 F600
G1 X19.684 Y7.876 E13.4334
G1 X16.441 Y8.521 E20.5812
G1 X-13.165 Y8.521 E84.5867
G1 X-16.407 Y7.876 E91.7345
G1 X-18.991 Y6.150 E98.4512
G1 X-20.717 Y3.567 E105.1679
G1 X-21.323 Y0.521 E111.8815
G1 X-20.717 Y-2.525 E118.5951
G1 X-18.991 Y-5.108 E125.3117
G1 X-16.407 Y-6.834 E132.0285
G1 X-13.165 Y-7.479 E139.1762
G1 X16.441 Y-7.479 E203.1818
G1 X19.684 Y-6.834 E210.3295
G1 X22.267 Y-5.108 E217.0463
G1 X23.993 Y-2.525 E223.7629
G1 X24.599 Y0.521 E230.4765
G1 X23.993 Y3.567 E237.1901
; inner perimeter
; outer perimeter
G1 X19.395 Y3.556 F4800
G92 E0
G1 X20.209 Y0.521 E6.7934 F600
G1 X19.395 Y-2.514 E13.5868
G1 X17.174 Y-4.736 E20.3801
G1 X14.138 Y-5.549 E27.1735
G1 X11.103 Y-4.736 E33.9669
G1 X8.881 Y-2.514 E40.7603
G1 X8.068 Y0.521 E47.5536
G1 X8.881 Y3.556 E54.3470
G1 X11.103 Y5.778 E61.1404
G1 X14.138 Y6.591 E67.9338
G1 X17.174 Y5.778 E74.7271
G1 X19.395 Y3.556 E81.5205
; inner perimeter
; outer perimeter
G1 X-4.791 Y0.521 F4800
G92 E0
G1 X-5.605 Y-2.514 E6.7934 F600
G1 X-7.826 Y-4.736 E13.5867
G1 X-10.862 Y-5.549 E20.3801
G1 X-13.897 Y-4.736 E27.1735
G1 X-16.119 Y-2.514 E33.9668
G1 X-16.932 Y0.521 E40.7602
G1 X-16.119 Y3.556 E47.5536
G1 X-13.897 Y5.778 E54.3470
G1 X-10.862 Y6.591 E61.1403
G1 X-7.826 Y5.778 E67.9337
G1 X-5.605 Y3.556 E74.7271
G1 X-4.791 Y0.521 E81.5205
; layer 3, Z = 4.095
#LayerChange
; inner perimeter
G1 X-1.722 Y4.521 F4800
G1 Z4.095 F1000
G92 E0
G1 X-0.650 Y0.521 E8.9529 F600
G1 X-1.722 Y-3.479 E17.9057
G1 X4.999 Y-3.479 E32.4352
G1 X3.927 Y0.521 E41.3880
G1 X4.999 Y4.521 E50.3408
G1 X-1.722 Y4.521 E64.8702
; outer perimeter
G1 X-18.991 Y6.150 F4800
G92 E0
G1 X-20.717 Y3.567 E6.7166 F600
G1 X-21.323 Y0.521 E13.4303
G1 X-20.717 Y-2.525 E20.1439
G1 X-18.991 Y-5.108 E26.8605
G1 X-16.407 Y-6.834 E33.5772
G1 X-13.165 Y-7.479 E40.7250
G1 X16.441 Y-7.479 E104.7306
G1 X19.684 Y-6.834 E111.8784
G1 X22.267 Y-5.108 E118.5951
G1 X23.993 Y-2.525 E125.3117
G1 X24.599 Y0.521 E132.0253
G1 X23.993 Y3.567 E138.7390
G1 X22.267 Y6.150 E145.4556
G1 X19.684 Y7.876 E152.1723
G1 X16.441 Y8.521 E159.3200
G1 X-13.165 Y8.521 E223.3257
G1 X-16.407 Y7.876 E230.4735
G1 X-18.991 Y6.150 E237.1901
; inner perimeter
; outer perimeter
G1 X-16.119 Y3.556 F4800
G92 E0
G1 X-13.897 Y5.778 E6.7934 F600
G1 X-10.862 Y6.591 E13.5868
G1 X-7.826 Y5.778 E20.3802
G1 X-5.605 Y3.556 E27.1735
G1 X-4.791 Y0.521 E33.9669
G1 X-5.605 Y-2.514 E40.7603
G1 X-7.826 Y-4.736 E47.5536
G1 X-10.862 Y-5.549 E54.3470
G1 X-13.897 Y-4.736 E61.1404
G1 X-16.119 Y-2.514 E67.9338
G1 X-16.932 Y0.521 E74.7271
G1 X-16.119 Y3.556 E81.5205
; inner perimeter
; outer perimeter
G1 X8.068 Y0.521 F4800
G92 E0
G1 X8.881 Y3.556 E6.7934 F600
G1 X11.103 Y5.778 E13.5868
G1 X14.138 Y6.591 E20.3802
G1 X17.174 Y5.778 E27.1735
G1 X19.395 Y3.556 E33.9669
G1 X20.209 Y0.521 E40.7603
G1 X19.395 Y-2.514 E47.5537
G1 X17.174 Y-4.736 E54.3471
G1 X14.138 Y-5.549 E61.1404
G1 X11.103 Y-4.736 E67.9338
G1 X8.881 Y-2.514 E74.7272
G1 X8.068 Y0.521 E81.5206
; layer 4, Z = 5.395
#LayerChange
; inner perimeter
G1 X4.999 Y-3.479 F4800
G1 Z5.395 F1000
G92 E0
G1 X3.927 Y0.521 E8.9528 F600
G1 X4.999 Y4.521 E17.9057
G1 X-1.722 Y4.521 E32.4350
G1 X-0.650 Y0.521 E41.3879
G1 X-1.722 Y-3.479 E50.3408
G1 X4.999 Y-3.479 E64.8702
; outer perimeter
G1 X19.684 Y-6.834 F4800
G92 E0
G1 X22.267 Y-5.108 E6.7166 F600
G1 X23.993 Y-2.525 E13.4330
G1 X24.599 Y0.521 E20.1468
G1 X23.993 Y3.567 E26.8606
G1 X22.267 Y6.150 E33.5771
G1 X19.684 Y7.876 E40.2937
G1 X16.441 Y8.521 E47.4417
G1 X-13.165 Y8.521 E111.4471
G1 X-16.408 Y7.876 E118.5951
G1 X-18.991 Y6.150 E125.3116
G1 X-20.717 Y3.567 E132.0282
G1 X-21.323 Y0.521 E138.7420
G1 X-20.717 Y-2.525 E145.4557
G1 X-18.991 Y-5.108 E152.1722
G1 X-16.408 Y-6.834 E158.8888
G1 X-13.165 Y-7.479 E166.0367
G1 X16.441 Y-7.479 E230.0423
G1 X19.684 Y-6.834 E237.1902
; inner perimeter
; outer perimeter
G1 X17.174 Y-4.736 F4800
G92 E0
G1 X14.138 Y-5.549 E6.7934 F600
G1 X11.103 Y-4.736 E13.5867
G1 X8.881 Y-2.514 E20.3802
G1 X8.068 Y0.521 E27.1735
G1 X8.881 Y3.556 E33.9669
G1 X11.103 Y5.778 E40.7603
G1 X14.138 Y6.591 E47.5537
G1 X17.174 Y5.778 E54.3471
G1 X19.395 Y3.556 E61.1405
G1 X20.209 Y0.521 E67.9339
G1 X19.395 Y-2.514 E74.7272
G1 X17.174 Y-4.736 E81.5206
; inner perimeter
; outer perimeter
G1 X-4.791 Y0.521 F4800
G92 E0
G1 X-5.605 Y-2.514 E6.7934 F600
G1 X-7.826 Y-4.736 E13.5867
G1 X-10.862 Y-5.549 E20.3801
G1 X-13.897 Y-4.736 E27.1735
G1 X-16.119 Y-2.514 E33.9668
G1 X-16.932 Y0.521 E40.7602
G1 X-16.119 Y3.556 E47.5536
G1 X-13.897 Y5.778 E54.3470
G1 X-10.862 Y6.591 E61.1404
G1 X-7.826 Y5.778 E67.9338
G1 X-5.605 Y3.556 E74.7271
G1 X-4.791 Y0.521 E81.5205
; layer 5, Z = 6.695
#LayerChange
; inner perimeter
G1 X4.999 Y-3.479 F4800
G1 Z6.695 F1000
G92 E0
G1 X3.927 Y0.521 E8.9528 F600
G1 X4.999 Y4.521 E17.9057
G1 X-1.722 Y4.521 E32.4350
G1 X-0.650 Y0.521 E41.3879
G1 X-1.722 Y-3.479 E50.3407
G1 X4.999 Y-3.479 E64.8701
; outer perimeter
G1 X23.993 Y-2.525 F4800
G92 E0
G1 X24.599 Y0.521 E6.7138 F600
G1 X23.993 Y3.567 E13.4276
G1 X22.267 Y6.150 E20.1441
G1 X19.684 Y7.876 E26.8606
G1 X16.441 Y8.521 E34.0086
G1 X-13.165 Y8.521 E98.0141
G1 X-16.408 Y7.876 E105.1622
G1 X-18.991 Y6.150 E111.8787
G1 X-20.717 Y3.567 E118.5952
G1 X-21.323 Y0.521 E125.3090
G1 X-20.717 Y-2.525 E132.0227
G1 X-18.991 Y-5.108 E138.7393
G1 X-16.408 Y-6.834 E145.4557
G1 X-13.165 Y-7.479 E152.6037
G1 X16.441 Y-7.479 E216.6094
G1 X19.684 Y-6.834 E223.7573
G1 X22.267 Y-5.108 E230.4738
G1 X23.993 Y-2.525 E237.1903
; inner perimeter
; outer perimeter
G1 X19.395 Y-2.514 F4800
G92 E0
G1 X17.174 Y-4.736 E6.7934 F600
G1 X14.138 Y-5.549 E13.5868
G1 X11.103 Y-4.736 E20.3802
G1 X8.881 Y-2.514 E27.1736
G1 X8.068 Y0.521 E33.9669
G1 X8.881 Y3.556 E40.7603
G1 X11.103 Y5.778 E47.5537
G1 X14.138 Y6.591 E54.3471
G1 X17.174 Y5.778 E61.1405
G1 X19.395 Y3.556 E67.9339
G1 X20.209 Y0.521 E74.7273
G1 X19.395 Y-2.514 E81.5207
; inner perimeter
; outer perimeter
G1 X-4.791 Y0.521 F4800
G92 E0
G1 X-5.605 Y-2.514 E6.7934 F600
G1 X-7.826 Y-4.736 E13.5867
G1 X-10.862 Y-5.549 E20.3801
G1 X-13.897 Y-4.736 E27.1735
G1 X-16.119 Y-2.514 E33.9669
G1 X-16.932 Y0.521 E40.7603
G1 X-16.119 Y3.556 E47.5537
G1 X-13.897 Y5.778 E54.3471
G1 X-10.862 Y6.591 E61.1404
G1 X-7.826 Y5.778 E67.9338
G1 X-5.605 Y3.556 E74.7272
G1 X-4.791 Y0.521 E81.5206
; layer 6, Z = 7.995
#LayerChange
; inner perimeter
G1 X-1.722 Y4.521 F4800
G1 Z7.995 F1000
G92 E0
G1 X-0.650 Y0.521 E8.9528 F600
G1 X-1.722 Y-3.479 E17.9057
G1 X4.999 Y-3.479 E32.4350
G1 X3.927 Y0.521 E41.3878
G1 X4.999 Y4.521 E50.3406
G1 X-1.722 Y4.521 E64.8699
; outer perimeter
G1 X-20.717 Y3.567 F4800
G92 E0
G1 X-21.323 Y0.521 E6.7139 F600
G1 X-20.717 Y-2.525 E13.4278
G1 X-18.991 Y-5.108 E20.1442
G1 X-16.408 Y-6.834 E26.8607
G1 X-13.165 Y-7.479 E34.0087
G1 X16.441 Y-7.479 E98.0143
G1 X19.684 Y-6.834 E105.1623
G1 X22.267 Y-5.108 E111.8788
G1 X23.993 Y-2.525 E118.5952
G1 X24.599 Y0.521 E125.3091
G1 X23.993 Y3.567 E132.0230
G1 X22.267 Y6.150 E138.7394
G1 X19.684 Y7.876 E145.4558
G1 X16.441 Y8.521 E152.6038
G1 X-13.165 Y8.521 E216.6095
G1 X-16.408 Y7.876 E223.7575
G1 X-18.991 Y6.150 E230.4740
G1 X-20.717 Y3.567 E237.1904
; inner perimeter
; outer perimeter
G1 X-16.119 Y3.556 F4800
G92 E0
G1 X-13.897 Y5.778 E6.7934 F600
G1 X-10.862 Y6.591 E13.5868
G1 X-7.826 Y5.778 E20.3802
G1 X-5.605 Y3.556 E27.1736
G1 X-4.791 Y0.521 E33.9670
G1 X-5.605 Y-2.514 E40.7603
G1 X-7.826 Y-4.736 E47.5537
G1 X-10.862 Y-5.549 E54.3471
G1 X-13.897 Y-4.736 E61.1405
G1 X-16.119 Y-2.514 E67.9339
G1 X-16.932 Y0.521 E74.7273
G1 X-16.119 Y3.556 E81.5207
; inner perimeter
; outer perimeter
G1 X8.068 Y0.521 F4800
G92 E0
G1 X8.881 Y3.556 E6.7934 F600
G1 X11.103 Y5.778 E13.5868
G1 X14.138 Y6.591 E20.3802
G1 X17.174 Y5.778 E27.1736
G1 X19.395 Y3.556 E33.9670
G1 X20.209 Y0.521 E40.7604
G1 X19.395 Y-2.514 E47.5538
G1 X17.174 Y-4.736 E54.3471
G1 X14.138 Y-5.549 E61.1405
G1 X11.103 Y-4.736 E67.9339
G1 X8.881 Y-2.514 E74.7273
G1 X8.068 Y0.521 E81.5207
; layer 7, Z = 9.295
#LayerChange
; inner perimeter
G1 X-1.722 Y-3.479 F4800
G1 Z9.295 F1000
G92 E0
G1 X4.999 Y-3.479 E14.5293 F600
G1 X3.927 Y0.521 E23.4820
G1 X4.999 Y4.521 E32.4349
G1 X-1.722 Y4.521 E46.9641
G1 X-0.650 Y0.521 E55.9170
G1 X-1.722 Y-3.479 E64.8698
; outer perimeter
G1 X-16.408 Y-6.834 F4800
G92 E0
G1 X-13.165 Y-7.479 E7.1481 F600
G1 X16.441 Y-7.479 E71.1538
G1 X19.684 Y-6.834 E78.3019
G1 X22.267 Y-5.108 E85.0183
G1 X23.993 Y-2.525 E91.7346
G1 X24.599 Y0.521 E98.4485
G1 X23.993 Y3.567 E105.1625
G1 X22.267 Y6.150 E111.8789
G1 X19.684 Y7.876 E118.5953
G1 X16.441 Y8.521 E125.7434
G1 X-13.165 Y8.521 E189.7490
G1 X-16.408 Y7.876 E196.8971
G1 X-18.991 Y6.150 E203.6135
G1 X-20.717 Y3.567 E210.3298
G1 X-21.323 Y0.521 E217.0438
G1 X-20.717 Y-2.525 E223.7578
G1 X-18.991 Y-5.108 E230.4741
G1 X-16.408 Y-6.834 E237.1904
; inner perimeter
; outer perimeter
G1 X-13.897 Y-4.736 F4800
G92 E0
G1 X-16.119 Y-2.514 E6.7934 F600
G1 X-16.932 Y0.521 E13.5868
G1 X-16.119 Y3.556 E20.3802
G1 X-13.897 Y5.778 E27.1736
G1 X-10.862 Y6.591 E33.9670
G1 X-7.826 Y5.778 E40.7603
G1 X-5.605 Y3.556 E47.5537
