; G-Code generated by Simplify3D(R) Version 3.1.1
; Mar 22, 2019 at 1:05:33 PM
; Settings Summary
;   processName,Process2
;   applyToModels,quader
;   profileName,Default (modified)
;   profileVersion,2015-05-01 08:00:00
;   baseProfile,
;   printMaterial,PLA
;   printQuality,High
;   printExtruders,
;   extruderName,Primary Extruder
;   extruderToolheadNumber,0
;   extruderDiameter,1
;   extruderAutoWidth,0
;   extruderWidth,3
;   extrusionMultiplier,1
;   extruderUseRetract,0
;   extruderRetractionDistance,0
;   extruderExtraRestartDistance,0
;   extruderRetractionZLift,5
;   extruderRetractionSpeed,1800
;   extruderUseCoasting,0
;   extruderCoastingDistance,0.2
;   extruderUseWipe,0
;   extruderWipeDistance,5
;   primaryExtruder,0
;   layerHeight,1.3
;   topSolidLayers,0
;   bottomSolidLayers,0
;   perimeterOutlines,1
;   printPerimetersInsideOut,1
;   startPointOption,1
;   startPointOriginX,0
;   startPointOriginY,0
;   startPointOriginZ,300
;   sequentialIslands,0
;   spiralVaseMode,0
;   firstLayerHeightPercentage,115
;   firstLayerWidthPercentage,100
;   firstLayerUnderspeed,1
;   useRaft,0
;   raftExtruder,0
;   raftLayers,3
;   raftOffset,3
;   raftSeparationDistance,0.14
;   raftInfill,85
;   disableRaftBaseLayers,0
;   useSkirt,0
;   skirtExtruder,0
;   skirtLayers,2
;   skirtOutlines,2
;   skirtOffset,4
;   usePrimePillar,0
;   primePillarExtruder,999
;   primePillarWidth,12
;   primePillarLocation,7
;   primePillarSpeedMultiplier,1
;   useOozeShield,0
;   oozeShieldExtruder,999
;   oozeShieldOffset,2
;   oozeShieldOutlines,1
;   oozeShieldSidewallShape,1
;   oozeShieldSidewallAngle,30
;   oozeShieldSpeedMultiplier,1
;   infillExtruder,0
;   internalInfillPattern,Fast Honeycomb
;   externalInfillPattern,Rectilinear
;   infillPercentage,25
;   outlineOverlapPercentage,14
;   infillExtrusionWidthPercentage,100
;   minInfillLength,2
;   infillLayerInterval,1
;   infillAngles,0
;   overlapInfillAngles,0
;   generateSupport,0
;   supportExtruder,0
;   supportInfillPercentage,40
;   supportExtraInflation,0
;   denseSupportLayers,0
;   denseSupportInfillPercentage,70
;   supportLayerInterval,1
;   supportHorizontalPartOffset,0.3
;   supportUpperSeparationLayers,1
;   supportLowerSeparationLayers,1
;   supportType,0
;   supportGridSpacing,4
;   maxOverhangAngle,45
;   supportAngles,0
;   temperatureName,Primary Extruder
;   temperatureNumber,0
;   temperatureSetpointCount,1
;   temperatureSetpointLayers,1
;   temperatureSetpointTemperatures,0
;   temperatureStabilizeAtStartup,1
;   temperatureHeatedBed,0
;   temperatureRelayBetweenLayers,0
;   temperatureRelayBetweenLoops,0
;   fanLayers,1,2
;   fanSpeeds,0,100
;   blipFanToFullPower,0
;   adjustSpeedForCooling,0
;   minSpeedLayerTime,15
;   minCoolingSpeedSlowdown,20
;   increaseFanForCooling,0
;   minFanLayerTime,45
;   maxCoolingFanSpeed,100
;   increaseFanForBridging,0
;   bridgingFanSpeed,100
;   use5D,1
;   relativeEdistances,0
;   allowEaxisZeroing,1
;   independentExtruderAxes,0
;   includeM10123,0
;   stickySupport,1
;   applyToolheadOffsets,0
;   gcodeXoffset,0
;   gcodeYoffset,0
;   gcodeZoffset,0
;   overrideMachineDefinition,0
;   machineTypeOverride,0
;   strokeXoverride,200
;   strokeYoverride,200
;   strokeZoverride,200
;   originOffsetXoverride,0
;   originOffsetYoverride,0
;   originOffsetZoverride,0
;   homeXdirOverride,-1
;   homeYdirOverride,-1
;   homeZdirOverride,-1
;   flipXoverride,1
;   flipYoverride,-1
;   flipZoverride,1
;   toolheadOffsets,0,0|0,0|0,0|0,0|0,0|0,0
;   overrideFirmwareConfiguration,0
;   firmwareTypeOverride,RepRap (Marlin/Repetier/Sprinter)
;   GPXconfigOverride,r2
;   baudRateOverride,115200
;   overridePrinterModels,0
;   printerModelsOverride
;   startingGcode,##Start
;   layerChangeGcode,#LayerChange
;   retractionGcode,#Retraction
;   toolChangeGcode,
;   endingGcode,##End
;   exportFileFormat,gcode
;   celebration,0
;   celebrationSong,Random Song
;   postProcessing,
;   defaultSpeed,600
;   outlineUnderspeed,1
;   solidInfillUnderspeed,0.8
;   supportUnderspeed,0.8
;   rapidXYspeed,4800
;   rapidZspeed,1000
;   minBridgingArea,40
;   bridgingExtraInflation,1
;   bridgingExtrusionMultiplier,1
;   bridgingSpeedMultiplier,1
;   filamentDiameter,1.75
;   filamentPricePerKg,46
;   filamentDensity,1.25
;   useMinPrintHeight,0
;   minPrintHeight,0
;   useMaxPrintHeight,0
;   maxPrintHeight,0
;   useDiaphragm,0
;   diaphragmLayerInterval,20
;   robustSlicing,0
;   mergeAllIntoSolid,0
;   onlyRetractWhenCrossingOutline,1
;   retractBetweenLayers,0
;   useRetractionMinTravel,0
;   retractionMinTravel,3
;   retractWhileWiping,0
;   onlyWipeOutlines,1
;   avoidCrossingOutline,0
;   maxMovementDetourFactor,3
;   toolChangeRetractionDistance,0
;   toolChangeExtraRestartDistance,0
;   toolChangeRetractionSpeed,600
;   allowThinWallGapFill,1
;   thinWallAllowedOverlapPercentage,50
;   horizontalSizeCompensation,0
G90
M82
M106 S0
M104 S0 T0
##Start
G92 E0
#Retraction
G1 E0.0000 F1800
G1 Z6.495 F1000
; layer 1, Z = 1.495
#LayerChange
T0
; tool H1.495 W3.000
; outer perimeter
G1 X48.189 Y-41.052 F4800
G1 Z1.495 F1000
G1 E0.0000 F540
G92 E0
G1 X48.189 Y55.948 E180.8707 F600
G1 X-48.811 Y55.948 E361.7414
G1 X-48.811 Y-41.052 E542.6120
G1 X48.189 Y-41.052 E723.4827
; infill
G1 X-46.231 Y-29.676 F4800
G92 E0
G1 X-34.303 Y-29.676 E22.2415 F600
G1 X-29.225 Y-38.472 E41.1794
G1 X-12.968 Y-38.472 E71.4941
G1 X-7.889 Y-29.676 E90.4320
G1 X7.266 Y-29.676 E118.6919
G1 X12.345 Y-38.472 E137.6298
G1 X28.602 Y-38.472 E167.9445
G1 X33.681 Y-29.676 E186.8824
G1 X45.609 Y-29.676 E209.1239
G1 X45.609 Y-27.426 E213.3193
G1 X33.681 Y-27.426 E235.5608
G1 X28.051 Y-17.676 E256.5534
G1 X12.896 Y-17.676 E284.8133
G1 X7.266 Y-27.426 E305.8059
G1 X-7.889 Y-27.426 E334.0659
G1 X-13.519 Y-17.676 E355.0585
G1 X-28.674 Y-17.676 E383.3184
G1 X-34.303 Y-27.426 E404.3110
G1 X-46.231 Y-27.426 E426.5525
G1 X-46.231 Y-5.677 E467.1079
G1 X-34.303 Y-5.677 E489.3495
G1 X-28.674 Y-15.426 E510.3421
G1 X-13.519 Y-15.426 E538.6020
G1 X-7.889 Y-5.677 E559.5946
G1 X7.266 Y-5.677 E587.8545
G1 X12.896 Y-15.426 E608.8471
G1 X28.051 Y-15.426 E637.1071
G1 X33.681 Y-5.677 E658.0997
G1 X45.609 Y-5.677 E680.3411
G1 X45.609 Y-3.427 E684.5366
G1 X33.681 Y-3.427 E706.7780
G1 X28.051 Y6.323 E727.7706
G1 X12.896 Y6.323 E756.0306
G1 X7.266 Y-3.427 E777.0232
G1 X-7.889 Y-3.427 E805.2831
G1 X-13.519 Y6.323 E826.2757
G1 X-28.674 Y6.323 E854.5356
G1 X-34.303 Y-3.427 E875.5283
G1 X-46.231 Y-3.427 E897.7698
G1 X-46.231 Y18.323 E938.3252
G1 X-34.303 Y18.323 E960.5667
G1 X-28.674 Y8.573 E981.5593
G1 X-13.519 Y8.573 E1009.8192
G1 X-7.889 Y18.323 E1030.8118
G1 X7.266 Y18.323 E1059.0718
G1 X12.896 Y8.573 E1080.0644
G1 X28.051 Y8.573 E1108.3243
G1 X33.681 Y18.323 E1129.3169
G1 X45.609 Y18.323 E1151.5584
G1 X45.609 Y20.573 E1155.7538
G1 X33.681 Y20.573 E1177.9953
G1 X28.051 Y30.323 E1198.9879
G1 X12.896 Y30.323 E1227.2478
G1 X7.266 Y20.573 E1248.2404
G1 X-7.889 Y20.573 E1276.5003
G1 X-13.519 Y30.323 E1297.4930
G1 X-28.674 Y30.323 E1325.7529
G1 X-34.303 Y20.573 E1346.7455
G1 X-46.231 Y20.573 E1368.9870
G1 X-46.231 Y42.323 E1409.5424
G1 X-34.303 Y42.323 E1431.7839
G1 X-28.674 Y32.573 E1452.7765
G1 X-13.519 Y32.573 E1481.0365
G1 X-7.889 Y42.323 E1502.0291
G1 X7.266 Y42.323 E1530.2890
G1 X12.896 Y32.573 E1551.2816
G1 X28.051 Y32.573 E1579.5415
G1 X33.681 Y42.323 E1600.5342
G1 X45.609 Y42.323 E1622.7756
G1 X45.609 Y44.573 E1626.9711
G1 X33.681 Y44.573 E1649.2125
G1 X28.602 Y53.368 E1668.1504
G1 X12.345 Y53.368 E1698.4651
G1 X7.266 Y44.573 E1717.4030
G1 X-7.889 Y44.573 E1745.6629
G1 X-12.968 Y53.368 E1764.6007
G1 X-29.225 Y53.368 E1794.9155
G1 X-34.303 Y44.573 E1813.8533
G1 X-46.231 Y44.573 E1836.0949
; layer 2, Z = 2.795
M106 S255
#LayerChange
; tool H1.300 W3.000
; outer perimeter
G1 X48.189 Y55.948 F4800
G1 Z2.795 F1000
G92 E0
G1 X-48.811 Y55.948 E157.2789 F600
G1 X-48.811 Y-41.052 E314.5577
G1 X48.189 Y-41.052 E471.8366
G1 X48.189 Y55.948 E629.1154
; infill
G1 X28.602 Y-38.472 F4800
G92 E0
G1 X34.330 Y-28.551 E18.5740 F600
G1 X27.402 Y-16.551 E41.0411
G1 X34.330 Y-4.552 E63.5081
G1 X27.402 Y7.448 E85.9752
G1 X34.330 Y19.448 E108.4422
G1 X27.402 Y31.448 E130.9093
G1 X34.330 Y43.448 E153.3763
G1 X28.602 Y53.368 E171.9503
G1 X12.345 Y53.368 E198.3110
G1 X6.617 Y43.448 E216.8850
G1 X13.545 Y31.448 E239.3521
G1 X6.617 Y19.448 E261.8191
G1 X13.545 Y7.448 E284.2862
G1 X6.617 Y-4.552 E306.7532
G1 X13.545 Y-16.551 E329.2203
G1 X6.617 Y-28.551 E351.6873
G1 X12.345 Y-38.472 E370.2613
G1 X-12.968 Y-38.472 E411.3033
G1 X-7.240 Y-28.551 E429.8773
G1 X-14.168 Y-16.551 E452.3444
G1 X-7.240 Y-4.552 E474.8114
G1 X-14.168 Y7.448 E497.2785
G1 X-7.240 Y19.448 E519.7455
G1 X-14.168 Y31.448 E542.2126
G1 X-7.240 Y43.448 E564.6796
G1 X-12.968 Y53.368 E583.2536
G1 X-29.225 Y53.368 E609.6143
G1 X-34.953 Y43.448 E628.1883
G1 X-28.025 Y31.448 E650.6554
G1 X-34.953 Y19.448 E673.1224
G1 X-28.025 Y7.448 E695.5895
G1 X-34.953 Y-4.552 E718.0565
G1 X-28.025 Y-16.551 E740.5236
G1 X-34.953 Y-28.551 E762.9906
G1 X-29.225 Y-38.472 E781.5647
; layer 3, Z = 4.095
#LayerChange
; outer perimeter
G1 X48.189 Y55.948 F4800
G1 Z4.095 F1000
G92 E0
G1 X-48.811 Y55.948 E157.2789 F600
G1 X-48.811 Y-41.052 E314.5577
G1 X48.189 Y-41.052 E471.8366
G1 X48.189 Y55.948 E629.1154
; infill
G1 X-46.231 Y44.573 F4800
G92 E0
G1 X-34.303 Y44.573 E19.3404 F600
G1 X-29.225 Y53.368 E35.8082
G1 X-12.968 Y53.368 E62.1688
G1 X-7.889 Y44.573 E78.6365
G1 X7.266 Y44.573 E103.2103
G1 X12.345 Y53.368 E119.6781
G1 X28.602 Y53.368 E146.0387
G1 X33.681 Y44.573 E162.5064
G1 X45.609 Y44.573 E181.8468
G1 X45.609 Y42.323 E185.4950
G1 X33.681 Y42.323 E204.8354
G1 X28.051 Y32.573 E223.0898
G1 X12.896 Y32.573 E247.6637
G1 X7.266 Y42.323 E265.9181
G1 X-7.889 Y42.323 E290.4920
G1 X-13.519 Y32.573 E308.7464
G1 X-28.674 Y32.573 E333.3203
G1 X-34.303 Y42.323 E351.5747
G1 X-46.231 Y42.323 E370.9152
G1 X-46.231 Y20.573 E406.1807
G1 X-34.303 Y20.573 E425.5212
G1 X-28.674 Y30.323 E443.7756
G1 X-13.519 Y30.323 E468.3495
G1 X-7.889 Y20.573 E486.6039
G1 X7.266 Y20.573 E511.1778
G1 X12.896 Y30.323 E529.4322
G1 X28.051 Y30.323 E554.0061
G1 X33.681 Y20.573 E572.2605
G1 X45.609 Y20.573 E591.6009
G1 X45.609 Y18.323 E595.2491
G1 X33.681 Y18.323 E614.5895
G1 X28.051 Y8.573 E632.8440
G1 X12.896 Y8.573 E657.4178
G1 X7.266 Y18.323 E675.6723
G1 X-7.889 Y18.323 E700.2461
G1 X-13.519 Y8.573 E718.5006
G1 X-28.674 Y8.573 E743.0744
G1 X-34.303 Y18.323 E761.3288
G1 X-46.231 Y18.323 E780.6693
G1 X-46.231 Y-3.427 E815.9349
G1 X-34.303 Y-3.427 E835.2753
G1 X-28.674 Y6.323 E853.5298
G1 X-13.519 Y6.323 E878.1036
G1 X-7.889 Y-3.427 E896.3580
G1 X7.266 Y-3.427 E920.9319
G1 X12.896 Y6.323 E939.1863
G1 X28.051 Y6.323 E963.7602
G1 X33.681 Y-3.427 E982.0146
G1 X45.609 Y-3.427 E1001.3550
G1 X45.609 Y-5.677 E1005.0032
G1 X33.681 Y-5.677 E1024.3436
G1 X28.051 Y-15.426 E1042.5981
G1 X12.896 Y-15.426 E1067.1719
G1 X7.266 Y-5.677 E1085.4264
G1 X-7.889 Y-5.677 E1110.0002
G1 X-13.519 Y-15.426 E1128.2547
G1 X-28.674 Y-15.426 E1152.8285
G1 X-34.303 Y-5.677 E1171.0830
G1 X-46.231 Y-5.677 E1190.4234
G1 X-46.231 Y-27.426 E1225.6890
G1 X-34.303 Y-27.426 E1245.0294
G1 X-28.674 Y-17.676 E1263.2839
G1 X-13.519 Y-17.676 E1287.8577
G1 X-7.889 Y-27.426 E1306.1122
G1 X7.266 Y-27.426 E1330.6860
G1 X12.896 Y-17.676 E1348.9405
G1 X28.051 Y-17.676 E1373.5143
G1 X33.681 Y-27.426 E1391.7688
G1 X45.609 Y-27.426 E1411.1091
G1 X45.609 Y-29.676 E1414.7574
G1 X33.681 Y-29.676 E1434.0978
G1 X28.602 Y-38.472 E1450.5655
G1 X12.345 Y-38.472 E1476.9261
G1 X7.266 Y-29.676 E1493.3938
G1 X-7.889 Y-29.676 E1517.9677
G1 X-12.968 Y-38.472 E1534.4354
G1 X-29.225 Y-38.472 E1560.7960
G1 X-34.303 Y-29.676 E1577.2638
G1 X-46.231 Y-29.676 E1596.6042
; layer 4, Z = 5.395
#LayerChange
; outer perimeter
G1 X-48.811 Y-41.052 F4800
G1 Z5.395 F1000
G92 E0
G1 X48.189 Y-41.052 E157.2789 F600
G1 X48.189 Y55.948 E314.5577
G1 X-48.811 Y55.948 E471.8366
G1 X-48.811 Y-41.052 E629.1154
; infill
G1 X-29.225 Y-38.472 F4800
G92 E0
G1 X-34.953 Y-28.551 E18.5740 F600
G1 X-28.025 Y-16.551 E41.0411
G1 X-34.953 Y-4.552 E63.5081
G1 X-28.025 Y7.448 E85.9752
G1 X-34.953 Y19.448 E108.4422
G1 X-28.025 Y31.448 E130.9093
G1 X-34.953 Y43.448 E153.3763
G1 X-29.225 Y53.368 E171.9503
G1 X-12.968 Y53.368 E198.3110
G1 X-7.240 Y43.448 E216.8850
G1 X-14.168 Y31.448 E239.3521
G1 X-7.240 Y19.448 E261.8191
G1 X-14.168 Y7.448 E284.2862
G1 X-7.240 Y-4.552 E306.7532
G1 X-14.168 Y-16.551 E329.2203
G1 X-7.240 Y-28.551 E351.6873
G1 X-12.968 Y-38.472 E370.2613
G1 X12.345 Y-38.472 E411.3033
G1 X6.617 Y-28.551 E429.8773
G1 X13.545 Y-16.551 E452.3444
G1 X6.617 Y-4.552 E474.8114
G1 X13.545 Y7.448 E497.2785
G1 X6.617 Y19.448 E519.7455
G1 X13.545 Y31.448 E542.2126
G1 X6.617 Y43.448 E564.6796
G1 X12.345 Y53.368 E583.2536
G1 X28.602 Y53.368 E609.6143
G1 X34.330 Y43.448 E628.1883
G1 X27.402 Y31.448 E650.6554
G1 X34.330 Y19.448 E673.1224
G1 X27.402 Y7.448 E695.5895
G1 X34.330 Y-4.552 E718.0565
G1 X27.402 Y-16.551 E740.5236
G1 X34.330 Y-28.551 E762.9906
G1 X28.602 Y-38.472 E781.5647
; layer 5, Z = 6.695
#LayerChange
; outer perimeter
G1 X48.189 Y55.948 F4800
G1 Z6.695 F1000
G92 E0
G1 X-48.811 Y55.948 E157.2789 F600
G1 X-48.811 Y-41.052 E314.5577
G1 X48.189 Y-41.052 E471.8366
G1 X48.189 Y55.948 E629.1154
; infill
G1 X-46.231 Y44.573 F4800
G92 E0
G1 X-34.303 Y44.573 E19.3404 F600
G1 X-29.225 Y53.368 E35.8082
G1 X-12.968 Y53.368 E62.1688
G1 X-7.889 Y44.573 E78.6365
G1 X7.266 Y44.573 E103.2103
G1 X12.345 Y53.368 E119.6781
G1 X28.602 Y53.368 E146.0387
G1 X33.681 Y44.573 E162.5064
G1 X45.609 Y44.573 E181.8468
G1 X45.609 Y42.323 E185.4950
G1 X33.681 Y42.323 E204.8354
G1 X28.051 Y32.573 E223.0898
G1 X12.896 Y32.573 E247.6637
G1 X7.266 Y42.323 E265.9181
G1 X-7.889 Y42.323 E290.4920
G1 X-13.519 Y32.573 E308.7464
G1 X-28.674 Y32.573 E333.3203
G1 X-34.303 Y42.323 E351.5747
G1 X-46.231 Y42.323 E370.9152
G1 X-46.231 Y20.573 E406.1807
G1 X-34.303 Y20.573 E425.5212
G1 X-28.674 Y30.323 E443.7756
G1 X-13.519 Y30.323 E468.3495
G1 X-7.889 Y20.573 E486.6039
G1 X7.266 Y20.573 E511.1778
G1 X12.896 Y30.323 E529.4322
G1 X28.051 Y30.323 E554.0061
G1 X33.681 Y20.573 E572.2605
G1 X45.609 Y20.573 E591.6009
G1 X45.609 Y18.323 E595.2491
G1 X33.681 Y18.323 E614.5895
G1 X28.051 Y8.573 E632.8440
G1 X12.896 Y8.573 E657.4178
G1 X7.266 Y18.323 E675.6723
G1 X-7.889 Y18.323 E700.2461
G1 X-13.519 Y8.573 E718.5006
G1 X-28.674 Y8.573 E743.0744
G1 X-34.303 Y18.323 E761.3288
G1 X-46.231 Y18.323 E780.6693
G1 X-46.231 Y-3.427 E815.9349
G1 X-34.303 Y-3.427 E835.2753
G1 X-28.674 Y6.323 E853.5298
G1 X-13.519 Y6.323 E878.1036
G1 X-7.889 Y-3.427 E896.3580
G1 X7.266 Y-3.427 E920.9319
G1 X12.896 Y6.323 E939.1863
G1 X28.051 Y6.323 E963.7602
G1 X33.681 Y-3.427 E982.0146
G1 X45.609 Y-3.427 E1001.3550
G1 X45.609 Y-5.677 E1005.0032
G1 X33.681 Y-5.677 E1024.3436
G1 X28.051 Y-15.426 E1042.5981
G1 X12.896 Y-15.426 E1067.1719
G1 X7.266 Y-5.677 E1085.4264
G1 X-7.889 Y-5.677 E1110.0002
G1 X-13.519 Y-15.426 E1128.2547
G1 X-28.674 Y-15.426 E1152.8285
G1 X-34.303 Y-5.677 E1171.0830
G1 X-46.231 Y-5.677 E1190.4234
G1 X-46.231 Y-27.426 E1225.6890
G1 X-34.303 Y-27.426 E1245.0294
G1 X-28.674 Y-17.676 E1263.2839
G1 X-13.519 Y-17.676 E1287.8577
G1 X-7.889 Y-27.426 E1306.1122
G1 X7.266 Y-27.426 E1330.6860
G1 X12.896 Y-17.676 E1348.9405
G1 X28.051 Y-17.676 E1373.5143
G1 X33.681 Y-27.426 E1391.7688
G1 X45.609 Y-27.426 E1411.1091
G1 X45.609 Y-29.676 E1414.7574
G1 X33.681 Y-29.676 E1434.0978
G1 X28.602 Y-38.472 E1450.5655
G1 X12.345 Y-38.472 E1476.9261
G1 X7.266 Y-29.676 E1493.3938
G1 X-7.889 Y-29.676 E1517.9677
G1 X-12.968 Y-38.472 E1534.4354
G1 X-29.225 Y-38.472 E1560.7960
G1 X-34.303 Y-29.676 E1577.2638
G1 X-46.231 Y-29.676 E1596.6042
; layer 6, Z = 7.995
#LayerChange
; outer perimeter
G1 X-48.811 Y55.948 F4800
G1 Z7.995 F1000
G92 E0
G1 X-48.811 Y-41.052 E157.2789 F600
G1 X48.189 Y-41.052 E314.5577
G1 X48.189 Y55.948 E471.8366
G1 X-48.811 Y55.948 E629.1154
; infill
G1 X-29.225 Y-38.472 F4800
G92 E0
G1 X-34.953 Y-28.551 E18.5740 F600
G1 X-28.025 Y-16.551 E41.0411
G1 X-34.953 Y-4.552 E63.5081
G1 X-28.025 Y7.448 E85.9752
G1 X-34.953 Y19.448 E108.4422
