; G-Code generated by Simplify3D(R) Version 3.1.1
; Jul 20, 2018 at 12:49:51 PM
; Settings Summary
;   processName,Process1
;   applyToModels,hosenrohr_ohne_versatz
;   profileName,Default (modified)
;   profileVersion,2015-05-01 08:00:00
;   baseProfile,
;   printMaterial,PLA
;   printQuality,High
;   printExtruders,
;   extruderName,Primary Extruder
;   extruderToolheadNumber,0
;   extruderDiameter,1
;   extruderAutoWidth,1
;   extruderWidth,1.2
;   extrusionMultiplier,0.9
;   extruderUseRetract,0
;   extruderRetractionDistance,1
;   extruderExtraRestartDistance,0
;   extruderRetractionZLift,0
;   extruderRetractionSpeed,1800
;   extruderUseCoasting,0
;   extruderCoastingDistance,0.2
;   extruderUseWipe,0
;   extruderWipeDistance,5
;   primaryExtruder,0
;   layerHeight,1.33
;   topSolidLayers,0
;   bottomSolidLayers,0
;   perimeterOutlines,1
;   printPerimetersInsideOut,1
;   startPointOption,2
;   startPointOriginX,0
;   startPointOriginY,0
;   startPointOriginZ,300
;   sequentialIslands,0
;   spiralVaseMode,1
;   firstLayerHeightPercentage,100
;   firstLayerWidthPercentage,100
;   firstLayerUnderspeed,1
;   useRaft,0
;   raftExtruder,0
;   raftLayers,3
;   raftOffset,3
;   raftSeparationDistance,0.14
;   raftInfill,85
;   disableRaftBaseLayers,0
;   useSkirt,0
;   skirtExtruder,0
;   skirtLayers,2
;   skirtOutlines,2
;   skirtOffset,4
;   usePrimePillar,0
;   primePillarExtruder,999
;   primePillarWidth,12
;   primePillarLocation,7
;   primePillarSpeedMultiplier,1
;   useOozeShield,0
;   oozeShieldExtruder,999
;   oozeShieldOffset,2
;   oozeShieldOutlines,1
;   oozeShieldSidewallShape,1
;   oozeShieldSidewallAngle,30
;   oozeShieldSpeedMultiplier,1
;   infillExtruder,0
;   internalInfillPattern,Rectilinear
;   externalInfillPattern,Rectilinear
;   infillPercentage,0
;   outlineOverlapPercentage,0
;   infillExtrusionWidthPercentage,100
;   minInfillLength,5
;   infillLayerInterval,1
;   infillAngles,0
;   overlapInfillAngles,0
;   generateSupport,0
;   supportExtruder,0
;   supportInfillPercentage,40
;   supportExtraInflation,0
;   denseSupportLayers,0
;   denseSupportInfillPercentage,70
;   supportLayerInterval,1
;   supportHorizontalPartOffset,0.3
;   supportUpperSeparationLayers,1
;   supportLowerSeparationLayers,1
;   supportType,0
;   supportGridSpacing,4
;   maxOverhangAngle,45
;   supportAngles,0
;   temperatureName,Primary Extruder
;   temperatureNumber,0
;   temperatureSetpointCount,1
;   temperatureSetpointLayers,1
;   temperatureSetpointTemperatures,0
;   temperatureStabilizeAtStartup,1
;   temperatureHeatedBed,0
;   temperatureRelayBetweenLayers,0
;   temperatureRelayBetweenLoops,0
;   fanLayers
;   fanSpeeds
;   blipFanToFullPower,0
;   adjustSpeedForCooling,1
;   minSpeedLayerTime,15
;   minCoolingSpeedSlowdown,20
;   increaseFanForCooling,0
;   minFanLayerTime,45
;   maxCoolingFanSpeed,100
;   increaseFanForBridging,0
;   bridgingFanSpeed,100
;   use5D,1
;   relativeEdistances,0
;   allowEaxisZeroing,1
;   independentExtruderAxes,0
;   includeM10123,0
;   stickySupport,1
;   applyToolheadOffsets,0
;   gcodeXoffset,0
;   gcodeYoffset,0
;   gcodeZoffset,0
;   overrideMachineDefinition,0
;   machineTypeOverride,0
;   strokeXoverride,200
;   strokeYoverride,200
;   strokeZoverride,200
;   originOffsetXoverride,0
;   originOffsetYoverride,0
;   originOffsetZoverride,0
;   homeXdirOverride,-1
;   homeYdirOverride,-1
;   homeZdirOverride,-1
;   flipXoverride,1
;   flipYoverride,-1
;   flipZoverride,1
;   toolheadOffsets,0,0|0,0|0,0|0,0|0,0|0,0
;   overrideFirmwareConfiguration,0
;   firmwareTypeOverride,RepRap (Marlin/Repetier/Sprinter)
;   GPXconfigOverride,r2
;   baudRateOverride,115200
;   overridePrinterModels,0
;   printerModelsOverride
;   startingGcode,G28 ; home all axes
;   layerChangeGcode,
;   retractionGcode,
;   toolChangeGcode,
;   endingGcode,M104 S0 ; turn off extruder,M140 S0 ; turn off bed,M84 ; disable motors
;   exportFileFormat,gcode
;   celebration,0
;   celebrationSong,Random Song
;   postProcessing,
;   defaultSpeed,600
;   outlineUnderspeed,1
;   solidInfillUnderspeed,0.8
;   supportUnderspeed,0.8
;   rapidXYspeed,4800
;   rapidZspeed,1000
;   minBridgingArea,40
;   bridgingExtraInflation,1
;   bridgingExtrusionMultiplier,1
;   bridgingSpeedMultiplier,1
;   filamentDiameter,1.75
;   filamentPricePerKg,46
;   filamentDensity,1.25
;   useMinPrintHeight,0
;   minPrintHeight,0
;   useMaxPrintHeight,0
;   maxPrintHeight,0
;   useDiaphragm,0
;   diaphragmLayerInterval,20
;   robustSlicing,0
;   mergeAllIntoSolid,1
;   onlyRetractWhenCrossingOutline,1
;   retractBetweenLayers,0
;   useRetractionMinTravel,0
;   retractionMinTravel,3
;   retractWhileWiping,0
;   onlyWipeOutlines,1
;   avoidCrossingOutline,0
;   maxMovementDetourFactor,3
;   toolChangeRetractionDistance,0
;   toolChangeExtraRestartDistance,0
;   toolChangeRetractionSpeed,600
;   allowThinWallGapFill,0
;   thinWallAllowedOverlapPercentage,0
;   horizontalSizeCompensation,0
G90
M82
M104 S0 T0
G28 ; home all axes
G92 E0
G1 E-1.0000 F1800
G1 Z0.000 F1000
; layer 1, Z = 1.33
T0
; tool H1.330 W1.200
; outer perimeter
G1 X0.213 Y0.028 F4800
G1 E0.0000 F540
G92 E0
G1 X0.684 Y-0.011 Z0.000 E0.1413 F600
G1 X1.247 Y-0.156 Z0.003 E0.3159
G1 X1.774 Y-0.407 Z0.006 E0.4913
G1 X2.182 Y-0.695 Z0.010 E0.6420
G1 X2.537 Y-1.047 Z0.013 E0.7929
G1 X2.876 Y-1.521 Z0.016 E0.9695
G1 X3.117 Y-2.049 Z0.020 E1.1458
G1 X3.228 Y-2.464 Z0.023 E1.2767
G1 X3.332 Y-2.996 Z0.026 E1.4420
G1 X3.499 Y-3.723 Z0.029 E1.6703
G1 X3.811 Y-4.797 Z0.034 E2.0144
G1 X4.268 Y-6.041 Z0.040 E2.4246
G1 X4.777 Y-7.153 Z0.048 E2.8051
G1 X5.314 Y-8.138 Z0.056 E3.1559
G1 X5.705 Y-8.772 Z0.063 E3.3895
G1 X6.024 Y-9.246 Z0.067 E3.5692
G1 X6.762 Y-10.226 Z0.071 E3.9568
G1 X7.570 Y-11.150 Z0.078 E4.3470
G1 X8.074 Y-11.664 Z0.086 E4.5764
G1 X8.430 Y-12.001 Z0.090 E4.7330
G1 X9.365 Y-12.801 Z0.093 E5.1282
G1 X10.262 Y-13.466 Z0.100 E5.4885
G1 X11.385 Y-14.181 Z0.107 E5.9205
G1 X12.079 Y-14.564 Z0.115 E6.1784
G1 X12.452 Y-14.752 Z0.120 E6.3146
G1 X13.575 Y-15.252 Z0.123 E6.7177
G1 X14.627 Y-15.633 Z0.130 E7.0860
G1 X15.902 Y-15.997 Z0.137 E7.5251
G1 X17.100 Y-16.242 Z0.145 E7.9319
G1 X18.207 Y-16.387 Z0.152 E8.3053
G1 X19.533 Y-16.468 Z0.159 E8.7517
G1 X20.752 Y-16.449 Z0.167 E9.1637
G1 X21.868 Y-16.353 Z0.175 E9.5437
G1 X23.177 Y-16.147 Z0.181 E9.9957
G1 X24.367 Y-15.866 Z0.189 E10.4148
G1 X25.433 Y-15.532 Z0.197 E10.7994
G1 X26.669 Y-15.048 Z0.204 E11.2590
G1 X27.769 Y-14.518 Z0.212 E11.6834
G1 X28.829 Y-13.909 Z0.219 E12.1108
G1 X29.757 Y-13.284 Z0.227 E12.5033
G1 X30.802 Y-12.468 Z0.233 E12.9712
G1 X31.706 Y-11.646 Z0.241 E13.4044
G1 X32.547 Y-10.760 Z0.249 E13.8393
G1 X33.259 Y-9.896 Z0.256 E14.2397
G1 X34.054 Y-8.776 Z0.263 E14.7334
G1 X34.659 Y-7.769 Z0.271 E15.1576
G1 X35.214 Y-6.678 Z0.279 E15.6017
G1 X35.547 Y-5.910 Z0.286 E15.9063
G1 X35.684 Y-5.559 Z0.291 E16.0437
G1 X36.077 Y-4.396 Z0.293 E16.4934
G1 X36.362 Y-3.304 Z0.301 E16.9082
G1 X36.446 Y-2.914 Z0.308 E17.0550
G1 X36.603 Y-2.012 Z0.310 E17.3933
G1 X36.727 Y-0.896 Z0.316 E17.8099
G1 X36.773 Y-0.086 Z0.322 E18.1116
G1 X36.781 Y0.420 Z0.327 E18.3003
G1 X36.726 Y1.756 Z0.330 E18.8012
G1 X36.604 Y2.865 Z0.339 E19.2209
G1 X36.404 Y3.965 Z0.345 E19.6431
G1 X36.075 Y5.258 Z0.352 E20.1495
G1 X35.922 Y5.747 Z0.360 E20.3441
G1 X35.650 Y6.499 Z0.363 E20.6492
G1 X35.212 Y7.536 Z0.368 E21.0800
G1 X34.705 Y8.538 Z0.375 E21.5116
G1 X34.027 Y9.673 Z0.382 E22.0223
G1 X33.322 Y10.671 Z0.390 E22.4957
G1 X32.675 Y11.466 Z0.397 E22.8949
G1 X31.777 Y12.428 Z0.404 E23.4094
G1 X30.801 Y13.325 Z0.412 E23.9302
G1 X29.837 Y14.083 Z0.420 E24.4137
G1 X29.332 Y14.438 Z0.427 E24.6579
G1 X28.834 Y14.760 Z0.431 E24.8927
G1 X27.676 Y15.420 Z0.434 E25.4231
G1 X26.668 Y15.904 Z0.442 E25.8697
G1 X25.628 Y16.318 Z0.449 E26.3187
G1 X24.365 Y16.721 Z0.456 E26.8526
G1 X23.177 Y17.002 Z0.464 E27.3465
G1 X21.868 Y17.208 Z0.472 E27.8847
G1 X20.752 Y17.305 Z0.480 E28.3417
G1 X19.634 Y17.324 Z0.486 E28.7991
G1 X18.412 Y17.261 Z0.493 E29.3022
G1 X17.098 Y17.096 Z0.501 E29.8488
G1 X15.901 Y16.852 Z0.509 E30.3552
G1 X14.725 Y16.521 Z0.516 E30.8635
G1 X13.575 Y16.106 Z0.524 E31.3742
G1 X12.458 Y15.610 Z0.531 E31.8869
G1 X11.381 Y15.034 Z0.538 E32.4014
G1 X10.348 Y14.382 Z0.546 E32.9180
G1 X9.286 Y13.591 Z0.553 E33.4801
G1 X8.360 Y12.790 Z0.561 E34.0020
G1 X7.564 Y11.999 Z0.569 E34.4821
G1 X7.149 Y11.541 Z0.576 E34.7469
G1 X6.702 Y11.004 Z0.579 E35.0472
G1 X6.028 Y10.107 Z0.584 E35.5311
G1 X5.360 Y9.073 Z0.590 E36.0635
G1 X5.101 Y8.622 Z0.598 E36.2890
G1 X4.779 Y8.013 Z0.601 E36.5881
G1 X4.230 Y6.799 Z0.605 E37.1697
G1 X3.836 Y5.734 Z0.613 E37.6668
G1 X3.527 Y4.682 Z0.620 E38.1486
G1 X3.234 Y3.348 Z0.627 E38.7510
G1 X3.105 Y2.866 Z0.635 E38.9713
G1 X2.875 Y2.376 Z0.638 E39.2109
G1 X2.564 Y1.931 Z0.641 E39.4514
G1 X2.183 Y1.551 Z0.645 E39.6907
G1 X1.771 Y1.260 Z0.648 E39.9148
G1 X1.212 Y1.000 Z0.651 E40.1898
G1 X0.724 Y0.872 Z0.655 E40.4148
G1 X0.253 Y0.829 Z0.658 E40.6261
G1 X-0.453 Y0.828 Z0.661 E40.9424
G1 X-0.963 Y0.871 Z0.665 E41.1719
G1 X-1.489 Y1.013 Z0.668 E41.4166
G1 X-2.012 Y1.262 Z0.671 E41.6777
G1 X-2.421 Y1.550 Z0.675 E41.9029
G1 X-2.775 Y1.902 Z0.678 E42.1285
G1 X-3.106 Y2.365 Z0.681 E42.3858
G1 X-3.257 Y2.660 Z0.684 E42.5358
G1 X-3.359 Y2.920 Z0.686 E42.6624
G1 X-3.465 Y3.314 Z0.688 E42.8475
G1 X-3.738 Y4.582 Z0.691 E43.4384
G1 X-4.049 Y5.652 Z0.699 E43.9476
G1 X-4.507 Y6.896 Z0.705 E44.5556
G1 X-5.017 Y8.012 Z0.713 E45.1206
G1 X-5.339 Y8.622 Z0.721 E45.4389
G1 X-5.598 Y9.073 Z0.725 E45.6792
G1 X-6.266 Y10.106 Z0.728 E46.2496
G1 X-7.004 Y11.085 Z0.736 E46.8201
G1 X-7.387 Y11.540 Z0.743 E47.0972
G1 X-7.802 Y11.998 Z0.747 E47.3862
G1 X-8.673 Y12.861 Z0.750 E47.9608
G1 X-9.603 Y13.656 Z0.758 E48.5366
G1 X-10.501 Y14.321 Z0.765 E49.0637
G1 X-11.621 Y15.034 Z0.772 E49.6927
G1 X-12.697 Y15.610 Z0.780 E50.2728
G1 X-13.814 Y16.107 Z0.788 E50.8562
G1 X-14.866 Y16.488 Z0.795 E51.3916
G1 X-16.141 Y16.852 Z0.802 E52.0286
G1 X-17.338 Y17.097 Z0.810 E52.6179
G1 X-18.446 Y17.242 Z0.817 E53.1580
G1 X-19.771 Y17.323 Z0.824 E53.8027
G1 X-20.991 Y17.305 Z0.832 E54.3968
G1 X-22.107 Y17.208 Z0.840 E54.9440
G1 X-23.415 Y17.002 Z0.846 E55.5938
G1 X-24.605 Y16.721 Z0.854 E56.1953
G1 X-25.770 Y16.355 Z0.862 E56.7981
G1 X-26.907 Y15.904 Z0.869 E57.4044
G1 X-27.915 Y15.420 Z0.877 E57.9600
G1 X-28.984 Y14.813 Z0.883 E58.5728
G1 X-29.571 Y14.437 Z0.891 E58.9212
G1 X-30.076 Y14.083 Z0.895 E59.2296
G1 X-31.040 Y13.324 Z0.899 E59.8456
G1 X-31.945 Y12.500 Z0.906 E60.4620
G1 X-32.715 Y11.692 Z0.914 E61.0265
G1 X-33.562 Y10.668 Z0.921 E61.7001
G1 X-34.266 Y9.672 Z0.929 E62.3204
G1 X-34.895 Y8.629 Z0.936 E62.9421
G1 X-35.451 Y7.536 Z0.943 E63.5705
G1 X-35.889 Y6.499 Z0.951 E64.1482
G1 X-36.160 Y5.747 Z0.958 E64.5600
G1 X-36.314 Y5.257 Z0.963 E64.8248
G1 X-36.598 Y4.169 Z0.966 E65.4060
G1 X-36.860 Y2.732 Z0.973 E66.1640
G1 X-36.974 Y1.653 Z0.981 E66.7282
G1 X-37.019 Y0.421 Z0.988 E67.3720
G1 X-37.011 Y-0.088 Z0.996 E67.6383
G1 X-36.975 Y-0.793 Z0.999 E68.0082
G1 X-36.855 Y-1.910 Z1.003 E68.5981
G1 X-36.684 Y-2.916 Z1.010 E69.1353
G1 X-36.600 Y-3.304 Z1.016 E69.3447
G1 X-36.316 Y-4.396 Z1.018 E69.9412
G1 X-35.925 Y-5.553 Z1.025 E70.5890
G1 X-35.451 Y-6.681 Z1.033 E71.2405
G1 X-34.947 Y-7.676 Z1.040 E71.8356
G1 X-34.207 Y-8.904 Z1.047 E72.6036
G1 X-33.623 Y-9.730 Z1.056 E73.1466
G1 X-32.785 Y-10.761 Z1.062 E73.8623
G1 X-31.923 Y-11.666 Z1.070 E74.5378
G1 X-31.040 Y-12.469 Z1.077 E75.1846
G1 X-30.080 Y-13.225 Z1.085 E75.8491
G1 X-29.067 Y-13.909 Z1.092 E76.5158
G1 X-28.007 Y-14.518 Z1.099 E77.1847
G1 X-26.907 Y-15.049 Z1.107 E77.8549
G1 X-25.770 Y-15.499 Z1.114 E78.5283
G1 X-24.605 Y-15.866 Z1.122 E79.2022
G1 X-23.414 Y-16.148 Z1.129 E79.8799
G1 X-22.209 Y-16.342 Z1.137 E80.5577
G1 X-20.990 Y-16.449 Z1.144 E81.2395
G1 X-19.770 Y-16.468 Z1.151 E81.9214
G1 X-18.548 Y-16.399 Z1.159 E82.6072
G1 X-17.339 Y-16.242 Z1.166 E83.2927
G1 X-16.039 Y-15.970 Z1.174 E84.0414
G1 X-14.964 Y-15.667 Z1.182 E84.6732
G1 X-13.814 Y-15.251 Z1.189 E85.3667
G1 X-12.690 Y-14.752 Z1.196 E86.0660
G1 X-12.317 Y-14.563 Z1.203 E86.3038
G1 X-11.623 Y-14.181 Z1.206 E86.7563
G1 X-10.585 Y-13.526 Z1.211 E87.4584
G1 X-9.685 Y-12.864 Z1.218 E88.0994
G1 X-8.744 Y-12.069 Z1.225 E88.8075
G1 X-8.311 Y-11.662 Z1.232 E89.1499
G1 X-7.808 Y-11.150 Z1.236 E89.5642
G1 X-7.067 Y-10.304 Z1.240 E90.2150
G1 X-6.322 Y-9.329 Z1.247 E90.9271
G1 X-5.942 Y-8.770 Z1.255 E91.3200
G1 X-5.604 Y-8.228 Z1.259 E91.6919
G1 X-5.015 Y-7.153 Z1.263 E92.4073
G1 X-4.506 Y-6.040 Z1.270 E93.1237
G1 X-4.080 Y-4.896 Z1.278 E93.8404
G1 X-3.737 Y-3.722 Z1.285 E94.5602
G1 X-3.570 Y-2.996 Z1.292 E94.9996
G1 X-3.474 Y-2.500 Z1.297 E95.2980
G1 X-3.343 Y-2.011 Z1.300 E95.5973
G1 X-3.114 Y-1.522 Z1.303 E95.9168
G1 X-2.828 Y-1.108 Z1.306 E96.2152
G1 X-2.424 Y-0.697 Z1.309 E96.5569
G1 X-2.010 Y-0.405 Z1.313 E96.8580
G1 X-1.450 Y-0.145 Z1.316 E97.2252
G1 X-0.963 Y-0.016 Z1.320 E97.5255
G1 X-0.492 Y0.026 Z1.323 E97.8074
G1 X0.213 Y0.028 Z1.326 E98.2284
; layer 2, Z = 2.66
; outer perimeter
G92 E0
G1 X0.574 Y0.002 Z1.330 E0.2160 F600
G1 X0.738 Y-0.020 Z1.332 E0.3150
G1 X1.244 Y-0.156 Z1.333 E0.6275
G1 X1.615 Y-0.322 Z1.336 E0.8705
G1 X1.857 Y-0.461 Z1.339 E1.0369
G1 X2.182 Y-0.695 Z1.341 E1.2762
G1 X2.460 Y-0.965 Z1.343 E1.5076
G1 X2.572 Y-1.087 Z1.345 E1.6066
G1 X2.872 Y-1.516 Z1.346 E1.9195
G1 X3.050 Y-1.881 Z1.350 E2.1618
G1 X3.148 Y-2.151 Z1.352 E2.3333
G1 X3.499 Y-3.725 Z1.354 E3.2965
G1 X3.753 Y-4.613 Z1.364 E3.8477
G1 X3.840 Y-4.892 Z1.369 E4.0221
G1 X4.268 Y-6.041 Z1.371 E4.7547
G1 X4.778 Y-7.155 Z1.378 E5.4862
G1 X5.212 Y-7.960 Z1.386 E6.0323
G1 X5.699 Y-8.764 Z1.391 E6.5936
G1 X6.024 Y-9.247 Z1.397 E6.9417
G1 X6.763 Y-10.227 Z1.401 E7.6741
G1 X7.571 Y-11.151 Z1.408 E8.4074
G1 X8.042 Y-11.633 Z1.416 E8.8097
G1 X8.431 Y-12.003 Z1.420 E9.1303
G1 X9.365 Y-12.802 Z1.423 E9.8642
G1 X10.348 Y-13.527 Z1.430 E10.5936
G1 X11.385 Y-14.182 Z1.438 E11.3264
G1 X12.014 Y-14.529 Z1.445 E11.7556
G1 X12.454 Y-14.753 Z1.450 E12.0499
G1 X13.576 Y-15.252 Z1.453 E12.7834
G1 X14.726 Y-15.667 Z1.460 E13.5134
G1 X15.904 Y-15.997 Z1.467 E14.2441
G1 X16.808 Y-16.188 Z1.475 E14.7956
G1 X17.095 Y-16.241 Z1.481 E14.9701
G1 X18.311 Y-16.399 Z1.482 E15.7027
G1 X19.532 Y-16.468 Z1.490 E16.4330
G1 X20.755 Y-16.449 Z1.497 E17.1634
G1 X21.676 Y-16.374 Z1.505 E17.7150
G1 X21.966 Y-16.343 Z1.510 E17.8895
G1 X23.177 Y-16.147 Z1.512 E18.6220
G1 X24.369 Y-15.865 Z1.519 E19.3535
G1 X25.250 Y-15.594 Z1.527 E19.9041
G1 X25.527 Y-15.501 Z1.532 E20.0785
G1 X26.669 Y-15.049 Z1.534 E20.8121
G1 X27.770 Y-14.518 Z1.542 E21.5417
G1 X28.831 Y-13.907 Z1.549 E22.2728
G1 X29.599 Y-13.395 Z1.557 E22.8238
G1 X29.838 Y-13.227 Z1.562 E22.9984
G1 X30.802 Y-12.469 Z1.564 E23.7314
G1 X31.706 Y-11.645 Z1.571 E24.4616
G1 X32.549 Y-10.758 Z1.579 E25.1921
G1 X33.139 Y-10.048 Z1.586 E25.7437
G1 X33.320 Y-9.819 Z1.592 E25.9181
G1 X34.044 Y-8.792 Z1.594 E26.6679
G1 X34.660 Y-7.769 Z1.601 E27.3813
G1 X35.215 Y-6.677 Z1.609 E28.1129
G1 X35.512 Y-5.994 Z1.616 E28.5578
G1 X35.685 Y-5.558 Z1.621 E28.8374
G1 X36.078 Y-4.394 Z1.623 E29.5717
G1 X36.313 Y-3.506 Z1.631 E30.1199
G1 X36.470 Y-2.791 Z1.636 E30.5571
G1 X36.604 Y-2.011 Z1.641 E31.0297
G1 X36.708 Y-1.100 Z1.646 E31.5771
G1 X36.771 Y-0.122 Z1.651 E32.1623
G1 X36.781 Y0.423 Z1.657 E32.4884
G1 X36.752 Y1.349 Z1.660 E33.0411
G1 X36.709 Y1.953 Z1.666 E33.4030
G1 X36.604 Y2.865 Z1.670 E33.9509
G1 X36.444 Y3.769 Z1.675 E34.4998
G1 X36.313 Y4.361 Z1.681 E34.8614
G1 X36.077 Y5.255 Z1.685 E35.4135
G1 X35.911 Y5.778 Z1.690 E35.7414
G1 X35.574 Y6.691 Z1.694 E36.3227
G1 X35.213 Y7.535 Z1.699 E36.8710
G1 X34.800 Y8.359 Z1.705 E37.4214
G1 X34.506 Y8.889 Z1.711 E37.7832
G1 X34.028 Y9.672 Z1.714 E38.3308
G1 X33.503 Y10.425 Z1.720 E38.8792
G1 X33.136 Y10.907 Z1.725 E39.2410
G1 X32.548 Y11.614 Z1.729 E39.7904
G1 X31.919 Y12.285 Z1.735 E40.3391
G1 X31.486 Y12.708 Z1.740 E40.7008
G1 X30.804 Y13.323 Z1.744 E41.2492
G1 X29.838 Y14.083 Z1.750 E41.9831
G1 X29.336 Y14.435 Z1.757 E42.3490
G1 X28.833 Y14.762 Z1.761 E42.7078
G1 X28.035 Y15.227 Z1.764 E43.2591
G1 X27.499 Y15.510 Z1.770 E43.6209
G1 X26.669 Y15.904 Z1.774 E44.1696
G1 X25.816 Y16.248 Z1.779 E44.7190
