; G-Code generated by Simplify3D(R) Version 3.1.1
; Aug 9, 2019 at 12:35:29 PM
; Settings Summary
;   processName,Gutroff_Hosenrohr
;   applyToModels,hr_schraeg_ss16_ch1_5
;   profileName,Default (modified)
;   profileVersion,2015-05-01 08:00:00
;   baseProfile,
;   printMaterial,PLA
;   printQuality,High
;   printExtruders,
;   extruderName,Primary Extruder
;   extruderToolheadNumber,0
;   extruderDiameter,1
;   extruderAutoWidth,0
;   extruderWidth,2.7
;   extrusionMultiplier,1
;   extruderUseRetract,1
;   extruderRetractionDistance,0
;   extruderExtraRestartDistance,0
;   extruderRetractionZLift,5
;   extruderRetractionSpeed,1800
;   extruderUseCoasting,0
;   extruderCoastingDistance,0.2
;   extruderUseWipe,0
;   extruderWipeDistance,5
;   primaryExtruder,0
;   layerHeight,1.3
;   topSolidLayers,0
;   bottomSolidLayers,0
;   perimeterOutlines,1
;   printPerimetersInsideOut,1
;   startPointOption,1
;   startPointOriginX,0
;   startPointOriginY,0
;   startPointOriginZ,300
;   sequentialIslands,0
;   spiralVaseMode,0
;   firstLayerHeightPercentage,115
;   firstLayerWidthPercentage,100
;   firstLayerUnderspeed,1
;   useRaft,0
;   raftExtruder,0
;   raftLayers,3
;   raftOffset,3
;   raftSeparationDistance,0.14
;   raftInfill,85
;   disableRaftBaseLayers,0
;   useSkirt,0
;   skirtExtruder,0
;   skirtLayers,2
;   skirtOutlines,2
;   skirtOffset,4
;   usePrimePillar,0
;   primePillarExtruder,999
;   primePillarWidth,12
;   primePillarLocation,7
;   primePillarSpeedMultiplier,1
;   useOozeShield,0
;   oozeShieldExtruder,999
;   oozeShieldOffset,2
;   oozeShieldOutlines,1
;   oozeShieldSidewallShape,1
;   oozeShieldSidewallAngle,30
;   oozeShieldSpeedMultiplier,1
;   infillExtruder,0
;   internalInfillPattern,Rectilinear
;   externalInfillPattern,Rectilinear
;   infillPercentage,0
;   outlineOverlapPercentage,5
;   infillExtrusionWidthPercentage,100
;   minInfillLength,5
;   infillLayerInterval,1
;   infillAngles,45,-45
;   overlapInfillAngles,0
;   generateSupport,0
;   supportExtruder,0
;   supportInfillPercentage,40
;   supportExtraInflation,0
;   denseSupportLayers,0
;   denseSupportInfillPercentage,70
;   supportLayerInterval,1
;   supportHorizontalPartOffset,0.3
;   supportUpperSeparationLayers,1
;   supportLowerSeparationLayers,1
;   supportType,0
;   supportGridSpacing,4
;   maxOverhangAngle,45
;   supportAngles,0
;   temperatureName,Primary Extruder
;   temperatureNumber,0
;   temperatureSetpointCount,1
;   temperatureSetpointLayers,1
;   temperatureSetpointTemperatures,0
;   temperatureStabilizeAtStartup,1
;   temperatureHeatedBed,0
;   temperatureRelayBetweenLayers,0
;   temperatureRelayBetweenLoops,0
;   fanLayers,1,2
;   fanSpeeds,0,100
;   blipFanToFullPower,0
;   adjustSpeedForCooling,0
;   minSpeedLayerTime,15
;   minCoolingSpeedSlowdown,20
;   increaseFanForCooling,0
;   minFanLayerTime,45
;   maxCoolingFanSpeed,100
;   increaseFanForBridging,0
;   bridgingFanSpeed,100
;   use5D,1
;   relativeEdistances,0
;   allowEaxisZeroing,1
;   independentExtruderAxes,0
;   includeM10123,0
;   stickySupport,1
;   applyToolheadOffsets,0
;   gcodeXoffset,0
;   gcodeYoffset,0
;   gcodeZoffset,0
;   overrideMachineDefinition,0
;   machineTypeOverride,0
;   strokeXoverride,200
;   strokeYoverride,200
;   strokeZoverride,200
;   originOffsetXoverride,0
;   originOffsetYoverride,0
;   originOffsetZoverride,0
;   homeXdirOverride,-1
;   homeYdirOverride,-1
;   homeZdirOverride,-1
;   flipXoverride,1
;   flipYoverride,-1
;   flipZoverride,1
;   toolheadOffsets,0,0|0,0|0,0|0,0|0,0|0,0
;   overrideFirmwareConfiguration,0
;   firmwareTypeOverride,RepRap (Marlin/Repetier/Sprinter)
;   GPXconfigOverride,r2
;   baudRateOverride,115200
;   overridePrinterModels,0
;   printerModelsOverride
;   startingGcode,##Start
;   layerChangeGcode,#LayerChange
;   retractionGcode,#Retraction
;   toolChangeGcode,
;   endingGcode,##End
;   exportFileFormat,gcode
;   celebration,0
;   celebrationSong,Random Song
;   postProcessing,
;   defaultSpeed,600
;   outlineUnderspeed,1
;   solidInfillUnderspeed,0.8
;   supportUnderspeed,0.8
;   rapidXYspeed,4800
;   rapidZspeed,1000
;   minBridgingArea,40
;   bridgingExtraInflation,1
;   bridgingExtrusionMultiplier,1
;   bridgingSpeedMultiplier,1
;   filamentDiameter,1.75
;   filamentPricePerKg,46
;   filamentDensity,1.25
;   useMinPrintHeight,0
;   minPrintHeight,1.5
;   useMaxPrintHeight,0
;   maxPrintHeight,1.5
;   useDiaphragm,0
;   diaphragmLayerInterval,20
;   robustSlicing,0
;   mergeAllIntoSolid,0
;   onlyRetractWhenCrossingOutline,1
;   retractBetweenLayers,0
;   useRetractionMinTravel,0
;   retractionMinTravel,3
;   retractWhileWiping,0
;   onlyWipeOutlines,1
;   avoidCrossingOutline,0
;   maxMovementDetourFactor,3
;   toolChangeRetractionDistance,0
;   toolChangeExtraRestartDistance,0
;   toolChangeRetractionSpeed,600
;   allowThinWallGapFill,1
;   thinWallAllowedOverlapPercentage,50
;   horizontalSizeCompensation,0
G90
M82
M106 S0
M104 S0 T0
##Start
G92 E0
#Retraction
G1 E0.0000 F1800
G1 Z6.495 F1000
; layer 1, Z = 1.495
#LayerChange
T0
; tool H1.495 W2.700
; outer perimeter
G1 X66.072 Y20.406 F4800
G1 Z1.495 F1000
G1 E0.0000 F540
G92 E0
G1 X68.112 Y25.904 E9.8409 F600
G1 X68.380 Y26.552 E11.0178
G1 X69.538 Y35.339 E25.8921
G1 X69.533 Y35.818 E26.6964
G1 X68.382 Y43.962 E40.4992
G1 X65.520 Y51.008 E53.2614
G1 X65.311 Y51.375 E53.9698
G1 X65.021 Y52.077 E55.2448
G1 X59.674 Y59.043 E69.9814
G1 X52.708 Y64.389 E84.7180
G1 X44.595 Y67.749 E99.4546
G1 X35.889 Y68.896 E114.1912
G1 X27.183 Y67.749 E128.9277
G1 X19.070 Y64.389 E143.6643
G1 X12.070 Y59.018 E158.4710
G1 X9.311 Y55.844 E165.5283
G1 X7.197 Y52.651 E171.9551
G1 X6.757 Y52.077 E173.1685
G1 X3.377 Y43.916 E187.9926
G1 X2.706 Y40.720 E193.4732
G1 X2.344 Y35.965 E201.4761
G1 X2.251 Y35.258 E202.6726
G1 X3.407 Y26.482 E217.5272
G1 X3.861 Y24.956 E220.1993
G1 X6.491 Y19.081 E231.0020
G1 X6.757 Y18.439 E232.1683
G1 X12.129 Y11.439 E246.9748
G1 X15.306 Y8.678 E254.0398
G1 X18.496 Y6.566 E260.4591
G1 X19.070 Y6.126 E261.6725
G1 X27.183 Y2.766 E276.4092
G1 X35.889 Y1.619 E291.1457
G1 X44.595 Y2.766 E305.8823
G1 X52.755 Y6.146 E320.7041
G1 X59.674 Y11.472 E335.3567
G1 X65.059 Y18.489 E350.2020
G1 X66.072 Y20.406 E353.8402
; outer perimeter
G1 X60.221 Y92.031 F4800
G92 E0
G1 X65.044 Y98.469 E13.5000 F600
G1 X66.836 Y102.115 E20.3185
G1 X67.095 Y102.740 E21.4539
G1 X69.444 Y114.631 E41.7932
G1 X69.534 Y115.316 E42.9543
G1 X69.416 Y117.970 E47.4111
G1 X69.328 Y118.640 E48.5464
G1 X65.258 Y131.504 E71.1885
G1 X64.995 Y132.138 E72.3401
G1 X64.060 Y133.648 E75.3209
G1 X63.600 Y134.247 E76.5879
G1 X59.006 Y139.696 E88.5500
G1 X53.255 Y143.970 E100.5734
G1 X52.711 Y144.388 E101.7252
G1 X44.594 Y147.750 E116.4692
G1 X35.889 Y148.896 E131.2035
G1 X27.184 Y147.750 E145.9377
G1 X19.626 Y144.619 E159.6659
G1 X19.479 Y144.576 E159.9236
G1 X19.072 Y144.394 E160.6718
G1 X13.290 Y140.097 E172.7618
G1 X13.040 Y139.935 E173.2608
G1 X12.802 Y139.731 E173.7870
G1 X7.885 Y133.905 E186.5811
G1 X6.813 Y132.186 E189.9814
G1 X2.718 Y119.244 E212.7618
G1 X2.467 Y118.679 E213.7984
G1 X2.347 Y115.986 E218.3219
G1 X2.257 Y115.298 E219.4871
G1 X4.605 Y103.409 E239.8239
G1 X4.706 Y102.653 E241.1049
G1 X6.524 Y98.953 E248.0228
G1 X6.749 Y98.448 E248.9511
G1 X11.159 Y92.544 E261.3179
G1 X11.325 Y92.290 E261.8275
G1 X11.523 Y92.058 E262.3381
G1 X17.506 Y87.080 E275.4004
G1 X19.004 Y86.154 E278.3549
G1 X26.575 Y83.018 E292.1081
G1 X27.127 Y82.774 E293.1204
G1 X35.889 Y81.619 E307.9522
G1 X44.594 Y82.766 E322.6865
G1 X52.777 Y86.155 E337.5511
G1 X54.016 Y86.914 E339.9880
G1 X54.616 Y87.374 E341.2579
G1 X60.221 Y92.031 E353.4871
; layer 2, Z = 2.795
M106 S255
#LayerChange
; tool H1.300 W2.700
; outer perimeter
G1 X2.257 Y115.290 F4800
G1 Z2.795 F1000
G92 E0
G1 X4.146 Y105.726 E14.2264 F600
G1 X4.457 Y103.372 E17.6916
G1 X4.539 Y103.098 E18.1090
G1 X6.007 Y100.111 E22.9657
G1 X6.749 Y98.447 E25.6243
G1 X10.297 Y93.698 E34.2759
G1 X10.818 Y92.897 E35.6697
G1 X11.632 Y91.946 E37.4961
G1 X16.191 Y88.159 E46.1442
G1 X17.253 Y87.254 E48.1811
G1 X18.299 Y86.614 E49.9712
G1 X19.017 Y86.148 E51.2198
G1 X25.100 Y83.629 E60.8277
G1 X26.849 Y82.853 E63.6204
G1 X27.112 Y82.775 E64.0200
G1 X35.889 Y81.619 E76.9384
G1 X44.594 Y82.766 E89.7512
G1 X52.776 Y86.155 E102.6757
G1 X53.747 Y86.749 E104.3366
G1 X55.614 Y88.182 E107.7700
G1 X60.111 Y91.917 E116.3016
G1 X63.633 Y96.631 E124.8881
G1 X65.048 Y98.475 E128.2804
G1 X66.477 Y101.383 E133.0079
G1 X67.346 Y103.483 E136.3243
G1 X69.236 Y113.048 E150.5529
G1 X69.534 Y115.316 E153.8916
G1 X69.441 Y117.424 E156.9706
G1 X69.144 Y119.677 E160.2869
G1 X65.868 Y130.030 E176.1321
G1 X64.995 Y132.138 E179.4625
G1 X64.258 Y133.328 E181.5054
G1 X62.827 Y135.194 E184.9362
G1 X59.141 Y139.565 E193.2809
G1 X54.521 Y142.999 E201.6803
G1 X52.710 Y144.388 E205.0111
G1 X44.594 Y147.750 E217.8306
G1 X35.889 Y148.896 E230.6435
G1 X27.184 Y147.750 E243.4563
G1 X21.101 Y145.230 E253.0635
G1 X20.647 Y145.096 E253.7546
G1 X19.072 Y144.395 E256.2705
G1 X14.421 Y140.938 E264.7277
G1 X13.633 Y140.426 E266.0984
G1 X12.666 Y139.600 E267.9540
G1 X8.034 Y134.120 E278.4247
G1 X7.249 Y132.852 E280.6014
G1 X6.809 Y132.174 E281.7804
G1 X3.513 Y121.755 E297.7277
G1 X2.717 Y119.966 E300.5847
G1 X2.652 Y119.747 E300.9189
G1 X2.555 Y117.569 E304.1003
G1 X2.257 Y115.290 E307.4537
; outer perimeter
G1 X8.169 Y53.917 F4800
G92 E0
G1 X6.757 Y52.077 E3.3843 F600
G1 X3.377 Y43.916 E16.2747
G1 X2.844 Y41.376 E20.0620
G1 X2.552 Y37.547 E25.6656
G1 X2.251 Y35.258 E29.0352
G1 X3.406 Y26.482 E41.9522
G1 X3.763 Y25.286 E43.7729
G1 X5.880 Y20.555 E51.3369
G1 X6.757 Y18.439 E54.6802
G1 X12.129 Y11.439 E67.5555
G1 X14.661 Y9.238 E72.4521
G1 X17.230 Y7.538 E76.9468
G1 X19.070 Y6.126 E80.3312
G1 X27.183 Y2.766 E93.1457
G1 X35.889 Y1.619 E105.9601
G1 X44.595 Y2.766 E118.7746
G1 X52.746 Y6.142 E131.6487
G1 X59.674 Y11.472 E144.4043
G1 X65.059 Y18.489 E157.3130
G1 X65.859 Y20.002 E159.8100
G1 X67.501 Y24.429 E166.7008
G1 X68.380 Y26.552 E170.0533
G1 X69.538 Y35.339 E182.9875
G1 X69.534 Y35.690 E183.4995
G1 X68.678 Y41.704 E192.3644
G1 X68.380 Y43.969 E195.6972
G1 X66.090 Y49.605 E204.5751
G1 X65.922 Y49.900 E205.0711
G1 X65.021 Y52.077 E208.5090
G1 X59.674 Y59.043 E221.3235
G1 X52.708 Y64.389 E234.1379
G1 X44.595 Y67.749 E246.9524
G1 X35.889 Y68.896 E259.7668
G1 X27.183 Y67.749 E272.5813
G1 X19.070 Y64.389 E285.3957
G1 X12.070 Y59.018 E298.2711
G1 X9.871 Y56.488 E303.1623
G1 X8.169 Y53.917 E307.6624
; layer 3, Z = 4.095
#LayerChange
; outer perimeter
G1 X5.312 Y21.927 F4800
G1 Z4.095 F1000
G92 E0
G1 X6.757 Y18.439 E5.5100 F600
G1 X12.129 Y11.439 E18.3854
G1 X14.061 Y9.759 E22.1219
G1 X16.052 Y8.442 E25.6054
G1 X19.070 Y6.126 E31.1564
G1 X27.183 Y2.766 E43.9709
G1 X35.889 Y1.619 E56.7853
G1 X44.595 Y2.766 E69.5998
G1 X52.708 Y6.126 E82.4143
G1 X59.674 Y11.472 E95.2287
G1 X65.059 Y18.489 E108.1363
G1 X65.660 Y19.627 E110.0133
G1 X66.933 Y23.058 E115.3536
G1 X68.381 Y26.552 E120.8728
G1 X69.538 Y35.339 E133.8069
G1 X69.535 Y35.571 E134.1456
G1 X68.872 Y40.232 E141.0159
G1 X68.380 Y43.969 E146.5154
G1 X66.620 Y48.300 E153.3374
G1 X66.490 Y48.529 E153.7218
G1 X65.021 Y52.077 E159.3263
G1 X59.674 Y59.043 E172.1408
G1 X52.708 Y64.389 E184.9553
G1 X44.595 Y67.750 E197.7697
G1 X35.889 Y68.896 E210.5842
G1 X27.183 Y67.750 E223.3987
G1 X19.070 Y64.389 E236.2131
G1 X12.070 Y59.018 E249.0885
G1 X10.392 Y57.088 E252.8211
G1 X9.073 Y55.095 E256.3086
G1 X6.757 Y52.077 E261.8595
G1 X3.377 Y43.916 E274.7499
G1 X2.972 Y41.987 E277.6269
G1 X2.746 Y39.019 E281.9696
G1 X2.251 Y35.258 E287.5059
G1 X3.406 Y26.482 E300.4229
G1 X3.671 Y25.594 E301.7758
G1 X5.312 Y21.927 E307.6379
; outer perimeter
G1 X53.498 Y86.597 F4800
G92 E0
G1 X56.542 Y88.933 E5.5998 F600
G1 X60.009 Y91.813 E12.1769
G1 X62.729 Y95.453 E18.8079
G1 X65.048 Y98.475 E24.3668
G1 X66.142 Y100.702 E27.9872
G1 X67.580 Y104.173 E33.4704
G1 X69.042 Y111.576 E44.4823
G1 X69.534 Y115.316 E49.9877
G1 X69.463 Y116.917 E52.3257
G1 X68.973 Y120.642 E57.8086
G1 X66.436 Y128.658 E70.0783
G1 X64.995 Y132.139 E75.5754
G1 X64.442 Y133.031 E77.1075
G1 X62.107 Y136.074 E82.7047
G1 X59.266 Y139.443 E89.1359
G1 X55.698 Y142.095 E95.6229
G1 X52.710 Y144.388 E101.1203
G1 X44.594 Y147.750 E113.9388
G1 X35.889 Y148.896 E126.7520
G1 X27.184 Y147.750 E139.5652
G1 X22.474 Y145.799 E147.0046
G1 X21.734 Y145.580 E148.1303
G1 X19.073 Y144.395 E152.3812
G1 X15.473 Y141.720 E158.9261
G1 X14.185 Y140.883 E161.1683
G1 X12.540 Y139.478 E164.3243
G1 X8.172 Y134.319 E174.1890
G1 X7.572 Y133.349 E175.8539
G1 X6.810 Y132.175 E177.8966
G1 X4.252 Y124.092 E190.2682
G1 X2.971 Y121.212 E194.8681
G1 X2.823 Y120.711 E195.6291
G1 X2.749 Y119.041 E198.0694
G1 X2.257 Y115.283 E203.5999
G1 X3.719 Y107.882 E214.6096
G1 X4.224 Y104.063 E220.2312
G1 X4.393 Y103.494 E221.0962
G1 X5.526 Y101.188 E224.8458
G1 X6.749 Y98.447 E229.2265
G1 X9.495 Y94.771 E235.9226
G1 X10.347 Y93.462 E238.2007
G1 X11.734 Y91.841 E241.3140
G1 X15.262 Y88.910 E248.0074
G1 X17.013 Y87.418 E251.3649
G1 X17.811 Y86.930 E252.7288
G1 X19.018 Y86.148 E254.8279
G1 X23.728 Y84.197 E262.2681
G1 X26.577 Y82.933 E266.8165
G1 X27.112 Y82.775 E267.6300
G1 X35.889 Y81.619 E280.5486
G1 X44.594 Y82.766 E293.3618
G1 X52.776 Y86.155 E306.2852
G1 X53.498 Y86.597 E307.5201
; layer 4, Z = 5.395
#LayerChange
; outer perimeter
G1 X16.525 Y142.502 F4800
G1 Z5.395 F1000
G92 E0
G1 X14.736 Y141.339 E3.1135 F600
G1 X12.414 Y139.356 E7.5702
G1 X8.310 Y134.517 E16.8289
G1 X7.894 Y133.846 E17.9819
G1 X6.810 Y132.175 E20.8881
G1 X4.991 Y126.428 E29.6842
G1 X3.225 Y122.457 E36.0270
G1 X2.994 Y121.676 E37.2147
G1 X2.943 Y120.513 E38.9140
G1 X2.257 Y115.276 E46.6215
G1 X3.292 Y110.037 E54.4146
G1 X3.991 Y104.753 E62.1925
G1 X4.247 Y103.891 E63.5050
G1 X5.045 Y102.266 E66.1476
G1 X6.749 Y98.446 E72.2505
G1 X8.694 Y95.844 E76.9910
G1 X9.876 Y94.027 E80.1535
G1 X11.836 Y91.737 E84.5536
G1 X14.334 Y89.662 E89.2924
G1 X16.774 Y87.582 E93.9705
G1 X17.322 Y87.247 E94.9082
G1 X19.018 Y86.148 E97.8578
G1 X22.356 Y84.765 E103.1302
G1 X26.305 Y83.013 E109.4344
G1 X27.112 Y82.775 E110.6616
G1 X35.889 Y81.619 E123.5806
G1 X44.594 Y82.766 E136.3943
G1 X52.776 Y86.154 E149.3164
G1 X53.248 Y86.444 E150.1251
G1 X57.471 Y89.684 E157.8916
G1 X59.907 Y91.708 E162.5141
G1 X61.825 Y94.274 E167.1895
G1 X65.048 Y98.475 E174.9152
G1 X65.807 Y100.020 E177.4283
G1 X67.813 Y104.863 E185.0783
G1 X68.848 Y110.104 E192.8736
G1 X69.535 Y115.316 E200.5457
G1 X69.486 Y116.410 E202.1426
G1 X68.802 Y121.607 E209.7923
G1 X67.004 Y127.287 E218.4864
G1 X64.995 Y132.139 E226.1502
G1 X64.626 Y132.734 E227.1712
G1 X61.387 Y136.955 E234.9353
G1 X59.392 Y139.322 E239.4527
G1 X56.876 Y141.191 E244.0274
G1 X52.709 Y144.389 E251.6915
G1 X44.594 Y147.750 E264.5089
G1 X35.889 Y148.896 E277.3224
G1 X27.183 Y147.750 E290.1360
G1 X23.846 Y146.367 E295.4077
G1 X22.821 Y146.064 E296.9677
G1 X19.073 Y144.395 E302.9540
G1 X16.525 Y142.502 E307.5865
; outer perimeter
G1 X19.070 Y6.126 F4800
G92 E0
G1 X27.183 Y2.766 E12.8145 F600
G1 X35.889 Y1.619 E25.6290
G1 X44.595 Y2.766 E38.4435
G1 X52.708 Y6.126 E51.2579
G1 X59.675 Y11.472 E64.0724
G1 X65.059 Y18.489 E76.9800
G1 X65.462 Y19.251 E78.2370
G1 X66.365 Y21.686 E82.0269
G1 X68.381 Y26.552 E89.7128
G1 X69.538 Y35.339 E102.6469
G1 X69.537 Y35.452 E102.8122
G1 X69.066 Y38.760 E107.6879
G1 X68.380 Y43.969 E115.3540
G1 X67.151 Y46.994 E120.1201
G1 X67.058 Y47.157 E120.3928
G1 X65.021 Y52.077 E128.1641
G1 X59.675 Y59.043 E140.9786
G1 X52.708 Y64.389 E153.7931
G1 X44.595 Y67.750 E166.6076
G1 X35.889 Y68.896 E179.4221
G1 X27.183 Y67.750 E192.2366
G1 X19.070 Y64.389 E205.0510
G1 X12.070 Y59.018 E217.9265
G1 X10.913 Y57.687 E220.5003
G1 X9.977 Y56.273 E222.9752
G1 X6.757 Y52.077 E230.6929
G1 X3.377 Y43.916 E243.5833
G1 X3.100 Y42.597 E245.5500
G1 X2.940 Y40.491 E248.6319
G1 X2.251 Y35.258 E256.3347
G1 X3.406 Y26.482 E269.2519
G1 X3.580 Y25.901 E270.1370
G1 X4.744 Y23.299 E274.2970
G1 X6.757 Y18.439 E281.9736
G1 X12.129 Y11.439 E294.8490
G1 X13.461 Y10.281 E297.4258
G1 X14.874 Y9.346 E299.8978
G1 X19.070 Y6.126 E307.6155
; layer 5, Z = 6.695
#LayerChange
; outer perimeter
