; G-Code generated by Simplify3D(R) Version 3.1.1
; Feb 26, 2019 at 8:32:31 AM
; Settings Summary
;   processName,Process1
;   applyToModels,hosenrohr_ov_h80
;   profileName,Default (modified)
;   profileVersion,2015-05-01 08:00:00
;   baseProfile,
;   printMaterial,PLA
;   printQuality,High
;   printExtruders,
;   extruderName,Primary Extruder
;   extruderToolheadNumber,0
;   extruderDiameter,2.4
;   extruderAutoWidth,1
;   extruderWidth,2.88
;   extrusionMultiplier,0.9
;   extruderUseRetract,0
;   extruderRetractionDistance,1
;   extruderExtraRestartDistance,0
;   extruderRetractionZLift,0
;   extruderRetractionSpeed,1800
;   extruderUseCoasting,0
;   extruderCoastingDistance,0.2
;   extruderUseWipe,0
;   extruderWipeDistance,5
;   primaryExtruder,0
;   layerHeight,0.61
;   topSolidLayers,0
;   bottomSolidLayers,0
;   perimeterOutlines,1
;   printPerimetersInsideOut,1
;   startPointOption,2
;   startPointOriginX,0
;   startPointOriginY,0
;   startPointOriginZ,300
;   sequentialIslands,0
;   spiralVaseMode,1
;   firstLayerHeightPercentage,150
;   firstLayerWidthPercentage,100
;   firstLayerUnderspeed,1
;   useRaft,0
;   raftExtruder,0
;   raftLayers,3
;   raftOffset,3
;   raftSeparationDistance,0.14
;   raftInfill,85
;   disableRaftBaseLayers,0
;   useSkirt,0
;   skirtExtruder,0
;   skirtLayers,2
;   skirtOutlines,2
;   skirtOffset,4
;   usePrimePillar,0
;   primePillarExtruder,999
;   primePillarWidth,12
;   primePillarLocation,7
;   primePillarSpeedMultiplier,1
;   useOozeShield,0
;   oozeShieldExtruder,999
;   oozeShieldOffset,2
;   oozeShieldOutlines,1
;   oozeShieldSidewallShape,1
;   oozeShieldSidewallAngle,30
;   oozeShieldSpeedMultiplier,1
;   infillExtruder,0
;   internalInfillPattern,Rectilinear
;   externalInfillPattern,Rectilinear
;   infillPercentage,0
;   outlineOverlapPercentage,0
;   infillExtrusionWidthPercentage,100
;   minInfillLength,5
;   infillLayerInterval,1
;   infillAngles,0
;   overlapInfillAngles,0
;   generateSupport,0
;   supportExtruder,0
;   supportInfillPercentage,40
;   supportExtraInflation,0
;   denseSupportLayers,0
;   denseSupportInfillPercentage,70
;   supportLayerInterval,1
;   supportHorizontalPartOffset,0.3
;   supportUpperSeparationLayers,1
;   supportLowerSeparationLayers,1
;   supportType,0
;   supportGridSpacing,4
;   maxOverhangAngle,45
;   supportAngles,0
;   temperatureName,Primary Extruder
;   temperatureNumber,0
;   temperatureSetpointCount,1
;   temperatureSetpointLayers,1
;   temperatureSetpointTemperatures,0
;   temperatureStabilizeAtStartup,1
;   temperatureHeatedBed,0
;   temperatureRelayBetweenLayers,0
;   temperatureRelayBetweenLoops,0
;   fanLayers,1,2
;   fanSpeeds,0,100
;   blipFanToFullPower,0
;   adjustSpeedForCooling,0
;   minSpeedLayerTime,15
;   minCoolingSpeedSlowdown,20
;   increaseFanForCooling,0
;   minFanLayerTime,45
;   maxCoolingFanSpeed,100
;   increaseFanForBridging,0
;   bridgingFanSpeed,100
;   use5D,1
;   relativeEdistances,0
;   allowEaxisZeroing,1
;   independentExtruderAxes,0
;   includeM10123,0
;   stickySupport,1
;   applyToolheadOffsets,0
;   gcodeXoffset,0
;   gcodeYoffset,0
;   gcodeZoffset,0
;   overrideMachineDefinition,0
;   machineTypeOverride,0
;   strokeXoverride,200
;   strokeYoverride,200
;   strokeZoverride,200
;   originOffsetXoverride,0
;   originOffsetYoverride,0
;   originOffsetZoverride,0
;   homeXdirOverride,-1
;   homeYdirOverride,-1
;   homeZdirOverride,-1
;   flipXoverride,1
;   flipYoverride,-1
;   flipZoverride,1
;   toolheadOffsets,0,0|0,0|0,0|0,0|0,0|0,0
;   overrideFirmwareConfiguration,0
;   firmwareTypeOverride,RepRap (Marlin/Repetier/Sprinter)
;   GPXconfigOverride,r2
;   baudRateOverride,115200
;   overridePrinterModels,0
;   printerModelsOverride
;   startingGcode,##Start
;   layerChangeGcode,#LayerChange
;   retractionGcode,#Retraction
;   toolChangeGcode,
;   endingGcode,##End
;   exportFileFormat,gcode
;   celebration,0
;   celebrationSong,Random Song
;   postProcessing,
;   defaultSpeed,600
;   outlineUnderspeed,1
;   solidInfillUnderspeed,0.8
;   supportUnderspeed,0.8
;   rapidXYspeed,4800
;   rapidZspeed,1000
;   minBridgingArea,40
;   bridgingExtraInflation,1
;   bridgingExtrusionMultiplier,1
;   bridgingSpeedMultiplier,1
;   filamentDiameter,1.75
;   filamentPricePerKg,46
;   filamentDensity,1.25
;   useMinPrintHeight,0
;   minPrintHeight,0
;   useMaxPrintHeight,0
;   maxPrintHeight,0
;   useDiaphragm,0
;   diaphragmLayerInterval,20
;   robustSlicing,0
;   mergeAllIntoSolid,1
;   onlyRetractWhenCrossingOutline,1
;   retractBetweenLayers,0
;   useRetractionMinTravel,0
;   retractionMinTravel,3
;   retractWhileWiping,0
;   onlyWipeOutlines,1
;   avoidCrossingOutline,0
;   maxMovementDetourFactor,3
;   toolChangeRetractionDistance,0
;   toolChangeExtraRestartDistance,0
;   toolChangeRetractionSpeed,600
;   allowThinWallGapFill,0
;   thinWallAllowedOverlapPercentage,0
;   horizontalSizeCompensation,0
G90
M82
M106 S0
M104 S0 T0
##Start
G92 E0
#Retraction
G1 E-1.0000 F1800
G1 Z0.000 F1000
; layer 1, Z = 0.915
#LayerChange
T0
; tool H0.915 W2.880
; outer perimeter
G1 X-1.621 Y0.568 F4800
G1 E0.0000 F540
G92 E0
G1 X-2.739 Y0.824 Z0.000 E0.5677 F600
G1 X-3.104 Y1.033 Z0.004 E0.7766
G1 X-3.825 Y1.631 Z0.006 E1.2433
G1 X-4.095 Y1.948 Z0.009 E1.4510
G1 X-4.477 Y2.812 Z0.011 E1.9241
G1 X-6.542 Y8.483 Z0.014 E5.0195
G1 X-6.656 Y8.860 Z0.037 E5.2215
G1 X-6.677 Y8.904 Z0.038 E5.2467
G1 X-10.354 Y13.473 Z0.039 E8.3289
G1 X-10.502 Y13.689 Z0.060 E8.4667
G1 X-10.528 Y13.715 Z0.061 E8.4861
G1 X-15.483 Y16.854 Z0.061 E11.6412
G1 X-15.694 Y17.011 Z0.083 E11.7826
G1 X-15.726 Y17.028 Z0.084 E11.8020
G1 X-21.429 Y18.400 Z0.084 E15.0298
G1 X-21.680 Y18.481 Z0.106 E15.1749
G1 X-21.714 Y18.486 Z0.107 E15.1944
G1 X-27.555 Y17.945 Z0.107 E18.4948
G1 X-27.820 Y17.941 Z0.129 E18.6437
G1 X-27.854 Y17.935 Z0.130 E18.6631
G1 X-33.208 Y15.538 Z0.130 E22.0362
G1 X-33.458 Y15.449 Z0.152 E22.1888
G1 X-33.487 Y15.433 Z0.153 E22.2082
G1 X-37.782 Y11.437 Z0.153 E25.6540
G1 X-37.990 Y11.272 Z0.175 E25.8103
G1 X-38.012 Y11.247 Z0.176 E25.8296
G1 X-40.788 Y6.079 Z0.176 E29.3479
G1 X-40.932 Y5.855 Z0.198 E29.5081
G1 X-40.945 Y5.826 Z0.199 E29.5273
G1 X-41.904 Y0.038 Z0.199 E33.1181
G1 X-41.969 Y-0.221 Z0.221 E33.2821
G1 X-41.972 Y-0.252 Z0.222 E33.3011
G1 X-41.012 Y-6.039 Z0.222 E36.9645
G1 X-40.991 Y-6.307 Z0.244 E37.1324
G1 X-40.968 Y-6.395 Z0.245 E37.1893
G1 X-40.909 Y-6.532 Z0.245 E37.2824
G1 X-38.133 Y-11.701 Z0.246 E41.0214
G1 X-38.051 Y-11.828 Z0.268 E41.1180
G1 X-37.952 Y-11.938 Z0.268 E41.2125
G1 X-33.656 Y-15.934 Z0.269 E45.0241
G1 X-33.537 Y-16.029 Z0.291 E45.1231
G1 X-33.408 Y-16.100 Z0.291 E45.2188
G1 X-28.053 Y-18.497 Z0.292 E49.1029
G1 X-27.909 Y-18.549 Z0.314 E49.2043
G1 X-27.765 Y-18.575 Z0.314 E49.3014
G1 X-21.923 Y-19.116 Z0.315 E53.2580
G1 X-21.770 Y-19.118 Z0.337 E53.3618
G1 X-21.626 Y-19.097 Z0.337 E53.4601
G1 X-15.922 Y-17.724 Z0.338 E57.4890
G1 X-15.775 Y-17.677 Z0.360 E57.5954
G1 X-15.646 Y-17.610 Z0.360 E57.6949
G1 X-10.691 Y-14.471 Z0.361 E61.7961
G1 X-10.566 Y-14.378 Z0.383 E61.9050
G1 X-10.466 Y-14.275 Z0.383 E62.0057
G1 X-6.788 Y-9.705 Z0.384 E66.1792
G1 X-6.699 Y-9.576 Z0.406 E66.2906
G1 X-6.638 Y-9.447 Z0.406 E66.3926
G1 X-4.634 Y-3.945 Z0.407 E70.6310
G1 X-4.529 Y-3.569 Z0.428 E70.9143
G1 X-4.098 Y-2.576 Z0.430 E71.7012
G1 X-3.825 Y-2.255 Z0.434 E72.0075
G1 X-3.104 Y-1.657 Z0.436 E72.6912
G1 X-2.739 Y-1.448 Z0.439 E72.9987
G1 X-1.621 Y-1.192 Z0.441 E73.8384
G1 X1.778 Y-1.192 Z0.445 E76.3524
G1 X2.895 Y-1.448 Z0.457 E77.2026
G1 X3.261 Y-1.657 Z0.462 E77.5153
G1 X3.982 Y-2.255 Z0.463 E78.2130
G1 X4.252 Y-2.572 Z0.467 E78.5234
G1 X4.634 Y-3.436 Z0.468 E79.2294
G1 X6.699 Y-9.107 Z0.472 E83.8125
G1 X6.813 Y-9.484 Z0.494 E84.1115
G1 X6.834 Y-9.528 Z0.496 E84.1488
G1 X10.510 Y-14.097 Z0.496 E88.6768
G1 X10.659 Y-14.313 Z0.518 E88.8791
G1 X10.685 Y-14.339 Z0.519 E88.9076
G1 X15.640 Y-17.478 Z0.519 E93.5085
G1 X15.851 Y-17.635 Z0.541 E93.7147
G1 X15.883 Y-17.652 Z0.542 E93.7430
G1 X21.586 Y-19.024 Z0.542 E98.4167
G1 X21.836 Y-19.105 Z0.564 E98.6268
G1 X21.871 Y-19.110 Z0.565 E98.6549
G1 X27.712 Y-18.569 Z0.565 E103.4014
G1 X27.976 Y-18.565 Z0.587 E103.6154
G1 X28.010 Y-18.559 Z0.588 E103.6434
G1 X33.365 Y-16.162 Z0.588 E108.4625
G1 X33.614 Y-16.073 Z0.610 E108.6805
G1 X33.644 Y-16.057 Z0.611 E108.7081
G1 X37.938 Y-12.061 Z0.611 E113.6000
G1 X38.147 Y-11.895 Z0.633 E113.8219
G1 X38.169 Y-11.871 Z0.634 E113.8493
G1 X40.944 Y-6.703 Z0.634 E118.8137
G1 X41.089 Y-6.479 Z0.656 E119.0397
G1 X41.102 Y-6.450 Z0.657 E119.0666
G1 X42.061 Y-0.662 Z0.657 E124.1036
G1 X42.126 Y-0.403 Z0.679 E124.3336
G1 X42.129 Y-0.372 Z0.680 E124.3602
G1 X41.169 Y5.415 Z0.680 E129.4697
G1 X41.147 Y5.683 Z0.702 E129.7037
G1 X41.125 Y5.771 Z0.703 E129.7830
G1 X41.066 Y5.908 Z0.703 E129.9129
G1 X38.290 Y11.077 Z0.703 E135.0982
G1 X38.208 Y11.204 Z0.725 E135.2321
G1 X38.108 Y11.314 Z0.726 E135.3631
G1 X33.813 Y15.310 Z0.726 E140.6209
G1 X33.694 Y15.405 Z0.748 E140.7575
G1 X33.565 Y15.476 Z0.749 E140.8894
G1 X28.210 Y17.873 Z0.749 E146.2199
G1 X28.066 Y17.925 Z0.771 E146.3591
G1 X27.922 Y17.951 Z0.772 E146.4921
G1 X22.080 Y18.492 Z0.772 E151.8949
G1 X21.926 Y18.494 Z0.794 E152.0367
G1 X21.782 Y18.473 Z0.795 E152.1708
G1 X16.079 Y17.100 Z0.795 E157.6460
G1 X15.931 Y17.053 Z0.817 E157.7905
G1 X15.803 Y16.986 Z0.818 E157.9256
G1 X10.847 Y13.847 Z0.818 E163.4729
G1 X10.722 Y13.754 Z0.840 E163.6202
G1 X10.622 Y13.651 Z0.841 E163.7564
G1 X6.945 Y9.081 Z0.841 E169.3758
G1 X6.856 Y8.952 Z0.863 E169.5256
G1 X6.795 Y8.823 Z0.864 E169.6630
G1 X4.791 Y3.321 Z0.864 E175.3448
G1 X4.686 Y2.945 Z0.886 E175.7244
G1 X4.255 Y1.952 Z0.887 E176.7782
G1 X3.982 Y1.631 Z0.891 E177.1883
G1 X3.261 Y1.033 Z0.893 E178.1029
G1 X2.895 Y0.824 Z0.897 E178.5142
G1 X1.778 Y0.568 Z0.898 E179.6365
G1 X-1.621 Y0.568 Z0.902 E182.9886
; layer 2, Z = 1.525
M106 S255
#LayerChange
; tool H0.610 W2.880
; outer perimeter
G92 E0
G1 X-2.689 Y0.801 Z0.915 E0.7184 F600
G1 X-3.181 Y1.083 Z0.918 E1.0907
G1 X-3.762 Y1.565 Z0.919 E1.5872
G1 X-4.129 Y1.996 Z0.921 E1.9594
G1 X-4.510 Y2.901 Z0.922 E2.6049
G1 X-5.965 Y6.895 Z0.925 E5.3992
G1 X-6.225 Y7.635 Z0.935 E5.9149
G1 X-6.443 Y8.403 Z0.937 E6.4397
G1 X-6.692 Y8.931 Z0.939 E6.8231
G1 X-9.685 Y12.650 Z0.941 E9.9613
G1 X-10.144 Y13.314 Z0.953 E10.4920
G1 X-10.548 Y13.733 Z0.955 E10.8749
G1 X-14.582 Y16.288 Z0.956 E14.0133
G1 X-15.230 Y16.770 Z0.968 E14.5445
G1 X-15.747 Y17.037 Z0.970 E14.9269
G1 X-20.390 Y18.154 Z0.971 E18.0655
G1 X-21.159 Y18.402 Z0.983 E18.5973
G1 X-21.734 Y18.488 Z0.985 E18.9790
G1 X-26.488 Y18.047 Z0.987 E22.1179
G1 X-27.298 Y18.035 Z0.999 E22.6501
G1 X-27.869 Y17.931 Z1.001 E23.0314
G1 X-32.227 Y15.980 Z1.002 E26.1703
G1 X-32.990 Y15.708 Z1.014 E26.7031
G1 X-33.497 Y15.426 Z1.016 E27.0838
G1 X-36.993 Y12.174 Z1.017 E30.2228
G1 X-37.628 Y11.669 Z1.029 E30.7562
G1 X-38.017 Y11.241 Z1.031 E31.1363
G1 X-40.276 Y7.034 Z1.033 E34.2752
G1 X-40.716 Y6.352 Z1.044 E34.8092
G1 X-40.946 Y5.822 Z1.046 E35.1887
G1 X-41.727 Y1.111 Z1.048 E38.3276
G1 X-41.925 Y0.322 Z1.060 E38.8622
G1 X-41.972 Y-0.252 Z1.062 E39.2411
G1 X-41.191 Y-4.963 Z1.063 E42.3800
G1 X-41.124 Y-5.774 Z1.075 E42.9151
G1 X-40.970 Y-6.392 Z1.077 E43.3334
G1 X-40.693 Y-7.029 Z1.079 E43.7899
G1 X-38.434 Y-11.236 Z1.080 E46.9294
G1 X-38.056 Y-11.822 Z1.092 E47.3875
G1 X-37.590 Y-12.336 Z1.094 E47.8434
G1 X-34.094 Y-15.589 Z1.096 E50.9829
G1 X-33.547 Y-16.023 Z1.107 E51.4416
G1 X-32.941 Y-16.359 Z1.109 E51.8969
G1 X-28.582 Y-18.310 Z1.111 E55.0363
G1 X-27.924 Y-18.545 Z1.123 E55.4955
G1 X-27.244 Y-18.668 Z1.124 E55.9502
G1 X-22.488 Y-19.109 Z1.126 E59.0897
G1 X-21.789 Y-19.120 Z1.138 E59.5494
G1 X-21.106 Y-19.018 Z1.140 E60.0036
G1 X-16.463 Y-17.900 Z1.142 E63.1428
G1 X-15.796 Y-17.686 Z1.153 E63.6031
G1 X-15.182 Y-17.370 Z1.155 E64.0568
G1 X-11.149 Y-14.814 Z1.157 E67.1956
G1 X-10.586 Y-14.396 Z1.169 E67.6566
G1 X-10.107 Y-13.900 Z1.170 E68.1098
G1 X-7.114 Y-10.181 Z1.172 E71.2484
G1 X-6.715 Y-9.603 Z1.184 E71.7098
G1 X-6.421 Y-8.980 Z1.186 E72.1626
G1 X-4.790 Y-4.502 Z1.187 E75.2952
G1 X-4.532 Y-3.577 Z1.199 E75.9270
G1 X-4.129 Y-2.620 Z1.202 E76.6092
G1 X-3.762 Y-2.189 Z1.204 E76.9814
G1 X-3.181 Y-1.707 Z1.206 E77.4778
G1 X-2.689 Y-1.425 Z1.207 E77.8501
G1 X-1.613 Y-1.192 Z1.209 E78.5739
G1 X1.770 Y-1.192 Z1.212 E80.7977
G1 X2.846 Y-1.425 Z1.220 E81.5214
G1 X3.338 Y-1.707 Z1.223 E81.8938
G1 X3.919 Y-2.189 Z1.224 E82.3902
G1 X4.285 Y-2.620 Z1.226 E82.7624
G1 X4.667 Y-3.525 Z1.227 E83.4081
G1 X6.251 Y-7.882 Z1.230 E86.4553
G1 X6.383 Y-8.264 Z1.241 E86.7209
G1 X6.600 Y-9.027 Z1.242 E87.2427
G1 X6.849 Y-9.555 Z1.244 E87.6261
G1 X9.842 Y-13.274 Z1.246 E90.7643
G1 X10.301 Y-13.938 Z1.258 E91.2950
G1 X10.705 Y-14.357 Z1.260 E91.6779
G1 X14.738 Y-16.912 Z1.261 E94.8163
G1 X15.387 Y-17.394 Z1.273 E95.3476
G1 X15.904 Y-17.661 Z1.275 E95.7299
G1 X20.546 Y-18.778 Z1.276 E98.8686
G1 X21.316 Y-19.026 Z1.288 E99.4003
G1 X21.891 Y-19.112 Z1.290 E99.7821
G1 X26.645 Y-18.671 Z1.292 E102.9209
G1 X27.455 Y-18.659 Z1.304 E103.4532
G1 X28.026 Y-18.555 Z1.306 E103.8344
G1 X32.384 Y-16.604 Z1.307 E106.9733
G1 X33.147 Y-16.331 Z1.319 E107.5062
G1 X33.654 Y-16.050 Z1.321 E107.8868
G1 X37.149 Y-12.798 Z1.322 E111.0258
G1 X37.785 Y-12.293 Z1.334 E111.5592
G1 X38.174 Y-11.865 Z1.336 E111.9393
G1 X40.433 Y-7.658 Z1.338 E115.0783
G1 X40.873 Y-6.976 Z1.349 E115.6122
G1 X41.103 Y-6.446 Z1.351 E115.9917
G1 X41.884 Y-1.735 Z1.353 E119.1307
G1 X42.082 Y-0.946 Z1.365 E119.6652
G1 X42.129 Y-0.372 Z1.367 E120.0441
G1 X41.348 Y4.339 Z1.368 E123.1830
G1 X41.281 Y5.150 Z1.380 E123.7181
G1 X41.126 Y5.768 Z1.382 E124.1365
G1 X40.850 Y6.405 Z1.384 E124.5929
G1 X38.591 Y10.612 Z1.385 E127.7324
G1 X38.213 Y11.198 Z1.397 E128.1906
G1 X37.747 Y11.712 Z1.399 E128.6464
G1 X34.250 Y14.965 Z1.401 E131.7859
G1 X33.704 Y15.399 Z1.412 E132.2446
G1 X33.098 Y15.735 Z1.414 E132.7000
G1 X28.739 Y17.686 Z1.416 E135.8393
G1 X28.081 Y17.921 Z1.428 E136.2985
G1 X27.400 Y18.044 Z1.429 E136.7533
G1 X22.645 Y18.485 Z1.431 E139.8927
G1 X21.946 Y18.496 Z1.443 E140.3524
G1 X21.262 Y18.394 Z1.445 E140.8066
G1 X16.619 Y17.276 Z1.447 E143.9458
G1 X15.953 Y17.062 Z1.458 E144.4061
G1 X15.339 Y16.746 Z1.460 E144.8598
G1 X11.306 Y14.190 Z1.462 E147.9987
G1 X10.743 Y13.772 Z1.474 E148.4596
G1 X10.264 Y13.276 Z1.475 E148.9127
G1 X7.270 Y9.557 Z1.477 E152.0515
G1 X6.871 Y8.979 Z1.489 E152.5128
G1 X6.578 Y8.356 Z1.491 E152.9656
G1 X4.947 Y3.878 Z1.492 E156.0983
G1 X4.688 Y2.953 Z1.504 E156.7300
G1 X4.285 Y1.996 Z1.507 E157.4122
G1 X3.919 Y1.565 Z1.509 E157.7844
G1 X3.337 Y1.083 Z1.511 E158.2809
G1 X2.846 Y0.801 Z1.512 E158.6532
G1 X1.770 Y0.568 Z1.514 E159.3769
G1 X-1.613 Y0.568 Z1.517 E161.6008
; layer 3, Z = 2.135
#LayerChange
; outer perimeter
G92 E0
G1 X-2.649 Y0.783 Z1.525 E0.6953 F600
G1 X-3.242 Y1.123 Z1.528 E1.1446
G1 X-3.711 Y1.512 Z1.529 E1.5454
G1 X-4.141 Y2.017 Z1.531 E1.9812
G1 X-4.390 Y2.581 Z1.532 E2.3865
G1 X-5.550 Y5.756 Z1.534 E4.6086
G1 X-5.931 Y6.842 Z1.542 E5.3655
G1 X-6.269 Y8.030 Z1.545 E6.1772
G1 X-6.704 Y8.952 Z1.548 E6.8474
G1 X-9.150 Y11.992 Z1.551 E9.4120
G1 X-9.857 Y13.015 Z1.561 E10.2295
G1 X-10.565 Y13.748 Z1.564 E10.8992
G1 X-13.861 Y15.836 Z1.566 E13.4640
G1 X-14.859 Y16.578 Z1.576 E14.2820
G1 X-15.765 Y17.044 Z1.579 E14.9512
G1 X-19.558 Y17.957 Z1.581 E17.5161
G1 X-20.743 Y18.339 Z1.591 E18.3347
G1 X-21.749 Y18.489 Z1.594 E19.0033
G1 X-25.635 Y18.129 Z1.597 E21.5684
G1 X-26.881 Y18.109 Z1.606 E22.3875
G1 X-27.881 Y17.928 Z1.609 E23.0556
G1 X-31.443 Y16.334 Z1.612 E25.6207
G1 X-32.617 Y15.914 Z1.622 E26.4404
G1 X-33.505 Y15.421 Z1.625 E27.1079
G1 X-36.361 Y12.763 Z1.627 E29.6731
G1 X-37.339 Y11.988 Z1.637 E30.4933
G1 X-38.021 Y11.236 Z1.640 E31.1602
G1 X-39.867 Y7.798 Z1.643 E33.7254
G1 X-40.544 Y6.749 Z1.652 E34.5462
G1 X-40.947 Y5.819 Z1.655 E35.2126
G1 X-41.585 Y1.969 Z1.658 E37.7777
G1 X-41.889 Y0.757 Z1.668 E38.5991
G1 X-41.972 Y-0.252 Z1.671 E39.2649
G1 X-41.334 Y-4.102 Z1.673 E41.8300
G1 X-41.231 Y-5.348 Z1.683 E42.6519
G1 X-40.971 Y-6.389 Z1.686 E43.3571
G1 X-40.521 Y-7.426 Z1.689 E44.1005
G1 X-38.674 Y-10.865 Z1.691 E46.6661
G1 X-38.060 Y-11.817 Z1.701 E47.4111
