; G-Code generated by Simplify3D(R) Version 3.1.1
; Mar 11, 2019 at 3:12:05 PM
; Settings Summary
;   processName,Process1
;   applyToModels,hs_ov_h80_gutr
;   profileName,Default (modified)
;   profileVersion,2015-05-01 08:00:00
;   baseProfile,
;   printMaterial,PLA
;   printQuality,High
;   printExtruders,
;   extruderName,Primary Extruder
;   extruderToolheadNumber,0
;   extruderDiameter,4
;   extruderAutoWidth,1
;   extruderWidth,4.8
;   extrusionMultiplier,0.9
;   extruderUseRetract,0
;   extruderRetractionDistance,1
;   extruderExtraRestartDistance,0
;   extruderRetractionZLift,0
;   extruderRetractionSpeed,1800
;   extruderUseCoasting,0
;   extruderCoastingDistance,0.2
;   extruderUseWipe,0
;   extruderWipeDistance,5
;   primaryExtruder,0
;   layerHeight,1.3
;   topSolidLayers,0
;   bottomSolidLayers,0
;   perimeterOutlines,1
;   printPerimetersInsideOut,1
;   startPointOption,2
;   startPointOriginX,0
;   startPointOriginY,0
;   startPointOriginZ,300
;   sequentialIslands,0
;   spiralVaseMode,1
;   firstLayerHeightPercentage,115
;   firstLayerWidthPercentage,100
;   firstLayerUnderspeed,1
;   useRaft,0
;   raftExtruder,0
;   raftLayers,3
;   raftOffset,3
;   raftSeparationDistance,0.14
;   raftInfill,85
;   disableRaftBaseLayers,0
;   useSkirt,0
;   skirtExtruder,0
;   skirtLayers,2
;   skirtOutlines,2
;   skirtOffset,4
;   usePrimePillar,0
;   primePillarExtruder,999
;   primePillarWidth,12
;   primePillarLocation,7
;   primePillarSpeedMultiplier,1
;   useOozeShield,0
;   oozeShieldExtruder,999
;   oozeShieldOffset,2
;   oozeShieldOutlines,1
;   oozeShieldSidewallShape,1
;   oozeShieldSidewallAngle,30
;   oozeShieldSpeedMultiplier,1
;   infillExtruder,0
;   internalInfillPattern,Rectilinear
;   externalInfillPattern,Rectilinear
;   infillPercentage,0
;   outlineOverlapPercentage,0
;   infillExtrusionWidthPercentage,100
;   minInfillLength,5
;   infillLayerInterval,1
;   infillAngles,0
;   overlapInfillAngles,0
;   generateSupport,0
;   supportExtruder,0
;   supportInfillPercentage,40
;   supportExtraInflation,0
;   denseSupportLayers,0
;   denseSupportInfillPercentage,70
;   supportLayerInterval,1
;   supportHorizontalPartOffset,0.3
;   supportUpperSeparationLayers,1
;   supportLowerSeparationLayers,1
;   supportType,0
;   supportGridSpacing,4
;   maxOverhangAngle,45
;   supportAngles,0
;   temperatureName,Primary Extruder
;   temperatureNumber,0
;   temperatureSetpointCount,1
;   temperatureSetpointLayers,1
;   temperatureSetpointTemperatures,0
;   temperatureStabilizeAtStartup,1
;   temperatureHeatedBed,0
;   temperatureRelayBetweenLayers,0
;   temperatureRelayBetweenLoops,0
;   fanLayers,1,2
;   fanSpeeds,0,100
;   blipFanToFullPower,0
;   adjustSpeedForCooling,0
;   minSpeedLayerTime,15
;   minCoolingSpeedSlowdown,20
;   increaseFanForCooling,0
;   minFanLayerTime,45
;   maxCoolingFanSpeed,100
;   increaseFanForBridging,0
;   bridgingFanSpeed,100
;   use5D,1
;   relativeEdistances,0
;   allowEaxisZeroing,1
;   independentExtruderAxes,0
;   includeM10123,0
;   stickySupport,1
;   applyToolheadOffsets,0
;   gcodeXoffset,0
;   gcodeYoffset,0
;   gcodeZoffset,0
;   overrideMachineDefinition,0
;   machineTypeOverride,0
;   strokeXoverride,200
;   strokeYoverride,200
;   strokeZoverride,200
;   originOffsetXoverride,0
;   originOffsetYoverride,0
;   originOffsetZoverride,0
;   homeXdirOverride,-1
;   homeYdirOverride,-1
;   homeZdirOverride,-1
;   flipXoverride,1
;   flipYoverride,-1
;   flipZoverride,1
;   toolheadOffsets,0,0|0,0|0,0|0,0|0,0|0,0
;   overrideFirmwareConfiguration,0
;   firmwareTypeOverride,RepRap (Marlin/Repetier/Sprinter)
;   GPXconfigOverride,r2
;   baudRateOverride,115200
;   overridePrinterModels,0
;   printerModelsOverride
;   startingGcode,##Start
;   layerChangeGcode,#LayerChange
;   retractionGcode,#Retraction
;   toolChangeGcode,
;   endingGcode,##End
;   exportFileFormat,gcode
;   celebration,0
;   celebrationSong,Random Song
;   postProcessing,
;   defaultSpeed,600
;   outlineUnderspeed,1
;   solidInfillUnderspeed,0.8
;   supportUnderspeed,0.8
;   rapidXYspeed,4800
;   rapidZspeed,1000
;   minBridgingArea,40
;   bridgingExtraInflation,1
;   bridgingExtrusionMultiplier,1
;   bridgingSpeedMultiplier,1
;   filamentDiameter,1.75
;   filamentPricePerKg,46
;   filamentDensity,1.25
;   useMinPrintHeight,0
;   minPrintHeight,0
;   useMaxPrintHeight,0
;   maxPrintHeight,0
;   useDiaphragm,0
;   diaphragmLayerInterval,20
;   robustSlicing,0
;   mergeAllIntoSolid,1
;   onlyRetractWhenCrossingOutline,1
;   retractBetweenLayers,0
;   useRetractionMinTravel,0
;   retractionMinTravel,3
;   retractWhileWiping,0
;   onlyWipeOutlines,1
;   avoidCrossingOutline,0
;   maxMovementDetourFactor,3
;   toolChangeRetractionDistance,0
;   toolChangeExtraRestartDistance,0
;   toolChangeRetractionSpeed,600
;   allowThinWallGapFill,0
;   thinWallAllowedOverlapPercentage,0
;   horizontalSizeCompensation,0
G90
M82
M106 S0
M104 S0 T0
##Start
G92 E0
#Retraction
G1 E-1.0000 F1800
G1 Z0.000 F1000
; layer 1, Z = 1.495
#LayerChange
T0
; tool H1.495 W4.800
; outer perimeter
G1 X2.077 Y1.178 F4800
G1 E0.0000 F540
G92 E0
G1 X-2.557 Y1.178 Z0.000 E6.3437 F600
G1 X-4.760 Y1.925 Z0.030 E9.5603
G1 X-5.957 Y3.712 Z0.044 E12.5596
G1 X-7.859 Y8.118 Z0.058 E19.3838
G1 X-8.020 Y8.503 Z0.089 E19.9783
G1 X-8.141 Y8.842 Z0.091 E20.4922
G1 X-8.162 Y8.883 Z0.094 E20.5575
G1 X-11.179 Y12.501 Z0.094 E27.4060
G1 X-11.400 Y12.803 Z0.124 E27.9506
G1 X-11.431 Y12.835 Z0.126 E28.0156
G1 X-15.350 Y15.448 Z0.127 E35.0015
G1 X-15.648 Y15.676 Z0.157 E35.5584
G1 X-15.686 Y15.697 Z0.159 E35.6235
G1 X-20.186 Y17.090 Z0.159 E42.7485
G1 X-20.537 Y17.225 Z0.189 E43.3178
G1 X-20.579 Y17.235 Z0.192 E43.3825
G1 X-25.291 Y17.293 Z0.192 E50.6486
G1 X-25.667 Y17.323 Z0.222 E51.2303
G1 X-25.709 Y17.320 Z0.224 E51.2947
G1 X-30.244 Y16.038 Z0.225 E58.6991
G1 X-30.614 Y15.960 Z0.255 E59.2937
G1 X-30.652 Y15.946 Z0.257 E59.3577
G1 X-34.635 Y13.430 Z0.257 E66.8978
G1 X-34.968 Y13.250 Z0.287 E67.5053
G1 X-35.000 Y13.227 Z0.290 E67.5689
G1 X-38.105 Y9.684 Z0.290 E75.2465
G1 X-38.375 Y9.416 Z0.320 E75.8665
G1 X-38.398 Y9.386 Z0.322 E75.9298
G1 X-40.370 Y5.107 Z0.323 E83.7467
G1 X-40.554 Y4.773 Z0.353 E84.3794
G1 X-40.567 Y4.738 Z0.355 E84.4421
G1 X-41.243 Y0.073 Z0.355 E92.4003
G1 X-41.325 Y-0.300 Z0.385 E93.0460
G1 X-41.327 Y-0.336 Z0.388 E93.1078
G1 X-40.651 Y-5.001 Z0.388 E101.2043
G1 X-40.624 Y-5.383 Z0.418 E101.8633
G1 X-40.597 Y-5.504 Z0.420 E102.0764
G1 X-40.524 Y-5.699 Z0.421 E102.4357
G1 X-38.552 Y-9.979 Z0.422 E110.6769
G1 X-38.450 Y-10.165 Z0.452 E111.0478
G1 X-38.325 Y-10.331 Z0.454 E111.4114
G1 X-35.219 Y-13.874 Z0.455 E119.7898
G1 X-35.068 Y-14.024 Z0.485 E120.1686
G1 X-34.902 Y-14.147 Z0.487 E120.5366
G1 X-30.918 Y-16.664 Z0.488 E129.0543
G1 X-30.730 Y-16.765 Z0.518 E129.4408
G1 X-30.537 Y-16.836 Z0.519 E129.8129
G1 X-26.001 Y-18.118 Z0.521 E138.4720
G1 X-25.791 Y-18.162 Z0.551 E138.8666
G1 X-25.587 Y-18.175 Z0.552 E139.2429
G1 X-20.873 Y-18.117 Z0.553 E148.0400
G1 X-20.658 Y-18.100 Z0.583 E148.4431
G1 X-20.460 Y-18.055 Z0.585 E148.8234
G1 X-15.959 Y-16.661 Z0.586 E157.7552
G1 X-15.756 Y-16.583 Z0.616 E158.1669
G1 X-15.579 Y-16.484 Z0.617 E158.5516
G1 X-11.659 Y-13.871 Z0.619 E167.6205
G1 X-11.486 Y-13.739 Z0.649 E168.0401
G1 X-11.345 Y-13.595 Z0.650 E168.4289
G1 X-8.328 Y-9.976 Z0.651 E177.6370
G1 X-8.199 Y-9.799 Z0.681 E178.0649
G1 X-8.105 Y-9.621 Z0.683 E178.4583
G1 X-6.242 Y-5.303 Z0.684 E187.7874
G1 X-6.003 Y-4.628 Z0.714 E189.2108
G1 X-4.760 Y-2.773 Z0.718 E193.6783
G1 X-2.557 Y-2.026 Z0.733 E198.3642
G1 X2.077 Y-2.026 Z0.747 E207.8184
G1 X4.281 Y-2.773 Z0.777 E212.5971
G1 X5.478 Y-4.559 Z0.792 E217.0401
G1 X7.379 Y-8.965 Z0.806 E227.0852
G1 X7.540 Y-9.350 Z0.836 E227.9599
G1 X7.661 Y-9.690 Z0.839 E228.7158
G1 X7.683 Y-9.730 Z0.841 E228.8116
G1 X10.700 Y-13.348 Z0.841 E238.8225
G1 X10.920 Y-13.650 Z0.871 E239.6180
G1 X10.951 Y-13.682 Z0.874 E239.7133
G1 X14.871 Y-16.295 Z0.874 E249.8611
G1 X15.168 Y-16.523 Z0.904 E250.6697
G1 X15.207 Y-16.544 Z0.906 E250.7641
G1 X19.707 Y-17.938 Z0.907 E261.0516
G1 X20.058 Y-18.072 Z0.937 E261.8730
G1 X20.099 Y-18.082 Z0.939 E261.9666
G1 X24.812 Y-18.140 Z0.939 E272.3961
G1 X25.187 Y-18.170 Z0.969 E273.2309
G1 X25.229 Y-18.168 Z0.972 E273.3232
G1 X29.764 Y-16.885 Z0.972 E283.8911
G1 X30.134 Y-16.808 Z1.002 E284.7394
G1 X30.172 Y-16.794 Z1.004 E284.8308
G1 X34.155 Y-14.277 Z1.005 E295.5335
G1 X34.489 Y-14.098 Z1.035 E296.3953
G1 X34.521 Y-14.074 Z1.037 E296.4855
G1 X37.626 Y-10.531 Z1.037 E307.3253
G1 X37.895 Y-10.264 Z1.067 E308.2004
G1 X37.919 Y-10.233 Z1.070 E308.2895
G1 X39.891 Y-5.954 Z1.070 E319.2691
G1 X40.074 Y-5.620 Z1.100 E320.1576
G1 X40.087 Y-5.585 Z1.102 E320.2456
G1 X40.764 Y-0.920 Z1.103 E331.3676
G1 X40.845 Y-0.547 Z1.133 E332.2699
G1 X40.848 Y-0.511 Z1.135 E332.3560
G1 X40.171 Y4.154 Z1.135 E343.6164
G1 X40.144 Y4.536 Z1.165 E344.5325
G1 X40.117 Y4.657 Z1.168 E344.8289
G1 X40.044 Y4.852 Z1.169 E345.3280
G1 X38.072 Y9.132 Z1.170 E356.7327
G1 X37.970 Y9.318 Z1.200 E357.2458
G1 X37.845 Y9.483 Z1.201 E357.7489
G1 X34.739 Y13.027 Z1.203 E369.2902
G1 X34.588 Y13.177 Z1.233 E369.8113
G1 X34.422 Y13.300 Z1.234 E370.3182
G1 X30.438 Y15.816 Z1.235 E381.9991
G1 X30.250 Y15.918 Z1.265 E382.5291
G1 X30.057 Y15.988 Z1.267 E383.0394
G1 X25.521 Y17.271 Z1.268 E394.8625
G1 X25.311 Y17.315 Z1.298 E395.4012
G1 X25.107 Y17.328 Z1.299 E395.9149
G1 X20.394 Y17.270 Z1.301 E407.8758
G1 X20.178 Y17.253 Z1.331 E408.4240
G1 X19.980 Y17.207 Z1.332 E408.9412
G1 X15.479 Y15.814 Z1.333 E421.0358
G1 X15.276 Y15.736 Z1.363 E421.5931
G1 X15.100 Y15.637 Z1.365 E422.1137
G1 X11.180 Y13.024 Z1.366 E434.3448
G1 X11.007 Y12.892 Z1.396 E434.9111
G1 X10.866 Y12.747 Z1.397 E435.4353
G1 X7.848 Y9.129 Z1.399 E447.8064
G1 X7.719 Y8.952 Z1.429 E448.3810
G1 X7.625 Y8.774 Z1.430 E448.9092
G1 X5.762 Y4.456 Z1.431 E461.3953
G1 X5.524 Y3.781 Z1.461 E463.2993
G1 X4.281 Y1.925 Z1.466 E469.2659
G1 X2.077 Y1.178 Z1.480 E475.5139
; layer 2, Z = 2.795
M106 S255
#LayerChange
; tool H1.300 W4.800
; outer perimeter
G92 E0
G1 X-2.557 Y1.178 Z1.495 E10.8190 F600
G1 X-4.760 Y1.925 Z1.521 E16.2513
G1 X-5.959 Y3.715 Z1.534 E21.2822
G1 X-7.336 Y6.933 Z1.545 E29.4538
G1 X-7.755 Y8.106 Z1.565 E32.3628
G1 X-8.186 Y8.922 Z1.572 E34.5162
G1 X-10.080 Y11.193 Z1.577 E41.4214
G1 X-10.818 Y12.203 Z1.593 E44.3414
G1 X-11.462 Y12.862 Z1.600 E46.4928
G1 X-13.922 Y14.503 Z1.605 E53.3970
G1 X-14.916 Y15.263 Z1.622 E56.3192
G1 X-15.719 Y15.713 Z1.628 E58.4685
G1 X-18.544 Y16.587 Z1.634 E65.3736
G1 X-19.713 Y17.036 Z1.650 E68.2980
G1 X-20.610 Y17.239 Z1.657 E70.4446
G1 X-23.569 Y17.276 Z1.662 E77.3526
G1 X-24.818 Y17.376 Z1.678 E80.2793
G1 X-25.734 Y17.317 Z1.685 E82.4233
G1 X-28.581 Y16.512 Z1.690 E89.3313
G1 X-29.809 Y16.253 Z1.707 E92.2607
G1 X-30.670 Y15.938 Z1.714 E94.4022
G1 X-33.171 Y14.358 Z1.719 E101.3078
G1 X-34.276 Y13.762 Z1.735 E104.2395
G1 X-35.012 Y13.217 Z1.742 E106.3790
G1 X-36.961 Y10.993 Z1.747 E113.2839
G1 X-37.853 Y10.108 Z1.763 E116.2177
G1 X-38.404 Y9.377 Z1.770 E118.3550
G1 X-39.642 Y6.690 Z1.776 E125.2610
G1 X-40.248 Y5.588 Z1.792 E128.1969
G1 X-40.569 Y4.732 Z1.799 E130.3319
G1 X-40.993 Y1.804 Z1.804 E137.2404
G1 X-41.262 Y0.574 Z1.820 E140.1788
G1 X-41.327 Y-0.336 Z1.827 E142.3110
G1 X-40.903 Y-3.265 Z1.832 E149.2195
G1 X-40.812 Y-4.521 Z1.849 E152.1607
G1 X-40.599 Y-5.499 Z1.856 E154.4968
G1 X-40.218 Y-6.515 Z1.861 E157.0304
G1 X-38.979 Y-9.202 Z1.867 E163.9388
G1 X-38.455 Y-10.156 Z1.884 E166.4800
G1 X-37.803 Y-11.022 Z1.890 E169.0118
G1 X-35.853 Y-13.246 Z1.896 E175.9189
G1 X-35.080 Y-14.014 Z1.912 E178.4624
G1 X-34.210 Y-14.659 Z1.918 E180.9916
G1 X-31.708 Y-16.239 Z1.924 E187.8998
G1 X-30.749 Y-16.757 Z1.940 E190.4452
G1 X-29.732 Y-17.129 Z1.946 E192.9723
G1 X-26.884 Y-17.934 Z1.952 E199.8826
G1 X-25.817 Y-18.159 Z1.969 E202.4306
G1 X-24.738 Y-18.228 Z1.975 E204.9550
G1 X-21.778 Y-18.191 Z1.981 E211.8652
G1 X-20.689 Y-18.105 Z1.997 E214.4158
G1 X-19.636 Y-17.866 Z2.003 E216.9379
G1 X-16.810 Y-16.991 Z2.009 E223.8451
G1 X-15.789 Y-16.599 Z2.026 E226.3983
G1 X-14.847 Y-16.072 Z2.032 E228.9183
G1 X-12.386 Y-14.431 Z2.038 E235.8246
G1 X-11.517 Y-13.766 Z2.054 E238.3799
G1 X-10.763 Y-12.995 Z2.060 E240.8977
G1 X-8.869 Y-10.723 Z2.066 E247.8049
G1 X-8.223 Y-9.838 Z2.082 E250.3624
G1 X-7.719 Y-8.886 Z2.088 E252.8784
G1 X-6.550 Y-6.176 Z2.094 E259.7683
G1 X-6.003 Y-4.628 Z2.111 E263.6019
G1 X-4.760 Y-2.773 Z2.120 E268.8164
G1 X-2.557 Y-2.026 Z2.132 E274.2488
G1 X2.077 Y-2.026 Z2.145 E285.0676
G1 X4.280 Y-2.773 Z2.171 E290.5000
G1 X5.480 Y-4.563 Z2.184 E295.5310
G1 X6.856 Y-7.781 Z2.195 E303.7025
G1 X7.275 Y-8.954 Z2.215 E306.6114
G1 X7.707 Y-9.769 Z2.222 E308.7649
G1 X9.601 Y-12.040 Z2.227 E315.6701
G1 X10.338 Y-13.051 Z2.243 E318.5902
G1 X10.982 Y-13.710 Z2.250 E320.7416
G1 X13.442 Y-15.350 Z2.255 E327.6458
G1 X14.436 Y-16.111 Z2.272 E330.5680
G1 X15.239 Y-16.560 Z2.278 E332.7172
G1 X18.065 Y-17.435 Z2.284 E339.6224
G1 X19.234 Y-17.883 Z2.300 E342.5468
G1 X20.130 Y-18.087 Z2.307 E344.6934
G1 X23.089 Y-18.123 Z2.312 E351.6013
G1 X24.338 Y-18.223 Z2.328 E354.5280
G1 X25.255 Y-18.164 Z2.335 E356.6721
G1 X28.102 Y-17.359 Z2.340 E363.5800
G1 X29.329 Y-17.101 Z2.357 E366.5094
G1 X30.191 Y-16.785 Z2.364 E368.6510
G1 X32.691 Y-15.206 Z2.369 E375.5566
G1 X33.796 Y-14.610 Z2.385 E378.4884
G1 X34.532 Y-14.064 Z2.392 E380.6277
G1 X36.482 Y-11.840 Z2.397 E387.5326
G1 X37.374 Y-10.955 Z2.413 E390.4666
G1 X37.924 Y-10.224 Z2.420 E392.6037
G1 X39.162 Y-7.538 Z2.426 E399.5097
G1 X39.768 Y-6.435 Z2.442 E402.4457
G1 X40.089 Y-5.579 Z2.449 E404.5806
G1 X40.513 Y-2.651 Z2.454 E411.4891
G1 X40.782 Y-1.422 Z2.470 E414.4277
G1 X40.848 Y-0.511 Z2.477 E416.5596
G1 X40.423 Y2.417 Z2.482 E423.4682
G1 X40.333 Y3.674 Z2.499 E426.4095
G1 X40.119 Y4.651 Z2.506 E428.7455
G1 X39.738 Y5.667 Z2.511 E431.2793
G1 X38.500 Y8.355 Z2.517 E438.1876
G1 X37.976 Y9.309 Z2.534 E440.7288
G1 X37.323 Y10.175 Z2.540 E443.2605
G1 X35.373 Y12.399 Z2.546 E450.1674
G1 X34.600 Y13.167 Z2.562 E452.7111
G1 X33.730 Y13.812 Z2.568 E455.2406
G1 X31.229 Y15.392 Z2.574 E462.1482
G1 X30.269 Y15.909 Z2.590 E464.6941
G1 X29.253 Y16.282 Z2.596 E467.2209
G1 X26.405 Y17.087 Z2.602 E474.1313
G1 X25.337 Y17.312 Z2.619 E476.6793
G1 X24.258 Y17.381 Z2.625 E479.2041
G1 X21.299 Y17.344 Z2.631 E486.1133
G1 X20.210 Y17.257 Z2.647 E488.6645
G1 X19.156 Y17.019 Z2.653 E491.1866
G1 X16.330 Y16.144 Z2.659 E498.0936
G1 X15.309 Y15.752 Z2.676 E500.6471
G1 X14.367 Y15.225 Z2.682 E503.1670
G1 X11.906 Y13.584 Z2.688 E510.0732
G1 X11.037 Y12.919 Z2.704 E512.6287
G1 X10.284 Y12.148 Z2.710 E515.1465
G1 X8.389 Y9.875 Z2.716 E522.0539
G1 X7.743 Y8.991 Z2.732 E524.6110
G1 X7.239 Y8.038 Z2.738 E527.1272
G1 X6.070 Y5.329 Z2.744 E534.0170
G1 X5.524 Y3.781 Z2.761 E537.8506
G1 X4.280 Y1.925 Z2.770 E543.0651
G1 X2.077 Y1.178 Z2.782 E548.4974
; layer 3, Z = 4.095
#LayerChange
; outer perimeter
G92 E0
G1 X-2.557 Y1.178 Z2.795 E10.8190 F600
G1 X-4.760 Y1.925 Z2.821 E16.2506
G1 X-5.964 Y3.722 Z2.833 E21.3021
G1 X-6.705 Y5.489 Z2.845 E25.7745
G1 X-7.396 Y7.422 Z2.856 E30.5674
G1 X-8.209 Y8.958 Z2.867 E34.6248
G1 X-9.058 Y9.976 Z2.877 E37.7216
G1 X-10.276 Y11.645 Z2.884 E42.5457
G1 X-11.490 Y12.888 Z2.896 E46.6007
G1 X-12.593 Y13.623 Z2.905 E49.6971
G1 X-14.234 Y14.880 Z2.913 E54.5233
G1 X-15.750 Y15.727 Z2.924 E58.5764
G1 X-17.017 Y16.119 Z2.934 E61.6731
G1 X-18.947 Y16.860 Z2.941 E66.5013
G1 X-20.639 Y17.244 Z2.953 E70.5521
G1 X-21.966 Y17.260 Z2.962 E73.6501
G1 X-24.028 Y17.425 Z2.969 E78.4807
G1 X-25.758 Y17.314 Z2.981 E82.5288
G1 X-27.035 Y16.953 Z2.990 E85.6268
G1 X-29.061 Y16.526 Z2.998 E90.4600
G1 X-30.688 Y15.930 Z3.009 E94.5057
G1 X-31.809 Y15.222 Z3.019 E97.6025
G1 X-33.632 Y14.239 Z3.026 E102.4382
G1 X-35.023 Y13.207 Z3.038 E106.4816
G1 X-35.897 Y12.210 Z3.047 E109.5781
G1 X-37.368 Y10.751 Z3.055 E114.4160
G1 X-38.410 Y9.368 Z3.066 E118.4571
G1 X-38.965 Y8.164 Z3.076 E121.5542
G1 X-39.963 Y6.347 Z3.083 E126.3942
G1 X-40.570 Y4.727 Z3.094 E130.4329
G1 X-40.760 Y3.414 Z3.104 E133.5312
G1 X-41.203 Y1.388 Z3.111 E138.3736
G1 X-41.327 Y-0.336 Z3.123 E142.4096
G1 X-41.137 Y-1.650 Z3.132 E145.5079
