; G-Code generated by Simplify3D(R) Version 3.1.1
; Aug 13, 2018 at 11:41:47 AM
; Settings Summary
;   processName,Process1
;   applyToModels,180803_hs_ov_schraeg2
;   profileName,Default (modified)
;   profileVersion,2015-05-01 08:00:00
;   baseProfile,
;   printMaterial,PLA
;   printQuality,High
;   printExtruders,
;   extruderName,Primary Extruder
;   extruderToolheadNumber,0
;   extruderDiameter,1
;   extruderAutoWidth,1
;   extruderWidth,1.2
;   extrusionMultiplier,0.9
;   extruderUseRetract,0
;   extruderRetractionDistance,1
;   extruderExtraRestartDistance,0
;   extruderRetractionZLift,0
;   extruderRetractionSpeed,1800
;   extruderUseCoasting,0
;   extruderCoastingDistance,0.2
;   extruderUseWipe,0
;   extruderWipeDistance,5
;   primaryExtruder,0
;   layerHeight,0.61
;   topSolidLayers,0
;   bottomSolidLayers,0
;   perimeterOutlines,1
;   printPerimetersInsideOut,1
;   startPointOption,2
;   startPointOriginX,0
;   startPointOriginY,0
;   startPointOriginZ,300
;   sequentialIslands,0
;   spiralVaseMode,1
;   firstLayerHeightPercentage,150
;   firstLayerWidthPercentage,100
;   firstLayerUnderspeed,1
;   useRaft,0
;   raftExtruder,0
;   raftLayers,3
;   raftOffset,3
;   raftSeparationDistance,0.14
;   raftInfill,85
;   disableRaftBaseLayers,0
;   useSkirt,0
;   skirtExtruder,0
;   skirtLayers,2
;   skirtOutlines,2
;   skirtOffset,4
;   usePrimePillar,0
;   primePillarExtruder,999
;   primePillarWidth,12
;   primePillarLocation,7
;   primePillarSpeedMultiplier,1
;   useOozeShield,0
;   oozeShieldExtruder,999
;   oozeShieldOffset,2
;   oozeShieldOutlines,1
;   oozeShieldSidewallShape,1
;   oozeShieldSidewallAngle,30
;   oozeShieldSpeedMultiplier,1
;   infillExtruder,0
;   internalInfillPattern,Rectilinear
;   externalInfillPattern,Rectilinear
;   infillPercentage,0
;   outlineOverlapPercentage,0
;   infillExtrusionWidthPercentage,100
;   minInfillLength,5
;   infillLayerInterval,1
;   infillAngles,0
;   overlapInfillAngles,0
;   generateSupport,0
;   supportExtruder,0
;   supportInfillPercentage,40
;   supportExtraInflation,0
;   denseSupportLayers,0
;   denseSupportInfillPercentage,70
;   supportLayerInterval,1
;   supportHorizontalPartOffset,0.3
;   supportUpperSeparationLayers,1
;   supportLowerSeparationLayers,1
;   supportType,0
;   supportGridSpacing,4
;   maxOverhangAngle,45
;   supportAngles,0
;   temperatureName,Primary Extruder
;   temperatureNumber,0
;   temperatureSetpointCount,1
;   temperatureSetpointLayers,1
;   temperatureSetpointTemperatures,0
;   temperatureStabilizeAtStartup,1
;   temperatureHeatedBed,0
;   temperatureRelayBetweenLayers,0
;   temperatureRelayBetweenLoops,0
;   fanLayers,1,2
;   fanSpeeds,0,100
;   blipFanToFullPower,0
;   adjustSpeedForCooling,0
;   minSpeedLayerTime,15
;   minCoolingSpeedSlowdown,20
;   increaseFanForCooling,0
;   minFanLayerTime,45
;   maxCoolingFanSpeed,100
;   increaseFanForBridging,0
;   bridgingFanSpeed,100
;   use5D,1
;   relativeEdistances,0
;   allowEaxisZeroing,1
;   independentExtruderAxes,0
;   includeM10123,0
;   stickySupport,1
;   applyToolheadOffsets,0
;   gcodeXoffset,0
;   gcodeYoffset,0
;   gcodeZoffset,0
;   overrideMachineDefinition,0
;   machineTypeOverride,0
;   strokeXoverride,200
;   strokeYoverride,200
;   strokeZoverride,200
;   originOffsetXoverride,0
;   originOffsetYoverride,0
;   originOffsetZoverride,0
;   homeXdirOverride,-1
;   homeYdirOverride,-1
;   homeZdirOverride,-1
;   flipXoverride,1
;   flipYoverride,-1
;   flipZoverride,1
;   toolheadOffsets,0,0|0,0|0,0|0,0|0,0|0,0
;   overrideFirmwareConfiguration,0
;   firmwareTypeOverride,RepRap (Marlin/Repetier/Sprinter)
;   GPXconfigOverride,r2
;   baudRateOverride,115200
;   overridePrinterModels,0
;   printerModelsOverride
;   startingGcode,G28 ; home all axes
;   layerChangeGcode,
;   retractionGcode,
;   toolChangeGcode,
;   endingGcode,M104 S0 ; turn off extruder,M140 S0 ; turn off bed,M84 ; disable motors
;   exportFileFormat,gcode
;   celebration,0
;   celebrationSong,Random Song
;   postProcessing,
;   defaultSpeed,600
;   outlineUnderspeed,1
;   solidInfillUnderspeed,0.8
;   supportUnderspeed,0.8
;   rapidXYspeed,4800
;   rapidZspeed,1000
;   minBridgingArea,40
;   bridgingExtraInflation,1
;   bridgingExtrusionMultiplier,1
;   bridgingSpeedMultiplier,1
;   filamentDiameter,1.75
;   filamentPricePerKg,46
;   filamentDensity,1.25
;   useMinPrintHeight,0
;   minPrintHeight,0
;   useMaxPrintHeight,0
;   maxPrintHeight,0
;   useDiaphragm,0
;   diaphragmLayerInterval,20
;   robustSlicing,0
;   mergeAllIntoSolid,1
;   onlyRetractWhenCrossingOutline,1
;   retractBetweenLayers,0
;   useRetractionMinTravel,0
;   retractionMinTravel,3
;   retractWhileWiping,0
;   onlyWipeOutlines,1
;   avoidCrossingOutline,0
;   maxMovementDetourFactor,3
;   toolChangeRetractionDistance,0
;   toolChangeExtraRestartDistance,0
;   toolChangeRetractionSpeed,600
;   allowThinWallGapFill,0
;   thinWallAllowedOverlapPercentage,0
;   horizontalSizeCompensation,0
G90
M82
M106 S0
M104 S0 T0
G28 ; home all axes
G92 E0
G1 E-1.0000 F1800
G1 Z0.000 F1000
; layer 1, Z = 0.915
T0
; tool H0.915 W1.200
; outer perimeter
G1 X5.219 Y-0.246 F4800
G1 E0.0000 F540
G92 E0
G1 X8.951 Y-14.614 Z0.000 E3.1503 F600
G1 X8.999 Y-14.812 Z0.030 E3.1937
G1 X9.060 Y-15.209 Z0.031 E3.2790
G1 X9.161 Y-15.468 Z0.032 E3.3380
G1 X18.462 Y-26.550 Z0.032 E6.5102
G1 X18.690 Y-26.887 Z0.062 E6.5994
G1 X18.892 Y-27.077 Z0.062 E6.6602
G1 X32.055 Y-33.088 Z0.063 E9.9331
G1 X32.405 Y-33.295 Z0.092 E10.0253
G1 X32.669 Y-33.380 Z0.093 E10.0879
G1 X47.143 Y-33.149 Z0.094 E13.4625
G1 X47.549 Y-33.186 Z0.123 E13.5576
G1 X47.822 Y-33.150 Z0.124 E13.6220
G1 X60.787 Y-26.722 Z0.125 E17.0958
G1 X61.170 Y-26.581 Z0.154 E17.1938
G1 X61.401 Y-26.432 Z0.155 E17.2600
G1 X70.346 Y-15.058 Z0.156 E20.8338
G1 X70.631 Y-14.767 Z0.185 E20.9347
G1 X70.776 Y-14.533 Z0.186 E21.0027
G1 X73.966 Y-0.414 Z0.187 E24.6782
G1 X74.099 Y-0.028 Z0.216 E24.7820
G1 X74.129 Y0.245 Z0.217 E24.8519
G1 X70.940 Y14.363 Z0.217 E28.6277
G1 X70.895 Y14.770 Z0.247 E28.7345
G1 X70.794 Y15.062 Z0.248 E28.8152
G1 X70.614 Y15.353 Z0.248 E28.9045
G1 X61.669 Y26.727 Z0.249 E32.7820
G1 X61.429 Y26.972 Z0.279 E32.8740
G1 X61.143 Y27.157 Z0.279 E32.9656
G1 X48.177 Y33.585 Z0.280 E36.9440
G1 X47.855 Y33.703 Z0.310 E37.0384
G1 X47.517 Y33.748 Z0.310 E37.1323
G1 X33.042 Y33.978 Z0.311 E41.2126
G1 X32.700 Y33.948 Z0.340 E41.3095
G1 X32.375 Y33.843 Z0.341 E41.4056
G1 X19.212 Y27.832 Z0.342 E45.5847
G1 X18.915 Y27.657 Z0.371 E45.6842
G1 X18.668 Y27.424 Z0.372 E45.7825
G1 X9.365 Y16.341 Z0.373 E50.0615
G1 X9.172 Y16.055 Z0.402 E50.1635
G1 X9.048 Y15.739 Z0.403 E50.2641
G1 X5.411 Y1.740 Z0.404 E54.6417
G1 X5.272 Y0.804 Z0.433 E54.9284
G1 X-5.745 Y0.804 Z0.435 E58.3233
G1 X-9.477 Y15.172 Z0.457 E62.9983
G1 X-9.525 Y15.371 Z0.488 E63.0627
G1 X-9.586 Y15.768 Z0.488 E63.1893
G1 X-9.687 Y16.026 Z0.489 E63.2768
G1 X-18.989 Y27.108 Z0.490 E67.9350
G1 X-19.217 Y27.445 Z0.519 E68.0660
G1 X-19.418 Y27.635 Z0.520 E68.1553
G1 X-32.581 Y33.646 Z0.520 E72.9145
G1 X-32.932 Y33.853 Z0.550 E73.0484
G1 X-33.195 Y33.938 Z0.551 E73.1395
G1 X-47.669 Y33.707 Z0.551 E78.0009
G1 X-48.075 Y33.744 Z0.581 E78.1379
G1 X-48.349 Y33.708 Z0.582 E78.2307
G1 X-61.314 Y27.280 Z0.582 E83.1907
G1 X-61.696 Y27.140 Z0.612 E83.3306
G1 X-61.928 Y26.990 Z0.613 E83.4252
G1 X-70.872 Y15.617 Z0.613 E88.4850
G1 X-71.158 Y15.325 Z0.643 E88.6279
G1 X-71.303 Y15.091 Z0.643 E88.7242
G1 X-74.492 Y0.972 Z0.644 E93.8863
G1 X-74.625 Y0.586 Z0.674 E94.0321
G1 X-74.656 Y0.313 Z0.674 E94.1302
G1 X-71.466 Y-13.805 Z0.675 E99.3927
G1 X-71.421 Y-14.212 Z0.704 E99.5415
G1 X-71.320 Y-14.504 Z0.705 E99.6539
G1 X-71.141 Y-14.795 Z0.706 E99.7783
G1 X-62.196 Y-26.169 Z0.707 E105.1421
G1 X-61.956 Y-26.414 Z0.736 E105.2693
G1 X-61.669 Y-26.599 Z0.737 E105.3960
G1 X-48.703 Y-33.027 Z0.738 E110.8607
G1 X-48.381 Y-33.145 Z0.767 E110.9905
G1 X-48.043 Y-33.190 Z0.768 E111.1193
G1 X-33.568 Y-33.420 Z0.768 E116.6865
G1 X-33.226 Y-33.390 Z0.798 E116.8188
G1 X-32.902 Y-33.285 Z0.799 E116.9499
G1 X-19.738 Y-27.274 Z0.799 E122.6154
G1 X-19.442 Y-27.099 Z0.829 E122.7502
G1 X-19.194 Y-26.866 Z0.830 E122.8834
G1 X-9.892 Y-15.783 Z0.830 E128.6486
G1 X-9.699 Y-15.497 Z0.860 E128.7860
G1 X-9.575 Y-15.181 Z0.860 E128.9215
G1 X-5.938 Y-1.182 Z0.861 E134.7847
G1 X-5.799 Y-0.246 Z0.891 E135.1685
G1 X5.219 Y-0.246 Z0.893 E139.6951
; layer 2, Z = 1.525
M106 S255
; tool H0.610 W1.200
; outer perimeter
G92 E0
G1 X8.514 Y-12.941 Z0.915 E3.5922 F600
G1 X8.631 Y-13.421 Z0.933 E3.7276
G1 X8.803 Y-14.547 Z0.933 E4.0395
G1 X9.173 Y-15.491 Z0.935 E4.3174
G1 X17.530 Y-25.448 Z0.936 E7.8778
G1 X18.171 Y-26.396 Z0.954 E8.1912
G1 X18.910 Y-27.090 Z0.956 E8.4690
G1 X30.736 Y-32.491 Z0.957 E12.0298
G1 X31.721 Y-33.072 Z0.975 E12.3432
G1 X32.686 Y-33.383 Z0.976 E12.6209
G1 X45.690 Y-33.176 Z0.978 E16.1831
G1 X46.831 Y-33.279 Z0.995 E16.4967
G1 X47.835 Y-33.147 Z0.997 E16.7742
G1 X59.483 Y-27.372 Z0.998 E20.3351
G1 X60.558 Y-26.976 Z1.016 E20.6488
G1 X61.408 Y-26.426 Z1.017 E20.9262
G1 X69.444 Y-16.208 Z1.019 E24.4868
G1 X70.246 Y-15.390 Z1.036 E24.8005
G1 X70.778 Y-14.528 Z1.038 E25.0778
G1 X73.644 Y-1.844 Z1.039 E28.6396
G1 X74.018 Y-0.761 Z1.057 E28.9535
G1 X74.129 Y0.245 Z1.059 E29.2307
G1 X71.264 Y12.930 Z1.060 E32.7925
G1 X71.137 Y14.069 Z1.078 E33.1065
G1 X70.796 Y15.058 Z1.079 E33.3930
G1 X70.229 Y15.976 Z1.081 E33.6886
G1 X62.192 Y26.195 Z1.082 E37.2493
G1 X61.436 Y26.966 Z1.100 E37.5452
G1 X60.531 Y27.552 Z1.101 E37.8406
G1 X48.882 Y33.327 Z1.103 E41.4017
G1 X47.868 Y33.700 Z1.120 E41.6977
G1 X46.799 Y33.842 Z1.122 E41.9930
G1 X33.794 Y34.049 Z1.123 E45.5555
G1 X32.717 Y33.951 Z1.141 E45.8516
G1 X31.691 Y33.621 Z1.142 E46.1468
G1 X19.865 Y28.220 Z1.144 E49.7079
G1 X18.933 Y27.670 Z1.162 E50.0041
G1 X18.148 Y26.932 Z1.163 E50.2992
G1 X9.791 Y16.975 Z1.164 E53.8599
G1 X9.185 Y16.079 Z1.182 E54.1562
G1 X8.792 Y15.076 Z1.184 E54.4512
G1 X5.524 Y2.499 Z1.185 E58.0104
G1 X5.272 Y0.804 Z1.203 E58.4796
G1 X-5.745 Y0.804 Z1.205 E61.4974
G1 X-9.040 Y13.499 Z1.220 E65.0896
G1 X-9.157 Y13.979 Z1.238 E65.2250
G1 X-9.329 Y15.105 Z1.238 E65.5369
G1 X-9.699 Y16.049 Z1.240 E65.8148
G1 X-18.056 Y26.006 Z1.241 E69.3752
G1 X-18.697 Y26.954 Z1.259 E69.6886
G1 X-19.436 Y27.648 Z1.261 E69.9663
G1 X-31.262 Y33.049 Z1.262 E73.5272
G1 X-32.248 Y33.631 Z1.280 E73.8406
G1 X-33.213 Y33.941 Z1.281 E74.1183
G1 X-46.217 Y33.734 Z1.283 E77.6805
G1 X-47.357 Y33.837 Z1.300 E77.9941
G1 X-48.361 Y33.705 Z1.302 E78.2716
G1 X-60.010 Y27.930 Z1.303 E81.8325
G1 X-61.084 Y27.534 Z1.321 E82.1462
G1 X-61.935 Y26.984 Z1.322 E82.4236
G1 X-69.971 Y16.766 Z1.324 E85.9841
G1 X-70.772 Y15.948 Z1.341 E86.2979
G1 X-71.305 Y15.087 Z1.343 E86.5752
G1 X-74.170 Y2.402 Z1.344 E90.1370
G1 X-74.544 Y1.319 Z1.362 E90.4509
G1 X-74.656 Y0.313 Z1.364 E90.7281
G1 X-71.790 Y-12.371 Z1.365 E94.2899
G1 X-71.663 Y-13.511 Z1.383 E94.6039
G1 X-71.322 Y-14.500 Z1.384 E94.8904
G1 X-70.755 Y-15.418 Z1.386 E95.1859
G1 X-62.719 Y-25.636 Z1.387 E98.7467
G1 X-61.963 Y-26.408 Z1.405 E99.0426
G1 X-61.057 Y-26.994 Z1.406 E99.3380
G1 X-49.408 Y-32.769 Z1.408 E102.8991
G1 X-48.394 Y-33.142 Z1.425 E103.1951
G1 X-47.325 Y-33.283 Z1.427 E103.4904
G1 X-34.320 Y-33.490 Z1.428 E107.0529
G1 X-33.244 Y-33.393 Z1.446 E107.3490
G1 X-32.218 Y-33.063 Z1.447 E107.6442
G1 X-20.391 Y-27.662 Z1.449 E111.2053
G1 X-19.460 Y-27.112 Z1.467 E111.5015
G1 X-18.675 Y-26.374 Z1.468 E111.7966
G1 X-10.317 Y-16.417 Z1.469 E115.3572
G1 X-9.711 Y-15.521 Z1.487 E115.6536
G1 X-9.318 Y-14.518 Z1.489 E115.9486
G1 X-6.050 Y-1.940 Z1.490 E119.5078
G1 X-5.799 Y-0.246 Z1.508 E119.9770
G1 X5.219 Y-0.246 Z1.510 E122.9948
; layer 3, Z = 2.135
; outer perimeter
G92 E0
G1 X8.164 Y-11.602 Z1.525 E3.2133 F600
G1 X8.336 Y-12.307 Z1.541 E3.4122
G1 X8.598 Y-14.016 Z1.542 E3.8856
G1 X9.183 Y-15.510 Z1.544 E4.3251
G1 X16.784 Y-24.567 Z1.546 E7.5635
G1 X17.756 Y-26.002 Z1.562 E8.0384
G1 X18.924 Y-27.101 Z1.565 E8.4777
G1 X29.681 Y-32.013 Z1.567 E11.7166
G1 X31.174 Y-32.895 Z1.583 E12.1915
G1 X32.701 Y-33.386 Z1.585 E12.6307
G1 X44.529 Y-33.198 Z1.588 E15.8708
G1 X46.256 Y-33.354 Z1.604 E16.3459
G1 X47.845 Y-33.144 Z1.606 E16.7850
G1 X58.440 Y-27.892 Z1.608 E20.0239
G1 X60.068 Y-27.292 Z1.624 E20.4991
G1 X61.414 Y-26.422 Z1.627 E20.9381
G1 X68.723 Y-17.128 Z1.629 E24.1766
G1 X69.937 Y-15.888 Z1.645 E24.6519
G1 X70.780 Y-14.525 Z1.647 E25.0907
G1 X73.386 Y-2.988 Z1.649 E28.3304
G1 X73.952 Y-1.347 Z1.665 E28.8058
G1 X74.129 Y0.245 Z1.668 E29.2446
G1 X71.523 Y11.782 Z1.670 E32.4842
G1 X71.331 Y13.508 Z1.686 E32.9598
G1 X70.798 Y15.055 Z1.688 E33.4079
G1 X69.920 Y16.474 Z1.691 E33.8650
G1 X62.610 Y25.769 Z1.693 E37.1037
G1 X61.442 Y26.962 Z1.709 E37.5611
G1 X60.041 Y27.868 Z1.711 E38.0181
G1 X49.446 Y33.121 Z1.713 E41.2572
G1 X47.878 Y33.698 Z1.730 E41.7147
G1 X46.224 Y33.916 Z1.732 E42.1716
G1 X34.395 Y34.105 Z1.734 E45.4119
G1 X32.731 Y33.954 Z1.750 E45.8695
G1 X31.144 Y33.443 Z1.752 E46.3263
G1 X20.387 Y28.530 Z1.755 E49.5653
G1 X18.948 Y27.681 Z1.771 E50.0231
G1 X17.733 Y26.539 Z1.773 E50.4798
G1 X10.131 Y17.482 Z1.775 E53.7184
G1 X9.194 Y16.098 Z1.791 E54.1763
G1 X8.586 Y14.546 Z1.794 E54.6328
G1 X5.614 Y3.106 Z1.796 E57.8702
G1 X5.272 Y0.804 Z1.812 E58.5075
G1 X-5.746 Y0.804 Z1.815 E61.5253
G1 X-8.691 Y12.160 Z1.830 E64.7386
G1 X-8.862 Y12.866 Z1.846 E64.9374
G1 X-9.124 Y14.574 Z1.847 E65.4109
G1 X-9.709 Y16.068 Z1.849 E65.8504
G1 X-17.310 Y25.125 Z1.851 E69.0888
G1 X-18.282 Y26.561 Z1.867 E69.5637
G1 X-19.451 Y27.659 Z1.870 E70.0030
G1 X-30.207 Y32.571 Z1.872 E73.2418
G1 X-31.701 Y33.453 Z1.888 E73.7168
G1 X-33.227 Y33.944 Z1.890 E74.1560
G1 X-45.055 Y33.756 Z1.893 E77.3961
G1 X-46.782 Y33.912 Z1.909 E77.8712
G1 X-48.372 Y33.702 Z1.911 E78.3103
G1 X-58.966 Y28.450 Z1.913 E81.5492
G1 X-60.595 Y27.850 Z1.929 E82.0244
G1 X-61.940 Y26.980 Z1.932 E82.4633
G1 X-69.249 Y17.686 Z1.934 E85.7019
G1 X-70.464 Y16.446 Z1.950 E86.1772
G1 X-71.306 Y15.083 Z1.952 E86.6160
G1 X-73.913 Y3.546 Z1.954 E89.8557
G1 X-74.479 Y1.905 Z1.970 E90.3311
G1 X-74.656 Y0.313 Z1.973 E90.7699
G1 X-72.049 Y-11.224 Z1.975 E94.0095
G1 X-71.857 Y-12.950 Z1.991 E94.4851
G1 X-71.324 Y-14.496 Z1.993 E94.9332
G1 X-70.446 Y-15.916 Z1.996 E95.3902
G1 X-63.137 Y-25.211 Z1.998 E98.6290
G1 X-61.968 Y-26.404 Z2.014 E99.0864
G1 X-60.567 Y-27.310 Z2.016 E99.5434
G1 X-49.972 Y-32.563 Z2.018 E102.7825
G1 X-48.404 Y-33.140 Z2.035 E103.2400
G1 X-46.751 Y-33.358 Z2.037 E103.6969
G1 X-34.922 Y-33.546 Z2.039 E106.9372
G1 X-33.258 Y-33.396 Z2.055 E107.3948
G1 X-31.670 Y-32.885 Z2.057 E107.8516
G1 X-20.913 Y-27.972 Z2.060 E111.0906
G1 X-19.474 Y-27.123 Z2.076 E111.5484
G1 X-18.259 Y-25.981 Z2.078 E112.0050
G1 X-10.657 Y-16.924 Z2.080 E115.2437
G1 X-9.721 Y-15.540 Z2.096 E115.7016
G1 X-9.113 Y-13.987 Z2.099 E116.1581
G1 X-6.141 Y-2.548 Z2.101 E119.3955
G1 X-5.799 Y-0.246 Z2.117 E120.0328
G1 X5.219 Y-0.246 Z2.120 E123.0506
; layer 4, Z = 2.745
; outer perimeter
G92 E0
G1 X7.493 Y-9.001 Z2.135 E2.4775 F600
G1 X8.041 Y-11.192 Z2.147 E3.0962
G1 X8.392 Y-13.486 Z2.150 E3.7317
G1 X9.193 Y-15.529 Z2.153 E4.3327
G1 X16.038 Y-23.685 Z2.156 E7.2492
G1 X17.340 Y-25.609 Z2.171 E7.8856
G1 X18.938 Y-27.112 Z2.174 E8.4865
G1 X28.625 Y-31.536 Z2.177 E11.4033
G1 X30.627 Y-32.717 Z2.191 E12.0398
G1 X32.715 Y-33.389 Z2.195 E12.6406
G1 X43.367 Y-33.220 Z2.198 E15.5585
G1 X45.682 Y-33.429 Z2.212 E16.1951
G1 X47.856 Y-33.142 Z2.215 E16.7957
G1 X57.397 Y-28.412 Z2.218 E19.7126
G1 X59.579 Y-27.608 Z2.233 E20.3493
G1 X61.419 Y-26.417 Z2.236 E20.9499
G1 X68.002 Y-18.047 Z2.239 E23.8664
G1 X69.629 Y-16.386 Z2.253 E24.5032
G1 X70.781 Y-14.522 Z2.256 E25.1036
G1 X73.129 Y-4.132 Z2.259 E28.0212
G1 X73.887 Y-1.933 Z2.274 E28.6582
G1 X74.129 Y0.245 Z2.277 E29.2585
G1 X71.782 Y10.635 Z2.280 E32.1760
G1 X71.525 Y12.947 Z2.294 E32.8131
G1 X70.799 Y15.051 Z2.298 E33.4227
G1 X69.612 Y16.972 Z2.301 E34.0413
G1 X63.029 Y25.343 Z2.304 E36.9581
G1 X61.447 Y26.957 Z2.318 E37.5771
G1 X59.551 Y28.184 Z2.321 E38.1956
G1 X50.009 Y32.914 Z2.324 E41.1126
G1 X47.888 Y33.695 Z2.339 E41.7317
G1 X45.650 Y33.991 Z2.342 E42.3501
G1 X34.997 Y34.161 Z2.345 E45.2683
G1 X32.746 Y33.957 Z2.359 E45.8875
