; G-Code generated by Simplify3D(R) Version 3.1.1
; Aug 10, 2018 at 8:29:24 AM
; Settings Summary
;   processName,Process1
;   applyToModels,hosenrohr_ohne_versatz
;   profileName,Default (modified)
;   profileVersion,2015-05-01 08:00:00
;   baseProfile,
;   printMaterial,PLA
;   printQuality,High
;   printExtruders,
;   extruderName,Primary Extruder
;   extruderToolheadNumber,0
;   extruderDiameter,1
;   extruderAutoWidth,1
;   extruderWidth,1.2
;   extrusionMultiplier,0.9
;   extruderUseRetract,0
;   extruderRetractionDistance,1
;   extruderExtraRestartDistance,0
;   extruderRetractionZLift,0
;   extruderRetractionSpeed,1800
;   extruderUseCoasting,0
;   extruderCoastingDistance,0.2
;   extruderUseWipe,0
;   extruderWipeDistance,5
;   primaryExtruder,0
;   layerHeight,1.33
;   topSolidLayers,0
;   bottomSolidLayers,0
;   perimeterOutlines,1
;   printPerimetersInsideOut,1
;   startPointOption,2
;   startPointOriginX,0
;   startPointOriginY,0
;   startPointOriginZ,300
;   sequentialIslands,0
;   spiralVaseMode,1
;   firstLayerHeightPercentage,100
;   firstLayerWidthPercentage,100
;   firstLayerUnderspeed,1
;   useRaft,0
;   raftExtruder,0
;   raftLayers,3
;   raftOffset,3
;   raftSeparationDistance,0.14
;   raftInfill,85
;   disableRaftBaseLayers,0
;   useSkirt,0
;   skirtExtruder,0
;   skirtLayers,2
;   skirtOutlines,2
;   skirtOffset,4
;   usePrimePillar,0
;   primePillarExtruder,999
;   primePillarWidth,12
;   primePillarLocation,7
;   primePillarSpeedMultiplier,1
;   useOozeShield,0
;   oozeShieldExtruder,999
;   oozeShieldOffset,2
;   oozeShieldOutlines,1
;   oozeShieldSidewallShape,1
;   oozeShieldSidewallAngle,30
;   oozeShieldSpeedMultiplier,1
;   infillExtruder,0
;   internalInfillPattern,Rectilinear
;   externalInfillPattern,Rectilinear
;   infillPercentage,0
;   outlineOverlapPercentage,0
;   infillExtrusionWidthPercentage,100
;   minInfillLength,5
;   infillLayerInterval,1
;   infillAngles,0
;   overlapInfillAngles,0
;   generateSupport,0
;   supportExtruder,0
;   supportInfillPercentage,40
;   supportExtraInflation,0
;   denseSupportLayers,0
;   denseSupportInfillPercentage,70
;   supportLayerInterval,1
;   supportHorizontalPartOffset,0.3
;   supportUpperSeparationLayers,1
;   supportLowerSeparationLayers,1
;   supportType,0
;   supportGridSpacing,4
;   maxOverhangAngle,45
;   supportAngles,0
;   temperatureName,Primary Extruder
;   temperatureNumber,0
;   temperatureSetpointCount,1
;   temperatureSetpointLayers,1
;   temperatureSetpointTemperatures,0
;   temperatureStabilizeAtStartup,1
;   temperatureHeatedBed,0
;   temperatureRelayBetweenLayers,0
;   temperatureRelayBetweenLoops,0
;   fanLayers,1,2
;   fanSpeeds,0,100
;   blipFanToFullPower,0
;   adjustSpeedForCooling,1
;   minSpeedLayerTime,15
;   minCoolingSpeedSlowdown,20
;   increaseFanForCooling,0
;   minFanLayerTime,45
;   maxCoolingFanSpeed,100
;   increaseFanForBridging,0
;   bridgingFanSpeed,100
;   use5D,1
;   relativeEdistances,0
;   allowEaxisZeroing,1
;   independentExtruderAxes,0
;   includeM10123,0
;   stickySupport,1
;   applyToolheadOffsets,0
;   gcodeXoffset,0
;   gcodeYoffset,0
;   gcodeZoffset,0
;   overrideMachineDefinition,0
;   machineTypeOverride,0
;   strokeXoverride,200
;   strokeYoverride,200
;   strokeZoverride,200
;   originOffsetXoverride,0
;   originOffsetYoverride,0
;   originOffsetZoverride,0
;   homeXdirOverride,-1
;   homeYdirOverride,-1
;   homeZdirOverride,-1
;   flipXoverride,1
;   flipYoverride,-1
;   flipZoverride,1
;   toolheadOffsets,0,0|0,0|0,0|0,0|0,0|0,0
;   overrideFirmwareConfiguration,0
;   firmwareTypeOverride,RepRap (Marlin/Repetier/Sprinter)
;   GPXconfigOverride,r2
;   baudRateOverride,115200
;   overridePrinterModels,0
;   printerModelsOverride
;   startingGcode,G28 ; home all axes
;   layerChangeGcode,
;   retractionGcode,
;   toolChangeGcode,
;   endingGcode,M104 S0 ; turn off extruder,M140 S0 ; turn off bed,M84 ; disable motors
;   exportFileFormat,gcode
;   celebration,0
;   celebrationSong,Random Song
;   postProcessing,
;   defaultSpeed,600
;   outlineUnderspeed,1
;   solidInfillUnderspeed,0.8
;   supportUnderspeed,0.8
;   rapidXYspeed,4800
;   rapidZspeed,1000
;   minBridgingArea,40
;   bridgingExtraInflation,1
;   bridgingExtrusionMultiplier,1
;   bridgingSpeedMultiplier,1
;   filamentDiameter,1.75
;   filamentPricePerKg,46
;   filamentDensity,1.25
;   useMinPrintHeight,0
;   minPrintHeight,0
;   useMaxPrintHeight,0
;   maxPrintHeight,0
;   useDiaphragm,0
;   diaphragmLayerInterval,20
;   robustSlicing,0
;   mergeAllIntoSolid,1
;   onlyRetractWhenCrossingOutline,1
;   retractBetweenLayers,0
;   useRetractionMinTravel,0
;   retractionMinTravel,3
;   retractWhileWiping,0
;   onlyWipeOutlines,1
;   avoidCrossingOutline,0
;   maxMovementDetourFactor,3
;   toolChangeRetractionDistance,0
;   toolChangeExtraRestartDistance,0
;   toolChangeRetractionSpeed,600
;   allowThinWallGapFill,0
;   thinWallAllowedOverlapPercentage,0
;   horizontalSizeCompensation,0
G90
M82
M106 S0
M104 S0 T0
G28 ; home all axes
G92 E0
G1 E-1.0000 F1800
G1 Z0.000 F1000
; layer 1, Z = 1.33
T0
; tool H1.330 W1.200
; outer perimeter
G1 X-0.150 Y0.396 F4800
G1 E0.0000 F540
G92 E0
G1 X-3.720 Y1.719 Z0.000 E1.1466 F600
G1 X-5.535 Y4.999 Z0.011 E2.2851
G1 X-9.508 Y16.323 Z0.023 E6.0269
G1 X-9.633 Y16.823 Z0.059 E6.1876
G1 X-9.801 Y17.188 Z0.060 E6.3133
G1 X-17.552 Y26.184 Z0.062 E10.1182
G1 X-17.850 Y26.604 Z0.097 E10.2833
G1 X-18.140 Y26.882 Z0.099 E10.4124
G1 X-28.635 Y32.423 Z0.100 E14.3176
G1 X-29.066 Y32.704 Z0.136 E14.4872
G1 X-29.438 Y32.858 Z0.137 E14.6198
G1 X-41.237 Y34.183 Z0.138 E18.6292
G1 X-41.741 Y34.288 Z0.174 E18.8032
G1 X-42.143 Y34.295 Z0.176 E18.9393
G1 X-53.611 Y31.219 Z0.177 E23.0513
G1 X-54.119 Y31.132 Z0.213 E23.2298
G1 X-54.496 Y30.992 Z0.214 E23.3693
G1 X-64.044 Y23.943 Z0.215 E27.5822
G1 X-64.485 Y23.677 Z0.251 E27.7651
G1 X-64.785 Y23.409 Z0.253 E27.9081
G1 X-71.103 Y13.353 Z0.254 E32.2262
G1 X-71.416 Y12.944 Z0.290 E32.4136
G1 X-71.597 Y12.585 Z0.291 E32.5600
G1 X-73.804 Y0.919 Z0.292 E36.9794
G1 X-73.947 Y0.424 Z0.328 E37.1713
G1 X-73.984 Y0.024 Z0.330 E37.3212
G1 X-71.777 Y-11.642 Z0.331 E41.8431
G1 X-71.729 Y-12.155 Z0.366 E42.0394
G1 X-71.610 Y-12.569 Z0.368 E42.2036
G1 X-71.403 Y-12.978 Z0.369 E42.3788
G1 X-65.085 Y-23.035 Z0.371 E47.0086
G1 X-64.806 Y-23.399 Z0.406 E47.1875
G1 X-64.464 Y-23.705 Z0.408 E47.3667
G1 X-54.915 Y-30.754 Z0.409 E52.0960
G1 X-54.522 Y-30.991 Z0.445 E52.2789
G1 X-54.092 Y-31.151 Z0.446 E52.4619
G1 X-42.624 Y-34.227 Z0.448 E57.2957
G1 X-42.171 Y-34.304 Z0.483 E57.4826
G1 X-41.713 Y-34.296 Z0.485 E57.6696
G1 X-29.913 Y-32.971 Z0.486 E62.6057
G1 X-29.464 Y-32.878 Z0.522 E62.7965
G1 X-29.040 Y-32.702 Z0.523 E62.9875
G1 X-18.545 Y-27.162 Z0.524 E68.0238
G1 X-18.161 Y-26.911 Z0.560 E68.2186
G1 X-17.830 Y-26.593 Z0.562 E68.4136
G1 X-10.079 Y-17.597 Z0.563 E73.5551
G1 X-9.813 Y-17.223 Z0.599 E73.7540
G1 X-9.621 Y-16.806 Z0.600 E73.9529
G1 X-5.692 Y-5.609 Z0.601 E79.1932
G1 X-5.549 Y-5.033 Z0.637 E79.4557
G1 X-3.720 Y-1.728 Z0.639 E81.1349
G1 X-0.150 Y-0.404 Z0.650 E82.8372
G1 X0.971 Y-0.404 Z0.662 E83.3391
G1 X4.540 Y-1.728 Z0.665 E85.0541
G1 X6.356 Y-5.008 Z0.676 E86.7522
G1 X10.329 Y-16.332 Z0.688 E92.2858
G1 X10.453 Y-16.832 Z0.724 E92.5233
G1 X10.621 Y-17.197 Z0.725 E92.7091
G1 X18.373 Y-26.193 Z0.727 E98.2867
G1 X18.671 Y-26.612 Z0.762 E98.5288
G1 X18.961 Y-26.891 Z0.764 E98.7179
G1 X29.456 Y-32.431 Z0.765 E104.3949
G1 X29.887 Y-32.713 Z0.801 E104.6413
G1 X30.259 Y-32.867 Z0.802 E104.8340
G1 X42.058 Y-34.192 Z0.803 E110.6160
G1 X42.562 Y-34.296 Z0.839 E110.8669
G1 X42.964 Y-34.304 Z0.841 E111.0630
G1 X54.432 Y-31.228 Z0.842 E116.9477
G1 X54.939 Y-31.141 Z0.878 E117.2031
G1 X55.316 Y-31.001 Z0.879 E117.4026
G1 X64.865 Y-23.952 Z0.880 E123.3874
G1 X65.306 Y-23.686 Z0.916 E123.6472
G1 X65.605 Y-23.418 Z0.918 E123.8503
G1 X71.923 Y-13.361 Z0.919 E129.9414
G1 X72.237 Y-12.953 Z0.955 E130.2057
G1 X72.418 Y-12.594 Z0.956 E130.4122
G1 X74.625 Y-0.928 Z0.957 E136.6042
G1 X74.767 Y-0.433 Z0.993 E136.8729
G1 X74.805 Y-0.033 Z0.995 E137.0828
G1 X72.598 Y11.633 Z0.996 E143.3773
G1 X72.550 Y12.146 Z1.031 E143.6505
G1 X72.430 Y12.560 Z1.033 E143.8790
G1 X72.224 Y12.969 Z1.034 E144.1227
G1 X65.906 Y23.026 Z1.036 E150.5256
G1 X65.627 Y23.390 Z1.071 E150.7731
G1 X65.285 Y23.696 Z1.073 E151.0207
G1 X55.736 Y30.746 Z1.074 E157.5220
G1 X55.343 Y30.982 Z1.110 E157.7735
G1 X54.913 Y31.142 Z1.111 E158.0250
G1 X43.444 Y34.218 Z1.113 E164.6315
G1 X42.992 Y34.295 Z1.148 E164.8869
G1 X42.533 Y34.287 Z1.150 E165.1424
G1 X30.734 Y32.962 Z1.151 E171.8511
G1 X30.285 Y32.869 Z1.187 E172.1105
G1 X29.861 Y32.694 Z1.188 E172.3699
G1 X19.365 Y27.153 Z1.189 E179.1781
G1 X18.981 Y26.902 Z1.225 E179.4414
G1 X18.651 Y26.584 Z1.227 E179.7049
G1 X10.899 Y17.588 Z1.228 E186.6193
G1 X10.633 Y17.214 Z1.264 E186.8867
G1 X10.442 Y16.797 Z1.265 E187.1541
G1 X6.513 Y5.600 Z1.266 E194.1660
G1 X6.369 Y5.024 Z1.302 E194.5172
G1 X4.540 Y1.719 Z1.304 E196.7602
G1 X0.971 Y0.396 Z1.315 E199.0310
G1 X-0.150 Y0.396 Z1.327 E199.7001
; layer 2, Z = 2.66
M106 S255
; outer perimeter
G92 E0
G1 X-3.720 Y1.719 Z1.330 E2.2736 F600
G1 X-5.535 Y4.999 Z1.341 E4.5123
G1 X-8.793 Y14.283 Z1.353 E10.3881
G1 X-9.180 Y15.837 Z1.382 E11.3443
G1 X-9.801 Y17.189 Z1.387 E12.2331
G1 X-16.140 Y24.546 Z1.392 E18.0324
G1 X-17.068 Y25.851 Z1.421 E18.9885
G1 X-18.141 Y26.883 Z1.426 E19.8773
G1 X-26.724 Y31.414 Z1.430 E25.6733
G1 X-28.064 Y32.290 Z1.459 E26.6294
G1 X-29.439 Y32.858 Z1.464 E27.5183
G1 X-39.088 Y33.942 Z1.468 E33.3169
G1 X-40.656 Y34.268 Z1.498 E34.2730
G1 X-42.144 Y34.295 Z1.502 E35.1618
G1 X-51.523 Y31.779 Z1.507 E40.9607
G1 X-53.101 Y31.510 Z1.536 E41.9168
G1 X-54.496 Y30.992 Z1.541 E42.8056
G1 X-62.305 Y25.227 Z1.545 E48.6021
G1 X-63.676 Y24.400 Z1.575 E49.5582
G1 X-64.786 Y23.408 Z1.579 E50.4471
G1 X-69.952 Y15.184 Z1.584 E56.2472
G1 X-70.927 Y13.914 Z1.613 E57.2033
G1 X-71.597 Y12.585 Z1.618 E58.0922
G1 X-73.402 Y3.044 Z1.622 E63.8907
G1 X-73.845 Y1.506 Z1.651 E64.8469
G1 X-73.984 Y0.024 Z1.656 E65.7357
G1 X-72.179 Y-9.517 Z1.661 E71.5343
G1 X-72.030 Y-11.111 Z1.690 E72.4904
G1 X-71.610 Y-12.568 Z1.695 E73.3962
G1 X-70.914 Y-13.948 Z1.699 E74.3188
G1 X-65.747 Y-22.172 Z1.704 E80.1192
G1 X-64.807 Y-23.398 Z1.733 E81.0419
G1 X-63.655 Y-24.428 Z1.738 E81.9645
G1 X-55.846 Y-30.193 Z1.742 E87.7613
G1 X-54.523 Y-30.991 Z1.772 E88.6840
G1 X-53.075 Y-31.529 Z1.776 E89.6065
G1 X-43.695 Y-34.045 Z1.781 E95.4056
G1 X-42.172 Y-34.304 Z1.810 E96.3283
G1 X-40.628 Y-34.276 Z1.815 E97.2509
G1 X-30.978 Y-33.193 Z1.819 E103.0498
G1 X-29.465 Y-32.878 Z1.848 E103.9724
G1 X-28.038 Y-32.288 Z1.853 E104.8950
G1 X-19.454 Y-27.757 Z1.858 E110.6913
G1 X-18.161 Y-26.911 Z1.887 E111.6140
G1 X-17.048 Y-25.840 Z1.892 E112.5366
G1 X-10.708 Y-18.483 Z1.896 E118.3361
G1 X-9.813 Y-17.224 Z1.925 E119.2588
G1 X-9.168 Y-15.820 Z1.930 E120.1814
G1 X-5.955 Y-6.663 Z1.935 E125.9768
G1 X-5.549 Y-5.033 Z1.964 E126.9801
G1 X-3.720 Y-1.728 Z1.969 E129.2358
G1 X-0.150 Y-0.404 Z1.980 E131.5094
G1 X0.971 Y-0.404 Z1.992 E132.1785
G1 X4.540 Y-1.728 Z1.995 E134.4521
G1 X6.356 Y-5.008 Z2.006 E136.6908
G1 X9.613 Y-14.292 Z2.018 E142.5666
G1 X10.000 Y-15.846 Z2.047 E143.5227
G1 X10.622 Y-17.198 Z2.052 E144.4116
G1 X16.961 Y-24.555 Z2.057 E150.2109
G1 X17.889 Y-25.860 Z2.086 E151.1670
G1 X18.961 Y-26.892 Z2.091 E152.0558
G1 X27.544 Y-31.422 Z2.095 E157.8518
G1 X28.884 Y-32.298 Z2.124 E158.8080
G1 X30.260 Y-32.867 Z2.129 E159.6968
G1 X39.909 Y-33.951 Z2.133 E165.4954
G1 X41.477 Y-34.277 Z2.163 E166.4515
G1 X42.965 Y-34.304 Z2.167 E167.3403
G1 X52.343 Y-31.788 Z2.172 E173.1391
G1 X53.922 Y-31.519 Z2.201 E174.0953
G1 X55.317 Y-31.001 Z2.206 E174.9841
G1 X63.126 Y-25.236 Z2.210 E180.7806
G1 X64.497 Y-24.409 Z2.240 E181.7367
G1 X65.606 Y-23.417 Z2.244 E182.6255
G1 X70.773 Y-15.193 Z2.249 E188.4257
G1 X71.747 Y-13.922 Z2.278 E189.3818
G1 X72.418 Y-12.594 Z2.283 E190.2707
G1 X74.223 Y-3.053 Z2.287 E196.0692
G1 X74.666 Y-1.515 Z2.316 E197.0254
G1 X74.805 Y-0.033 Z2.321 E197.9142
G1 X73.000 Y9.508 Z2.326 E203.7127
G1 X72.850 Y11.102 Z2.355 E204.6689
G1 X72.431 Y12.559 Z2.360 E205.5747
G1 X71.735 Y13.939 Z2.364 E206.4973
G1 X66.568 Y22.163 Z2.369 E212.2977
G1 X65.627 Y23.389 Z2.398 E213.2204
G1 X64.476 Y24.419 Z2.403 E214.1430
G1 X56.666 Y30.184 Z2.407 E219.9398
G1 X55.343 Y30.982 Z2.437 E220.8624
G1 X53.895 Y31.520 Z2.441 E221.7850
G1 X44.516 Y34.036 Z2.446 E227.5841
G1 X42.993 Y34.295 Z2.475 E228.5068
G1 X41.448 Y34.267 Z2.480 E229.4294
G1 X31.799 Y33.184 Z2.484 E235.2283
G1 X30.286 Y32.869 Z2.513 E236.1509
G1 X28.858 Y32.279 Z2.518 E237.0735
G1 X20.275 Y27.748 Z2.523 E242.8698
G1 X18.982 Y26.902 Z2.552 E243.7925
G1 X17.868 Y25.831 Z2.557 E244.7150
G1 X11.529 Y18.474 Z2.561 E250.5146
G1 X10.634 Y17.215 Z2.590 E251.4373
G1 X9.988 Y15.811 Z2.595 E252.3599
G1 X6.775 Y6.654 Z2.600 E258.1553
G1 X6.369 Y5.024 Z2.629 E259.1586
G1 X4.540 Y1.719 Z2.634 E261.4143
G1 X0.971 Y0.396 Z2.645 E263.6879
G1 X-0.150 Y0.396 Z2.657 E264.3570
; layer 3, Z = 3.99
; outer perimeter
G92 E0
G1 X-3.719 Y1.719 Z2.660 E2.2735 F600
G1 X-5.535 Y4.999 Z2.671 E4.5123
G1 X-8.077 Y12.244 Z2.683 E9.0971
G1 X-8.726 Y14.851 Z2.706 E10.7019
G1 X-9.802 Y17.190 Z2.714 E12.2394
G1 X-14.729 Y22.908 Z2.722 E16.7468
G1 X-16.285 Y25.098 Z2.744 E18.3515
G1 X-18.141 Y26.883 Z2.752 E19.8890
G1 X-24.812 Y30.405 Z2.760 E24.3938
G1 X-27.061 Y31.875 Z2.783 E25.9986
G1 X-29.440 Y32.859 Z2.791 E27.5360
G1 X-36.940 Y33.701 Z2.798 E32.0429
G1 X-39.571 Y34.248 Z2.821 E33.6476
G1 X-42.145 Y34.295 Z2.829 E35.1851
G1 X-49.434 Y32.340 Z2.837 E39.6921
G1 X-52.083 Y31.888 Z2.860 E41.2969
G1 X-54.497 Y30.992 Z2.868 E42.8343
G1 X-60.566 Y26.511 Z2.875 E47.3395
G1 X-62.867 Y25.123 Z2.898 E48.9443
G1 X-64.786 Y23.407 Z2.906 E50.4817
G1 X-68.802 Y17.015 Z2.914 E54.9898
G1 X-70.438 Y14.883 Z2.936 E56.5946
G1 X-71.597 Y12.585 Z2.945 E58.1320
G1 X-73.000 Y5.169 Z2.952 E62.6388
G1 X-73.744 Y2.587 Z2.975 E64.2436
G1 X-73.984 Y0.024 Z2.983 E65.7810
G1 X-72.581 Y-7.391 Z2.991 E70.2879
G1 X-72.331 Y-10.067 Z3.013 E71.8926
G1 X-71.610 Y-12.568 Z3.021 E73.4471
G1 X-70.425 Y-14.917 Z3.029 E75.0183
G1 X-66.409 Y-21.310 Z3.037 E79.5267
G1 X-64.808 Y-23.397 Z3.060 E81.0979
G1 X-62.846 Y-25.151 Z3.068 E82.6692
G1 X-56.777 Y-29.632 Z3.076 E87.1747
G1 X-54.523 Y-30.991 Z3.098 E88.7460
G1 X-52.057 Y-31.907 Z3.106 E90.3172
G1 X-44.767 Y-33.862 Z3.114 E94.8245
G1 X-42.173 Y-34.304 Z3.137 E96.3958
G1 X-39.543 Y-34.256 Z3.145 E97.9670
G1 X-32.043 Y-33.414 Z3.153 E102.4742
G1 X-29.467 Y-32.878 Z3.175 E104.0455
G1 X-27.035 Y-31.873 Z3.183 E105.6167
G1 X-20.364 Y-28.351 Z3.191 E110.1218
G1 X-18.161 Y-26.912 Z3.214 E111.6931
G1 X-16.265 Y-25.088 Z3.222 E113.2644
G1 X-11.338 Y-19.370 Z3.229 E117.7720
G1 X-9.814 Y-17.225 Z3.252 E119.3433
G1 X-8.714 Y-14.834 Z3.260 E120.9145
G1 X-6.217 Y-7.717 Z3.268 E125.4189
G1 X-5.549 Y-5.033 Z3.291 E127.0709
G1 X-3.719 Y-1.728 Z3.299 E129.3266
G1 X-0.150 Y-0.404 Z3.310 E131.6001
G1 X0.971 Y-0.404 Z3.322 E132.2693
G1 X4.540 Y-1.728 Z3.325 E134.5428
G1 X6.356 Y-5.008 Z3.336 E136.7816
G1 X8.898 Y-12.252 Z3.348 E141.3664
G1 X9.547 Y-14.860 Z3.371 E142.9712
G1 X10.622 Y-17.199 Z3.379 E144.5087
G1 X15.549 Y-22.917 Z3.387 E149.0160
G1 X17.106 Y-25.107 Z3.409 E150.6208
G1 X18.962 Y-26.892 Z3.417 E152.1582
G1 X25.633 Y-30.413 Z3.425 E156.6631
G1 X27.882 Y-31.884 Z3.448 E158.2678
G1 X30.261 Y-32.868 Z3.456 E159.8053
G1 X37.761 Y-33.710 Z3.463 E164.3121
G1 X40.392 Y-34.257 Z3.486 E165.9169
G1 X42.966 Y-34.304 Z3.494 E167.4543
G1 X50.255 Y-32.349 Z3.502 E171.9613
G1 X52.904 Y-31.897 Z3.525 E173.5661
G1 X55.317 Y-31.001 Z3.533 E175.1036
G1 X61.387 Y-26.520 Z3.540 E179.6088
G1 X63.688 Y-25.132 Z3.563 E181.2135
G1 X65.607 Y-23.416 Z3.571 E182.7510
G1 X69.623 Y-17.024 Z3.579 E187.2591
G1 X71.258 Y-14.892 Z3.601 E188.8638
G1 X72.418 Y-12.593 Z3.610 E190.4013
G1 X73.821 Y-5.178 Z3.617 E194.9081
G1 X74.565 Y-2.596 Z3.640 E196.5129
G1 X74.805 Y-0.033 Z3.648 E198.0503
G1 X73.402 Y7.382 Z3.656 E202.5571
G1 X73.151 Y10.058 Z3.678 E204.1619
G1 X72.431 Y12.559 Z3.686 E205.7164
G1 X71.246 Y14.908 Z3.694 E207.2876
G1 X67.229 Y21.301 Z3.702 E211.7959
