; G-Code generated by Simplify3D(R) Version 3.1.1
; Aug 13, 2018 at 11:30:08 AM
; Settings Summary
;   processName,Process1
;   applyToModels,hosenrohr_ohne_versatz
;   profileName,Default (modified)
;   profileVersion,2015-05-01 08:00:00
;   baseProfile,
;   printMaterial,PLA
;   printQuality,High
;   printExtruders,
;   extruderName,Primary Extruder
;   extruderToolheadNumber,0
;   extruderDiameter,1
;   extruderAutoWidth,1
;   extruderWidth,1.2
;   extrusionMultiplier,0.9
;   extruderUseRetract,0
;   extruderRetractionDistance,1
;   extruderExtraRestartDistance,0
;   extruderRetractionZLift,0
;   extruderRetractionSpeed,1800
;   extruderUseCoasting,0
;   extruderCoastingDistance,0.2
;   extruderUseWipe,0
;   extruderWipeDistance,5
;   primaryExtruder,0
;   layerHeight,0.61
;   topSolidLayers,0
;   bottomSolidLayers,0
;   perimeterOutlines,1
;   printPerimetersInsideOut,1
;   startPointOption,2
;   startPointOriginX,0
;   startPointOriginY,0
;   startPointOriginZ,300
;   sequentialIslands,0
;   spiralVaseMode,1
;   firstLayerHeightPercentage,150
;   firstLayerWidthPercentage,100
;   firstLayerUnderspeed,1
;   useRaft,0
;   raftExtruder,0
;   raftLayers,3
;   raftOffset,3
;   raftSeparationDistance,0.14
;   raftInfill,85
;   disableRaftBaseLayers,0
;   useSkirt,0
;   skirtExtruder,0
;   skirtLayers,2
;   skirtOutlines,2
;   skirtOffset,4
;   usePrimePillar,0
;   primePillarExtruder,999
;   primePillarWidth,12
;   primePillarLocation,7
;   primePillarSpeedMultiplier,1
;   useOozeShield,0
;   oozeShieldExtruder,999
;   oozeShieldOffset,2
;   oozeShieldOutlines,1
;   oozeShieldSidewallShape,1
;   oozeShieldSidewallAngle,30
;   oozeShieldSpeedMultiplier,1
;   infillExtruder,0
;   internalInfillPattern,Rectilinear
;   externalInfillPattern,Rectilinear
;   infillPercentage,0
;   outlineOverlapPercentage,0
;   infillExtrusionWidthPercentage,100
;   minInfillLength,5
;   infillLayerInterval,1
;   infillAngles,0
;   overlapInfillAngles,0
;   generateSupport,0
;   supportExtruder,0
;   supportInfillPercentage,40
;   supportExtraInflation,0
;   denseSupportLayers,0
;   denseSupportInfillPercentage,70
;   supportLayerInterval,1
;   supportHorizontalPartOffset,0.3
;   supportUpperSeparationLayers,1
;   supportLowerSeparationLayers,1
;   supportType,0
;   supportGridSpacing,4
;   maxOverhangAngle,45
;   supportAngles,0
;   temperatureName,Primary Extruder
;   temperatureNumber,0
;   temperatureSetpointCount,1
;   temperatureSetpointLayers,1
;   temperatureSetpointTemperatures,0
;   temperatureStabilizeAtStartup,1
;   temperatureHeatedBed,0
;   temperatureRelayBetweenLayers,0
;   temperatureRelayBetweenLoops,0
;   fanLayers,1,2
;   fanSpeeds,0,100
;   blipFanToFullPower,0
;   adjustSpeedForCooling,0
;   minSpeedLayerTime,15
;   minCoolingSpeedSlowdown,20
;   increaseFanForCooling,0
;   minFanLayerTime,45
;   maxCoolingFanSpeed,100
;   increaseFanForBridging,0
;   bridgingFanSpeed,100
;   use5D,1
;   relativeEdistances,0
;   allowEaxisZeroing,1
;   independentExtruderAxes,0
;   includeM10123,0
;   stickySupport,1
;   applyToolheadOffsets,0
;   gcodeXoffset,0
;   gcodeYoffset,0
;   gcodeZoffset,0
;   overrideMachineDefinition,0
;   machineTypeOverride,0
;   strokeXoverride,200
;   strokeYoverride,200
;   strokeZoverride,200
;   originOffsetXoverride,0
;   originOffsetYoverride,0
;   originOffsetZoverride,0
;   homeXdirOverride,-1
;   homeYdirOverride,-1
;   homeZdirOverride,-1
;   flipXoverride,1
;   flipYoverride,-1
;   flipZoverride,1
;   toolheadOffsets,0,0|0,0|0,0|0,0|0,0|0,0
;   overrideFirmwareConfiguration,0
;   firmwareTypeOverride,RepRap (Marlin/Repetier/Sprinter)
;   GPXconfigOverride,r2
;   baudRateOverride,115200
;   overridePrinterModels,0
;   printerModelsOverride
;   startingGcode,G28 ; home all axes
;   layerChangeGcode,
;   retractionGcode,
;   toolChangeGcode,
;   endingGcode,M104 S0 ; turn off extruder,M140 S0 ; turn off bed,M84 ; disable motors
;   exportFileFormat,gcode
;   celebration,0
;   celebrationSong,Random Song
;   postProcessing,
;   defaultSpeed,600
;   outlineUnderspeed,1
;   solidInfillUnderspeed,0.8
;   supportUnderspeed,0.8
;   rapidXYspeed,4800
;   rapidZspeed,1000
;   minBridgingArea,40
;   bridgingExtraInflation,1
;   bridgingExtrusionMultiplier,1
;   bridgingSpeedMultiplier,1
;   filamentDiameter,1.75
;   filamentPricePerKg,46
;   filamentDensity,1.25
;   useMinPrintHeight,0
;   minPrintHeight,0
;   useMaxPrintHeight,0
;   maxPrintHeight,0
;   useDiaphragm,0
;   diaphragmLayerInterval,20
;   robustSlicing,0
;   mergeAllIntoSolid,1
;   onlyRetractWhenCrossingOutline,1
;   retractBetweenLayers,0
;   useRetractionMinTravel,0
;   retractionMinTravel,3
;   retractWhileWiping,0
;   onlyWipeOutlines,1
;   avoidCrossingOutline,0
;   maxMovementDetourFactor,3
;   toolChangeRetractionDistance,0
;   toolChangeExtraRestartDistance,0
;   toolChangeRetractionSpeed,600
;   allowThinWallGapFill,0
;   thinWallAllowedOverlapPercentage,0
;   horizontalSizeCompensation,0
G90
M82
M106 S0
M104 S0 T0
G28 ; home all axes
G92 E0
G1 E-1.0000 F1800
G1 Z0.000 F1000
; layer 1, Z = 0.915
T0
; tool H0.915 W1.200
; outer perimeter
G1 X-0.150 Y0.396 F4800
G1 E0.0000 F540
G92 E0
G1 X-3.720 Y1.719 Z0.000 E0.7888 F600
G1 X-5.535 Y4.999 Z0.008 E1.5721
G1 X-9.620 Y16.642 Z0.016 E4.2206
G1 X-9.704 Y16.977 Z0.041 E4.2948
G1 X-9.801 Y17.188 Z0.042 E4.3448
G1 X-17.772 Y26.439 Z0.042 E7.0388
G1 X-17.972 Y26.721 Z0.068 E7.1151
G1 X-18.140 Y26.882 Z0.068 E7.1665
G1 X-28.934 Y32.580 Z0.069 E9.9314
G1 X-29.223 Y32.769 Z0.094 E10.0097
G1 X-29.438 Y32.858 Z0.095 E10.0625
G1 X-41.572 Y34.220 Z0.095 E12.9011
G1 X-41.910 Y34.291 Z0.121 E12.9815
G1 X-42.143 Y34.295 Z0.121 E13.0357
G1 X-53.937 Y31.131 Z0.122 E15.9470
G1 X-54.277 Y31.073 Z0.147 E16.0294
G1 X-54.496 Y30.992 Z0.148 E16.0849
G1 X-64.315 Y23.743 Z0.148 E19.0675
G1 X-64.611 Y23.564 Z0.173 E19.1520
G1 X-64.785 Y23.409 Z0.174 E19.2089
G1 X-71.282 Y13.067 Z0.175 E22.2660
G1 X-71.492 Y12.793 Z0.200 E22.3525
G1 X-71.597 Y12.585 Z0.201 E22.4108
G1 X-73.867 Y0.588 Z0.201 E25.5395
G1 X-73.963 Y0.256 Z0.226 E25.6281
G1 X-73.984 Y0.024 Z0.227 E25.6878
G1 X-71.714 Y-11.974 Z0.228 E28.8891
G1 X-71.682 Y-12.318 Z0.253 E28.9797
G1 X-71.610 Y-12.569 Z0.253 E29.0482
G1 X-71.480 Y-12.827 Z0.254 E29.1242
G1 X-64.982 Y-23.169 Z0.255 E32.4008
G1 X-64.806 Y-23.399 Z0.280 E32.4785
G1 X-64.590 Y-23.592 Z0.281 E32.5561
G1 X-54.770 Y-30.842 Z0.281 E35.9032
G1 X-54.522 Y-30.991 Z0.306 E35.9826
G1 X-54.251 Y-31.092 Z0.307 E36.0620
G1 X-42.456 Y-34.256 Z0.308 E39.4829
G1 X-42.171 Y-34.304 Z0.333 E39.5640
G1 X-41.882 Y-34.299 Z0.333 E39.6451
G1 X-29.747 Y-32.937 Z0.334 E43.1384
G1 X-29.464 Y-32.878 Z0.359 E43.2213
G1 X-29.197 Y-32.767 Z0.360 E43.3041
G1 X-18.403 Y-27.069 Z0.360 E46.8683
G1 X-18.161 Y-26.911 Z0.386 E46.9528
G1 X-17.952 Y-26.710 Z0.386 E47.0374
G1 X-9.980 Y-17.459 Z0.387 E50.6761
G1 X-9.813 Y-17.223 Z0.412 E50.7624
G1 X-9.692 Y-16.960 Z0.413 E50.8487
G1 X-5.651 Y-5.445 Z0.413 E54.5573
G1 X-5.549 Y-5.033 Z0.439 E54.6864
G1 X-3.720 Y-1.728 Z0.439 E55.8416
G1 X-0.150 Y-0.404 Z0.447 E57.0128
G1 X0.971 Y-0.404 Z0.455 E57.3580
G1 X4.540 Y-1.728 Z0.458 E58.5379
G1 X6.356 Y-5.008 Z0.465 E59.7061
G1 X10.441 Y-16.650 Z0.473 E63.6220
G1 X10.524 Y-16.986 Z0.499 E63.7317
G1 X10.621 Y-17.197 Z0.499 E63.8056
G1 X18.593 Y-26.448 Z0.500 E67.7539
G1 X18.793 Y-26.730 Z0.525 E67.8656
G1 X18.961 Y-26.891 Z0.526 E67.9409
G1 X29.754 Y-32.589 Z0.526 E71.9594
G1 X30.043 Y-32.778 Z0.552 E72.0732
G1 X30.258 Y-32.867 Z0.552 E72.1499
G1 X42.393 Y-34.229 Z0.553 E76.2427
G1 X42.731 Y-34.300 Z0.578 E76.3586
G1 X42.964 Y-34.304 Z0.579 E76.4366
G1 X54.758 Y-31.140 Z0.579 E80.6021
G1 X55.098 Y-31.082 Z0.604 E80.7200
G1 X55.316 Y-31.001 Z0.605 E80.7994
G1 X65.136 Y-23.751 Z0.606 E85.0358
G1 X65.432 Y-23.573 Z0.631 E85.1557
G1 X65.605 Y-23.418 Z0.632 E85.2365
G1 X72.103 Y-13.076 Z0.632 E89.5481
G1 X72.313 Y-12.802 Z0.657 E89.6701
G1 X72.418 Y-12.594 Z0.658 E89.7523
G1 X74.688 Y-0.596 Z0.659 E94.1352
G1 X74.783 Y-0.264 Z0.684 E94.2592
G1 X74.805 Y-0.033 Z0.685 E94.3428
G1 X72.535 Y11.965 Z0.685 E98.7982
G1 X72.503 Y12.309 Z0.710 E98.9243
G1 X72.430 Y12.560 Z0.711 E99.0197
G1 X72.300 Y12.818 Z0.712 E99.1253
G1 X65.802 Y23.161 Z0.712 E103.6566
G1 X65.626 Y23.390 Z0.737 E103.7639
G1 X65.411 Y23.583 Z0.738 E103.8713
G1 X55.591 Y30.833 Z0.739 E108.4721
G1 X55.343 Y30.983 Z0.764 E108.5812
G1 X55.072 Y31.083 Z0.764 E108.6903
G1 X43.277 Y34.247 Z0.765 E113.3655
G1 X42.992 Y34.295 Z0.790 E113.4763
G1 X42.703 Y34.290 Z0.791 E113.5872
G1 X30.568 Y32.928 Z0.792 E118.3347
G1 X30.285 Y32.869 Z0.817 E118.4472
G1 X30.017 Y32.758 Z0.817 E118.5598
G1 X19.223 Y27.060 Z0.818 E123.3776
G1 X18.981 Y26.902 Z0.843 E123.4919
G1 X18.773 Y26.701 Z0.844 E123.6062
G1 X10.801 Y17.450 Z0.844 E128.4993
G1 X10.633 Y17.214 Z0.870 E128.6153
G1 X10.512 Y16.951 Z0.870 E128.7313
G1 X6.472 Y5.436 Z0.871 E133.6933
G1 X6.369 Y5.024 Z0.896 E133.8660
G1 X4.540 Y1.719 Z0.897 E135.4091
G1 X0.971 Y0.396 Z0.905 E136.9713
G1 X-0.150 Y0.396 Z0.913 E137.4317
; layer 2, Z = 1.525
M106 S255
; tool H0.610 W1.200
; outer perimeter
G92 E0
G1 X-3.720 Y1.719 Z0.915 E1.0428 F600
G1 X-5.535 Y4.999 Z0.920 E2.0696
G1 X-9.210 Y15.472 Z0.925 E5.1095
G1 X-9.444 Y16.412 Z0.941 E5.3747
G1 X-9.801 Y17.189 Z0.942 E5.6090
G1 X-16.963 Y25.500 Z0.943 E8.6141
G1 X-17.524 Y26.290 Z0.958 E8.8792
G1 X-18.140 Y26.883 Z0.960 E9.1136
G1 X-27.838 Y32.001 Z0.961 E12.1170
G1 X-28.648 Y32.531 Z0.976 E12.3821
G1 X-29.438 Y32.858 Z0.977 E12.6164
G1 X-40.340 Y34.082 Z0.978 E15.6212
G1 X-41.288 Y34.279 Z0.994 E15.8863
G1 X-42.143 Y34.295 Z0.995 E16.1206
G1 X-52.740 Y31.453 Z0.996 E19.1255
G1 X-53.694 Y31.290 Z1.011 E19.3907
G1 X-54.496 Y30.992 Z1.013 E19.6250
G1 X-63.318 Y24.479 Z1.014 E22.6286
G1 X-64.147 Y23.979 Z1.029 E22.8938
G1 X-64.785 Y23.409 Z1.030 E23.1281
G1 X-70.623 Y14.117 Z1.031 E26.1336
G1 X-71.212 Y13.349 Z1.047 E26.3988
G1 X-71.597 Y12.585 Z1.048 E26.6331
G1 X-73.637 Y1.806 Z1.049 E29.6379
G1 X-73.905 Y0.876 Z1.064 E29.9030
G1 X-73.984 Y0.024 Z1.066 E30.1373
G1 X-71.945 Y-10.755 Z1.067 E33.1420
G1 X-71.855 Y-11.719 Z1.082 E33.4072
G1 X-71.610 Y-12.568 Z1.083 E33.6493
G1 X-71.199 Y-13.383 Z1.084 E33.8991
G1 X-65.361 Y-22.675 Z1.086 E36.9048
G1 X-64.806 Y-23.399 Z1.101 E37.1546
G1 X-64.126 Y-24.006 Z1.102 E37.4044
G1 X-55.304 Y-30.520 Z1.103 E40.4082
G1 X-54.523 Y-30.991 Z1.118 E40.6580
G1 X-53.668 Y-31.309 Z1.120 E40.9078
G1 X-43.071 Y-34.151 Z1.121 E43.9128
G1 X-42.172 Y-34.304 Z1.136 E44.1626
G1 X-41.260 Y-34.288 Z1.137 E44.4124
G1 X-30.358 Y-33.064 Z1.139 E47.4173
G1 X-29.465 Y-32.878 Z1.154 E47.6671
G1 X-28.622 Y-32.529 Z1.155 E47.9169
G1 X-18.924 Y-27.410 Z1.156 E50.9204
G1 X-18.161 Y-26.911 Z1.171 E51.1702
G1 X-17.504 Y-26.279 Z1.173 E51.4200
G1 X-10.341 Y-17.967 Z1.174 E54.4252
G1 X-9.813 Y-17.223 Z1.189 E54.6751
G1 X-9.432 Y-16.395 Z1.190 E54.9249
G1 X-5.802 Y-6.049 Z1.191 E57.9279
G1 X-5.549 Y-5.033 Z1.207 E58.2147
G1 X-3.720 Y-1.728 Z1.208 E59.2493
G1 X-0.150 Y-0.404 Z1.213 E60.2921
G1 X0.971 Y-0.404 Z1.218 E60.5990
G1 X4.540 Y-1.728 Z1.220 E61.6418
G1 X6.356 Y-5.008 Z1.225 E62.6685
G1 X10.030 Y-15.481 Z1.230 E65.7085
G1 X10.264 Y-16.420 Z1.246 E65.9736
G1 X10.622 Y-17.198 Z1.247 E66.2080
G1 X17.784 Y-25.509 Z1.248 E69.2130
G1 X18.344 Y-26.298 Z1.263 E69.4782
G1 X18.961 Y-26.891 Z1.265 E69.7125
G1 X28.658 Y-32.010 Z1.266 E72.7159
G1 X29.469 Y-32.540 Z1.281 E72.9811
G1 X30.259 Y-32.867 Z1.282 E73.2154
G1 X41.161 Y-34.091 Z1.283 E76.2201
G1 X42.109 Y-34.288 Z1.299 E76.4853
G1 X42.964 Y-34.304 Z1.300 E76.7196
G1 X53.560 Y-31.462 Z1.301 E79.7244
G1 X54.515 Y-31.299 Z1.316 E79.9896
G1 X55.317 Y-31.001 Z1.318 E80.2239
G1 X64.139 Y-24.488 Z1.319 E83.2276
G1 X64.968 Y-23.988 Z1.334 E83.4927
G1 X65.606 Y-23.418 Z1.335 E83.7270
G1 X71.443 Y-14.126 Z1.336 E86.7326
G1 X72.032 Y-13.357 Z1.352 E86.9978
G1 X72.418 Y-12.594 Z1.353 E87.2321
G1 X74.457 Y-1.815 Z1.354 E90.2368
G1 X74.725 Y-0.884 Z1.369 E90.5020
G1 X74.805 Y-0.033 Z1.371 E90.7363
G1 X72.766 Y10.746 Z1.372 E93.7410
G1 X72.675 Y11.710 Z1.387 E94.0062
G1 X72.431 Y12.560 Z1.388 E94.2483
G1 X72.020 Y13.374 Z1.389 E94.4981
G1 X66.182 Y22.666 Z1.391 E97.5037
G1 X65.627 Y23.390 Z1.406 E97.7536
G1 X64.947 Y23.998 Z1.407 E98.0033
G1 X56.124 Y30.511 Z1.408 E101.0072
G1 X55.343 Y30.982 Z1.423 E101.2570
G1 X54.488 Y31.300 Z1.425 E101.5067
G1 X43.892 Y34.142 Z1.426 E104.5117
G1 X42.992 Y34.295 Z1.441 E104.7616
G1 X42.081 Y34.279 Z1.442 E105.0114
G1 X31.178 Y33.055 Z1.444 E108.0162
G1 X30.285 Y32.869 Z1.459 E108.2660
G1 X29.443 Y32.520 Z1.460 E108.5158
G1 X19.745 Y27.401 Z1.461 E111.5194
G1 X18.981 Y26.902 Z1.476 E111.7692
G1 X18.324 Y26.270 Z1.478 E112.0190
G1 X11.162 Y17.958 Z1.479 E115.0242
G1 X10.634 Y17.215 Z1.494 E115.2740
G1 X10.253 Y16.386 Z1.495 E115.5238
G1 X6.622 Y6.040 Z1.496 E118.5269
G1 X6.369 Y5.024 Z1.512 E118.8137
G1 X4.540 Y1.719 Z1.513 E119.8482
G1 X0.971 Y0.396 Z1.518 E120.8910
G1 X-0.150 Y0.396 Z1.523 E121.1979
; layer 3, Z = 2.135
; outer perimeter
G92 E0
G1 X-3.720 Y1.719 Z1.525 E1.0428 F600
G1 X-5.535 Y4.999 Z1.530 E2.0696
G1 X-8.881 Y14.537 Z1.535 E4.8379
G1 X-9.236 Y15.959 Z1.549 E5.2395
G1 X-9.801 Y17.189 Z1.551 E5.6103
G1 X-16.316 Y24.749 Z1.553 E8.3437
G1 X-17.165 Y25.944 Z1.567 E8.7453
G1 X-18.141 Y26.883 Z1.569 E9.1160
G1 X-26.961 Y31.539 Z1.571 E11.8478
G1 X-28.188 Y32.341 Z1.585 E12.2494
G1 X-29.439 Y32.858 Z1.587 E12.6202
G1 X-39.355 Y33.972 Z1.588 E15.3532
G1 X-40.791 Y34.270 Z1.602 E15.7548
G1 X-42.144 Y34.295 Z1.604 E16.1255
G1 X-51.782 Y31.710 Z1.606 E18.8586
G1 X-53.227 Y31.464 Z1.620 E19.2603
G1 X-54.496 Y30.992 Z1.622 E19.6310
G1 X-62.521 Y25.068 Z1.624 E22.3630
G1 X-63.776 Y24.311 Z1.638 E22.7646
G1 X-64.785 Y23.408 Z1.640 E23.1354
G1 X-70.095 Y14.957 Z1.641 E25.8691
G1 X-70.987 Y13.793 Z1.655 E26.2708
G1 X-71.597 Y12.585 Z1.657 E26.6415
G1 X-73.452 Y2.781 Z1.659 E29.3745
G1 X-73.858 Y1.372 Z1.673 E29.7761
G1 X-73.984 Y0.024 Z1.675 E30.1469
G1 X-72.129 Y-9.780 Z1.677 E32.8799
G1 X-71.992 Y-11.240 Z1.690 E33.2815
G1 X-71.610 Y-12.568 Z1.692 E33.6600
G1 X-70.975 Y-13.827 Z1.694 E34.0462
G1 X-65.665 Y-22.279 Z1.696 E36.7801
G1 X-64.807 Y-23.398 Z1.710 E37.1664
G1 X-63.755 Y-24.338 Z1.712 E37.5526
G1 X-55.730 Y-30.263 Z1.714 E40.2848
G1 X-54.523 Y-30.991 Z1.728 E40.6711
G1 X-53.201 Y-31.482 Z1.730 E41.0573
G1 X-43.562 Y-34.067 Z1.732 E43.7905
G1 X-42.172 Y-34.304 Z1.745 E44.1768
G1 X-40.762 Y-34.279 Z1.747 E44.5630
G1 X-30.846 Y-33.165 Z1.749 E47.2962
G1 X-29.465 Y-32.878 Z1.763 E47.6825
G1 X-28.162 Y-32.339 Z1.765 E48.0687
G1 X-19.341 Y-27.683 Z1.767 E50.8006
G1 X-18.161 Y-26.911 Z1.781 E51.1869
G1 X-17.145 Y-25.934 Z1.783 E51.5731
G1 X-10.630 Y-18.373 Z1.784 E54.3066
G1 X-9.813 Y-17.224 Z1.798 E54.6928
G1 X-9.224 Y-15.943 Z1.800 E55.0791
G1 X-5.922 Y-6.532 Z1.802 E57.8106
G1 X-5.549 Y-5.033 Z1.816 E58.2338
G1 X-3.720 Y-1.728 Z1.818 E59.2684
G1 X-0.150 Y-0.404 Z1.823 E60.3112
G1 X0.971 Y-0.404 Z1.828 E60.6181
G1 X4.540 Y-1.728 Z1.830 E61.6608
G1 X6.356 Y-5.008 Z1.835 E62.6876
G1 X9.702 Y-14.545 Z1.840 E65.4560
G1 X10.056 Y-15.968 Z1.854 E65.8576
G1 X10.622 Y-17.198 Z1.856 E66.2284
G1 X17.136 Y-24.758 Z1.858 E68.9617
G1 X17.986 Y-25.953 Z1.872 E69.3633
G1 X18.961 Y-26.892 Z1.874 E69.7341
G1 X27.781 Y-31.548 Z1.876 E72.4658
G1 X29.009 Y-32.350 Z1.890 E72.8674
G1 X30.260 Y-32.867 Z1.892 E73.2382
G1 X40.176 Y-33.980 Z1.893 E75.9712
G1 X41.611 Y-34.279 Z1.907 E76.3728
G1 X42.965 Y-34.304 Z1.909 E76.7436
G1 X52.602 Y-31.719 Z1.911 E79.4767
G1 X54.048 Y-31.472 Z1.925 E79.8783
G1 X55.317 Y-31.001 Z1.927 E80.2491
G1 X63.341 Y-25.077 Z1.929 E82.9811
G1 X64.597 Y-24.319 Z1.943 E83.3827
G1 X65.606 Y-23.417 Z1.945 E83.7534
G1 X70.916 Y-14.966 Z1.946 E86.4872
G1 X71.808 Y-13.802 Z1.960 E86.8888
G1 X72.418 Y-12.594 Z1.962 E87.2596
G1 X74.273 Y-2.789 Z1.964 E89.9926
G1 X74.679 Y-1.380 Z1.978 E90.3942
G1 X74.805 Y-0.033 Z1.980 E90.7649
G1 X72.950 Y9.771 Z1.982 E93.4979
G1 X72.813 Y11.231 Z1.995 E93.8995
G1 X72.431 Y12.559 Z1.997 E94.2781
G1 X71.795 Y13.818 Z1.999 E94.6643
G1 X66.486 Y22.270 Z2.001 E97.3982
G1 X65.627 Y23.389 Z2.015 E97.7845
G1 X64.576 Y24.329 Z2.017 E98.1707
G1 X56.551 Y30.254 Z2.019 E100.9029
