; G-Code generated by Simplify3D(R) Version 3.1.1
; Apr 11, 2019 at 2:30:19 PM
; Settings Summary
;   processName,Kjellberg_Block
;   applyToModels,block
;   profileName,Default (modified)
;   profileVersion,2015-05-01 08:00:00
;   baseProfile,
;   printMaterial,PLA
;   printQuality,High
;   printExtruders,
;   extruderName,Primary Extruder
;   extruderToolheadNumber,0
;   extruderDiameter,1
;   extruderAutoWidth,0
;   extruderWidth,1.5
;   extrusionMultiplier,1
;   extruderUseRetract,0
;   extruderRetractionDistance,0
;   extruderExtraRestartDistance,0
;   extruderRetractionZLift,5
;   extruderRetractionSpeed,1800
;   extruderUseCoasting,0
;   extruderCoastingDistance,0.2
;   extruderUseWipe,0
;   extruderWipeDistance,5
;   primaryExtruder,0
;   layerHeight,1
;   topSolidLayers,0
;   bottomSolidLayers,0
;   perimeterOutlines,1
;   printPerimetersInsideOut,1
;   startPointOption,1
;   startPointOriginX,0
;   startPointOriginY,0
;   startPointOriginZ,300
;   sequentialIslands,1
;   spiralVaseMode,0
;   firstLayerHeightPercentage,100
;   firstLayerWidthPercentage,100
;   firstLayerUnderspeed,1
;   useRaft,0
;   raftExtruder,0
;   raftLayers,3
;   raftOffset,3
;   raftSeparationDistance,0.14
;   raftInfill,85
;   disableRaftBaseLayers,0
;   useSkirt,0
;   skirtExtruder,0
;   skirtLayers,2
;   skirtOutlines,2
;   skirtOffset,4
;   usePrimePillar,0
;   primePillarExtruder,999
;   primePillarWidth,12
;   primePillarLocation,7
;   primePillarSpeedMultiplier,1
;   useOozeShield,0
;   oozeShieldExtruder,999
;   oozeShieldOffset,2
;   oozeShieldOutlines,1
;   oozeShieldSidewallShape,1
;   oozeShieldSidewallAngle,30
;   oozeShieldSpeedMultiplier,1
;   infillExtruder,0
;   internalInfillPattern,Rectilinear
;   externalInfillPattern,Rectilinear
;   infillPercentage,100
;   outlineOverlapPercentage,10
;   infillExtrusionWidthPercentage,100
;   minInfillLength,4
;   infillLayerInterval,1
;   infillAngles,45,-45
;   overlapInfillAngles,0
;   generateSupport,0
;   supportExtruder,0
;   supportInfillPercentage,40
;   supportExtraInflation,0
;   denseSupportLayers,0
;   denseSupportInfillPercentage,70
;   supportLayerInterval,1
;   supportHorizontalPartOffset,0.3
;   supportUpperSeparationLayers,1
;   supportLowerSeparationLayers,1
;   supportType,0
;   supportGridSpacing,4
;   maxOverhangAngle,45
;   supportAngles,0
;   temperatureName,Primary Extruder
;   temperatureNumber,0
;   temperatureSetpointCount,1
;   temperatureSetpointLayers,1
;   temperatureSetpointTemperatures,0
;   temperatureStabilizeAtStartup,1
;   temperatureHeatedBed,0
;   temperatureRelayBetweenLayers,0
;   temperatureRelayBetweenLoops,0
;   fanLayers,1,2
;   fanSpeeds,0,100
;   blipFanToFullPower,0
;   adjustSpeedForCooling,0
;   minSpeedLayerTime,15
;   minCoolingSpeedSlowdown,20
;   increaseFanForCooling,0
;   minFanLayerTime,45
;   maxCoolingFanSpeed,100
;   increaseFanForBridging,0
;   bridgingFanSpeed,100
;   use5D,1
;   relativeEdistances,0
;   allowEaxisZeroing,1
;   independentExtruderAxes,0
;   includeM10123,0
;   stickySupport,1
;   applyToolheadOffsets,0
;   gcodeXoffset,0
;   gcodeYoffset,0
;   gcodeZoffset,0
;   overrideMachineDefinition,0
;   machineTypeOverride,0
;   strokeXoverride,200
;   strokeYoverride,200
;   strokeZoverride,200
;   originOffsetXoverride,0
;   originOffsetYoverride,0
;   originOffsetZoverride,0
;   homeXdirOverride,-1
;   homeYdirOverride,-1
;   homeZdirOverride,-1
;   flipXoverride,1
;   flipYoverride,-1
;   flipZoverride,1
;   toolheadOffsets,0,0|0,0|0,0|0,0|0,0|0,0
;   overrideFirmwareConfiguration,0
;   firmwareTypeOverride,RepRap (Marlin/Repetier/Sprinter)
;   GPXconfigOverride,r2
;   baudRateOverride,115200
;   overridePrinterModels,0
;   printerModelsOverride
;   startingGcode,##Start
;   layerChangeGcode,#LayerChange
;   retractionGcode,#Retraction
;   toolChangeGcode,
;   endingGcode,##End
;   exportFileFormat,gcode
;   celebration,0
;   celebrationSong,Random Song
;   postProcessing,
;   defaultSpeed,600
;   outlineUnderspeed,1
;   solidInfillUnderspeed,0.8
;   supportUnderspeed,0.8
;   rapidXYspeed,4800
;   rapidZspeed,1000
;   minBridgingArea,40
;   bridgingExtraInflation,1
;   bridgingExtrusionMultiplier,1
;   bridgingSpeedMultiplier,1
;   filamentDiameter,1.75
;   filamentPricePerKg,46
;   filamentDensity,1.25
;   useMinPrintHeight,0
;   minPrintHeight,0
;   useMaxPrintHeight,0
;   maxPrintHeight,0
;   useDiaphragm,0
;   diaphragmLayerInterval,20
;   robustSlicing,0
;   mergeAllIntoSolid,0
;   onlyRetractWhenCrossingOutline,1
;   retractBetweenLayers,0
;   useRetractionMinTravel,0
;   retractionMinTravel,3
;   retractWhileWiping,0
;   onlyWipeOutlines,1
;   avoidCrossingOutline,0
;   maxMovementDetourFactor,3
;   toolChangeRetractionDistance,0
;   toolChangeExtraRestartDistance,0
;   toolChangeRetractionSpeed,600
;   allowThinWallGapFill,1
;   thinWallAllowedOverlapPercentage,50
;   horizontalSizeCompensation,0
G90
M82
M106 S0
M104 S0 T0
##Start
G92 E0
#Retraction
G1 E0.0000 F1800
G1 Z6.000 F1000
; layer 1, Z = 1
#LayerChange
T0
; tool H1.000 W1.500
; outer perimeter
G1 X59.254 Y0.794 F4800
G1 Z1.000 F1000
G1 E0.0000 F540
G92 E0
G1 X59.254 Y9.294 E5.3008 F600
G1 X0.754 Y9.294 E41.7831
G1 X0.754 Y0.794 E47.0839
G1 X59.254 Y0.794 E83.5661
; infill
G1 X56.803 Y2.144 F4800
G92 E0
G1 X57.904 Y3.246 E0.9715 F600
G1 X57.904 Y5.367 E2.2944
G1 X54.681 Y2.144 E5.1367
G1 X52.560 Y2.144 E6.4596
G1 X57.904 Y7.489 E11.1729
G1 X57.904 Y7.944 E11.4571
G1 X56.239 Y7.944 E12.4958
G1 X50.439 Y2.144 E17.6110
G1 X48.317 Y2.144 E18.9340
G1 X54.117 Y7.944 E24.0492
G1 X51.996 Y7.944 E25.3721
G1 X46.196 Y2.144 E30.4874
G1 X44.075 Y2.144 E31.8103
G1 X49.875 Y7.944 E36.9256
G1 X47.753 Y7.944 E38.2485
G1 X41.953 Y2.144 E43.3638
G1 X39.832 Y2.144 E44.6867
G1 X45.632 Y7.944 E49.8019
G1 X43.511 Y7.944 E51.1249
G1 X37.711 Y2.144 E56.2401
G1 X35.589 Y2.144 E57.5630
G1 X41.389 Y7.944 E62.6783
G1 X39.268 Y7.944 E64.0012
G1 X33.468 Y2.144 E69.1165
G1 X31.347 Y2.144 E70.4394
G1 X37.147 Y7.944 E75.5547
G1 X35.025 Y7.944 E76.8776
G1 X29.225 Y2.144 E81.9928
G1 X27.104 Y2.144 E83.3158
G1 X32.904 Y7.944 E88.4310
G1 X30.783 Y7.944 E89.7539
G1 X24.983 Y2.144 E94.8692
G1 X22.862 Y2.144 E96.1921
G1 X28.662 Y7.944 E101.3074
G1 X26.540 Y7.944 E102.6303
G1 X20.740 Y2.144 E107.7456
G1 X18.619 Y2.144 E109.0685
G1 X24.419 Y7.944 E114.1837
G1 X22.298 Y7.944 E115.5067
G1 X16.498 Y2.144 E120.6219
G1 X14.376 Y2.144 E121.9448
G1 X20.176 Y7.944 E127.0601
G1 X18.055 Y7.944 E128.3830
G1 X12.255 Y2.144 E133.4983
G1 X10.134 Y2.144 E134.8212
G1 X15.934 Y7.944 E139.9365
G1 X13.812 Y7.944 E141.2594
G1 X8.012 Y2.144 E146.3746
G1 X5.891 Y2.144 E147.6976
G1 X11.691 Y7.944 E152.8128
G1 X9.570 Y7.944 E154.1357
G1 X3.770 Y2.144 E159.2510
G1 X2.104 Y2.144 E160.2897
G1 X2.104 Y2.600 E160.5739
G1 X7.448 Y7.944 E165.2872
G1 X5.327 Y7.944 E166.6101
G1 X2.104 Y4.722 E169.4525
G1 X2.104 Y6.843 E170.7754
G1 X3.206 Y7.944 E171.7469
; layer 2, Z = 2
M106 S255
#LayerChange
; outer perimeter
G1 X59.254 Y9.294 F4800
G1 Z2.000 F1000
G92 E0
G1 X0.754 Y9.294 E36.4822 F600
G1 X0.754 Y0.794 E41.7831
G1 X59.254 Y0.794 E78.2653
G1 X59.254 Y9.294 E83.5661
; infill
G1 X57.904 Y6.843 F4800
G92 E0
G1 X56.803 Y7.944 E0.9714 F600
G1 X54.681 Y7.944 E2.2943
G1 X57.904 Y4.722 E5.1367
G1 X57.904 Y2.600 E6.4596
G1 X52.560 Y7.944 E11.1728
G1 X50.439 Y7.944 E12.4957
G1 X56.239 Y2.144 E17.6110
G1 X54.117 Y2.144 E18.9339
G1 X48.317 Y7.944 E24.0491
G1 X46.196 Y7.944 E25.3721
G1 X51.996 Y2.144 E30.4873
G1 X49.875 Y2.144 E31.8102
G1 X44.075 Y7.944 E36.9255
G1 X41.953 Y7.944 E38.2484
G1 X47.753 Y2.144 E43.3637
G1 X45.632 Y2.144 E44.6866
G1 X39.832 Y7.944 E49.8019
G1 X37.711 Y7.944 E51.1248
G1 X43.511 Y2.144 E56.2400
G1 X41.389 Y2.144 E57.5630
G1 X35.589 Y7.944 E62.6782
G1 X33.468 Y7.944 E64.0011
G1 X39.268 Y2.144 E69.1164
G1 X37.147 Y2.144 E70.4393
G1 X31.347 Y7.944 E75.5546
G1 X29.226 Y7.944 E76.8775
G1 X35.026 Y2.144 E81.9928
G1 X32.904 Y2.144 E83.3157
G1 X27.104 Y7.944 E88.4309
G1 X24.983 Y7.944 E89.7539
G1 X30.783 Y2.144 E94.8691
G1 X28.662 Y2.144 E96.1920
G1 X22.862 Y7.944 E101.3073
G1 X20.740 Y7.944 E102.6302
G1 X26.540 Y2.144 E107.7455
G1 X24.419 Y2.144 E109.0684
G1 X18.619 Y7.944 E114.1837
G1 X16.498 Y7.944 E115.5066
G1 X22.298 Y2.144 E120.6218
G1 X20.176 Y2.144 E121.9448
G1 X14.376 Y7.944 E127.0600
G1 X12.255 Y7.944 E128.3829
G1 X18.055 Y2.144 E133.4982
G1 X15.934 Y2.144 E134.8211
G1 X10.134 Y7.944 E139.9364
G1 X8.012 Y7.944 E141.2593
G1 X13.812 Y2.144 E146.3746
G1 X11.691 Y2.144 E147.6975
G1 X5.891 Y7.944 E152.8127
G1 X3.770 Y7.944 E154.1357
G1 X9.570 Y2.144 E159.2509
G1 X7.448 Y2.144 E160.5738
G1 X2.104 Y7.489 E165.2871
G1 X2.104 Y5.367 E166.6100
G1 X5.327 Y2.144 E169.4524
G1 X3.206 Y2.144 E170.7754
G1 X2.104 Y3.246 E171.7469
; layer 3, Z = 3
#LayerChange
; outer perimeter
G1 X59.254 Y9.294 F4800
G1 Z3.000 F1000
G92 E0
G1 X0.754 Y9.294 E36.4822 F600
G1 X0.754 Y0.794 E41.7831
G1 X59.254 Y0.794 E78.2653
G1 X59.254 Y9.294 E83.5661
; infill
G1 X56.803 Y2.144 F4800
G92 E0
G1 X57.904 Y3.246 E0.9715 F600
G1 X57.904 Y5.367 E2.2944
G1 X54.681 Y2.144 E5.1367
G1 X52.560 Y2.144 E6.4596
G1 X57.904 Y7.489 E11.1729
G1 X57.904 Y7.944 E11.4571
G1 X56.239 Y7.944 E12.4958
G1 X50.439 Y2.144 E17.6110
G1 X48.317 Y2.144 E18.9340
G1 X54.117 Y7.944 E24.0492
G1 X51.996 Y7.944 E25.3721
G1 X46.196 Y2.144 E30.4874
G1 X44.075 Y2.144 E31.8103
G1 X49.875 Y7.944 E36.9256
G1 X47.753 Y7.944 E38.2485
G1 X41.953 Y2.144 E43.3638
G1 X39.832 Y2.144 E44.6867
G1 X45.632 Y7.944 E49.8019
G1 X43.511 Y7.944 E51.1249
G1 X37.711 Y2.144 E56.2401
G1 X35.589 Y2.144 E57.5630
G1 X41.389 Y7.944 E62.6783
G1 X39.268 Y7.944 E64.0012
G1 X33.468 Y2.144 E69.1165
G1 X31.347 Y2.144 E70.4394
G1 X37.147 Y7.944 E75.5547
G1 X35.025 Y7.944 E76.8776
G1 X29.225 Y2.144 E81.9928
G1 X27.104 Y2.144 E83.3158
G1 X32.904 Y7.944 E88.4310
G1 X30.783 Y7.944 E89.7539
G1 X24.983 Y2.144 E94.8692
G1 X22.862 Y2.144 E96.1921
G1 X28.662 Y7.944 E101.3074
G1 X26.540 Y7.944 E102.6303
G1 X20.740 Y2.144 E107.7456
G1 X18.619 Y2.144 E109.0685
G1 X24.419 Y7.944 E114.1837
G1 X22.298 Y7.944 E115.5067
G1 X16.498 Y2.144 E120.6219
G1 X14.376 Y2.144 E121.9448
G1 X20.176 Y7.944 E127.0601
G1 X18.055 Y7.944 E128.3830
G1 X12.255 Y2.144 E133.4983
G1 X10.134 Y2.144 E134.8212
G1 X15.934 Y7.944 E139.9365
G1 X13.812 Y7.944 E141.2594
G1 X8.012 Y2.144 E146.3746
G1 X5.891 Y2.144 E147.6976
G1 X11.691 Y7.944 E152.8128
G1 X9.570 Y7.944 E154.1357
G1 X3.770 Y2.144 E159.2510
G1 X2.104 Y2.144 E160.2897
G1 X2.104 Y2.600 E160.5739
G1 X7.448 Y7.944 E165.2872
G1 X5.327 Y7.944 E166.6101
G1 X2.104 Y4.722 E169.4525
G1 X2.104 Y6.843 E170.7754
G1 X3.206 Y7.944 E171.7469
; layer 4, Z = 4
#LayerChange
; outer perimeter
G1 X0.754 Y0.794 F4800
G1 Z4.000 F1000
G92 E0
G1 X59.254 Y0.794 E36.4822 F600
G1 X59.254 Y9.294 E41.7831
G1 X0.754 Y9.294 E78.2653
G1 X0.754 Y0.794 E83.5661
; infill
G1 X2.104 Y3.246 F4800
G92 E0
G1 X3.206 Y2.144 E0.9715 F600
G1 X5.327 Y2.144 E2.2944
G1 X2.104 Y5.367 E5.1368
G1 X2.104 Y7.489 E6.4598
G1 X7.448 Y2.144 E11.1730
G1 X9.570 Y2.144 E12.4960
G1 X3.770 Y7.944 E17.6112
G1 X5.891 Y7.944 E18.9341
G1 X11.691 Y2.144 E24.0494
G1 X13.812 Y2.144 E25.3723
G1 X8.012 Y7.944 E30.4876
G1 X10.134 Y7.944 E31.8105
G1 X15.934 Y2.144 E36.9258
G1 X18.055 Y2.144 E38.2487
G1 X12.255 Y7.944 E43.3639
G1 X14.376 Y7.944 E44.6869
G1 X20.176 Y2.144 E49.8021
G1 X22.298 Y2.144 E51.1250
G1 X16.498 Y7.944 E56.2403
G1 X18.619 Y7.944 E57.5632
G1 X24.419 Y2.144 E62.6785
G1 X26.540 Y2.144 E64.0014
G1 X20.740 Y7.944 E69.1167
G1 X22.862 Y7.944 E70.4396
G1 X28.662 Y2.144 E75.5548
G1 X30.783 Y2.144 E76.8778
G1 X24.983 Y7.944 E81.9930
G1 X27.104 Y7.944 E83.3159
G1 X32.904 Y2.144 E88.4312
G1 X35.026 Y2.144 E89.7541
G1 X29.226 Y7.944 E94.8694
G1 X31.347 Y7.944 E96.1923
G1 X37.147 Y2.144 E101.3076
G1 X39.268 Y2.144 E102.6305
G1 X33.468 Y7.944 E107.7457
G1 X35.589 Y7.944 E109.0687
G1 X41.389 Y2.144 E114.1839
G1 X43.511 Y2.144 E115.5068
G1 X37.711 Y7.944 E120.6221
G1 X39.832 Y7.944 E121.9450
G1 X45.632 Y2.144 E127.0603
G1 X47.753 Y2.144 E128.3832
G1 X41.953 Y7.944 E133.4985
G1 X44.075 Y7.944 E134.8214
G1 X49.875 Y2.144 E139.9366
G1 X51.996 Y2.144 E141.2596
G1 X46.196 Y7.944 E146.3748
G1 X48.317 Y7.944 E147.6977
G1 X54.117 Y2.144 E152.8130
G1 X56.239 Y2.144 E154.1359
G1 X50.439 Y7.944 E159.2512
G1 X52.560 Y7.944 E160.5741
G1 X57.904 Y2.600 E165.2873
G1 X57.904 Y4.722 E166.6102
G1 X54.681 Y7.944 E169.4525
G1 X56.803 Y7.944 E170.7754
G1 X57.904 Y6.843 E171.7469
; layer 5, Z = 5
#LayerChange
; outer perimeter
G1 X59.254 Y9.294 F4800
G1 Z5.000 F1000
G92 E0
G1 X0.754 Y9.294 E36.4822 F600
G1 X0.754 Y0.794 E41.7831
G1 X59.254 Y0.794 E78.2653
G1 X59.254 Y9.294 E83.5661
; infill
G1 X56.803 Y2.144 F4800
G92 E0
G1 X57.904 Y3.246 E0.9715 F600
G1 X57.904 Y5.367 E2.2944
G1 X54.681 Y2.144 E5.1367
G1 X52.560 Y2.144 E6.4596
G1 X57.904 Y7.489 E11.1729
G1 X57.904 Y7.944 E11.4571
G1 X56.239 Y7.944 E12.4958
G1 X50.439 Y2.144 E17.6110
G1 X48.317 Y2.144 E18.9340
G1 X54.117 Y7.944 E24.0492
G1 X51.996 Y7.944 E25.3721
G1 X46.196 Y2.144 E30.4874
G1 X44.075 Y2.144 E31.8103
G1 X49.875 Y7.944 E36.9256
G1 X47.753 Y7.944 E38.2485
G1 X41.953 Y2.144 E43.3638
G1 X39.832 Y2.144 E44.6867
G1 X45.632 Y7.944 E49.8019
G1 X43.511 Y7.944 E51.1249
G1 X37.711 Y2.144 E56.2401
G1 X35.589 Y2.144 E57.5630
G1 X41.389 Y7.944 E62.6783
G1 X39.268 Y7.944 E64.0012
G1 X33.468 Y2.144 E69.1165
G1 X31.347 Y2.144 E70.4394
G1 X37.147 Y7.944 E75.5547
G1 X35.025 Y7.944 E76.8776
G1 X29.225 Y2.144 E81.9928
G1 X27.104 Y2.144 E83.3158
G1 X32.904 Y7.944 E88.4310
G1 X30.783 Y7.944 E89.7539
G1 X24.983 Y2.144 E94.8692
G1 X22.862 Y2.144 E96.1921
G1 X28.662 Y7.944 E101.3074
G1 X26.540 Y7.944 E102.6303
G1 X20.740 Y2.144 E107.7456
G1 X18.619 Y2.144 E109.0685
G1 X24.419 Y7.944 E114.1837
G1 X22.298 Y7.944 E115.5067
G1 X16.498 Y2.144 E120.6219
G1 X14.376 Y2.144 E121.9448
G1 X20.176 Y7.944 E127.0601
G1 X18.055 Y7.944 E128.3830
G1 X12.255 Y2.144 E133.4983
G1 X10.134 Y2.144 E134.8212
G1 X15.934 Y7.944 E139.9365
G1 X13.812 Y7.944 E141.2594
G1 X8.012 Y2.144 E146.3746
G1 X5.891 Y2.144 E147.6976
G1 X11.691 Y7.944 E152.8128
G1 X9.570 Y7.944 E154.1357
G1 X3.770 Y2.144 E159.2510
G1 X2.104 Y2.144 E160.2897
G1 X2.104 Y2.600 E160.5739
G1 X7.448 Y7.944 E165.2872
G1 X5.327 Y7.944 E166.6101
G1 X2.104 Y4.722 E169.4525
G1 X2.104 Y6.843 E170.7754
G1 X3.206 Y7.944 E171.7469
; layer 6, Z = 6
#LayerChange
; outer perimeter
G1 X0.754 Y9.294 F4800
G1 Z6.000 F1000
G92 E0
G1 X0.754 Y0.794 E5.3008 F600
G1 X59.254 Y0.794 E41.7831
G1 X59.254 Y9.294 E47.0839
G1 X0.754 Y9.294 E83.5661
; infill
G1 X2.104 Y3.246 F4800
G92 E0
G1 X3.206 Y2.144 E0.9715 F600
G1 X5.327 Y2.144 E2.2944
G1 X2.104 Y5.367 E5.1368
G1 X2.104 Y7.489 E6.4598
G1 X7.448 Y2.144 E11.1730
G1 X9.570 Y2.144 E12.4960
G1 X3.770 Y7.944 E17.6112
G1 X5.891 Y7.944 E18.9341
G1 X11.691 Y2.144 E24.0494
G1 X13.812 Y2.144 E25.3723
G1 X8.012 Y7.944 E30.4876
G1 X10.134 Y7.944 E31.8105
G1 X15.934 Y2.144 E36.9258
G1 X18.055 Y2.144 E38.2487
G1 X12.255 Y7.944 E43.3639
G1 X14.376 Y7.944 E44.6869
G1 X20.176 Y2.144 E49.8021
G1 X22.298 Y2.144 E51.1250
G1 X16.498 Y7.944 E56.2403
G1 X18.619 Y7.944 E57.5632
G1 X24.419 Y2.144 E62.6785
G1 X26.540 Y2.144 E64.0014
G1 X20.740 Y7.944 E69.1167
G1 X22.862 Y7.944 E70.4396
G1 X28.662 Y2.144 E75.5548
G1 X30.783 Y2.144 E76.8778
G1 X24.983 Y7.944 E81.9930
G1 X27.104 Y7.944 E83.3159
G1 X32.904 Y2.144 E88.4312
G1 X35.026 Y2.144 E89.7541
G1 X29.226 Y7.944 E94.8694
G1 X31.347 Y7.944 E96.1923
G1 X37.147 Y2.144 E101.3076
G1 X39.268 Y2.144 E102.6305
G1 X33.468 Y7.944 E107.7457
G1 X35.589 Y7.944 E109.0687
G1 X41.389 Y2.144 E114.1839
G1 X43.511 Y2.144 E115.5068
G1 X37.711 Y7.944 E120.6221
G1 X39.832 Y7.944 E121.9450
G1 X45.632 Y2.144 E127.0603
G1 X47.753 Y2.144 E128.3832
G1 X41.953 Y7.944 E133.4985
G1 X44.075 Y7.944 E134.8214
G1 X49.875 Y2.144 E139.9366
G1 X51.996 Y2.144 E141.2596
G1 X46.196 Y7.944 E146.3748
G1 X48.317 Y7.944 E147.6977
G1 X54.117 Y2.144 E152.8130
G1 X56.239 Y2.144 E154.1359
G1 X50.439 Y7.944 E159.2512
G1 X52.560 Y7.944 E160.5741
G1 X57.904 Y2.600 E165.2873
G1 X57.904 Y4.722 E166.6102
G1 X54.681 Y7.944 E169.4525
G1 X56.803 Y7.944 E170.7754
