; G-Code generated by Simplify3D(R) Version 3.1.1
; Apr 11, 2019 at 4:50:18 PM
; Settings Summary
;   processName,Kjellberg_Block
;   applyToModels,block
;   profileName,Default (modified)
;   profileVersion,2015-05-01 08:00:00
;   baseProfile,
;   printMaterial,PLA
;   printQuality,High
;   printExtruders,
;   extruderName,Primary Extruder
;   extruderToolheadNumber,0
;   extruderDiameter,1
;   extruderAutoWidth,0
;   extruderWidth,1.65
;   extrusionMultiplier,1
;   extruderUseRetract,0
;   extruderRetractionDistance,0
;   extruderExtraRestartDistance,0
;   extruderRetractionZLift,5
;   extruderRetractionSpeed,1800
;   extruderUseCoasting,0
;   extruderCoastingDistance,0.2
;   extruderUseWipe,0
;   extruderWipeDistance,5
;   primaryExtruder,0
;   layerHeight,1
;   topSolidLayers,0
;   bottomSolidLayers,0
;   perimeterOutlines,1
;   printPerimetersInsideOut,1
;   startPointOption,1
;   startPointOriginX,0
;   startPointOriginY,0
;   startPointOriginZ,300
;   sequentialIslands,1
;   spiralVaseMode,0
;   firstLayerHeightPercentage,100
;   firstLayerWidthPercentage,100
;   firstLayerUnderspeed,1
;   useRaft,0
;   raftExtruder,0
;   raftLayers,3
;   raftOffset,3
;   raftSeparationDistance,0.14
;   raftInfill,85
;   disableRaftBaseLayers,0
;   useSkirt,0
;   skirtExtruder,0
;   skirtLayers,2
;   skirtOutlines,2
;   skirtOffset,4
;   usePrimePillar,0
;   primePillarExtruder,999
;   primePillarWidth,12
;   primePillarLocation,7
;   primePillarSpeedMultiplier,1
;   useOozeShield,0
;   oozeShieldExtruder,999
;   oozeShieldOffset,2
;   oozeShieldOutlines,1
;   oozeShieldSidewallShape,1
;   oozeShieldSidewallAngle,30
;   oozeShieldSpeedMultiplier,1
;   infillExtruder,0
;   internalInfillPattern,Rectilinear
;   externalInfillPattern,Rectilinear
;   infillPercentage,100
;   outlineOverlapPercentage,10
;   infillExtrusionWidthPercentage,100
;   minInfillLength,4
;   infillLayerInterval,1
;   infillAngles,45,-45
;   overlapInfillAngles,0
;   generateSupport,0
;   supportExtruder,0
;   supportInfillPercentage,40
;   supportExtraInflation,0
;   denseSupportLayers,0
;   denseSupportInfillPercentage,70
;   supportLayerInterval,1
;   supportHorizontalPartOffset,0.3
;   supportUpperSeparationLayers,1
;   supportLowerSeparationLayers,1
;   supportType,0
;   supportGridSpacing,4
;   maxOverhangAngle,45
;   supportAngles,0
;   temperatureName,Primary Extruder
;   temperatureNumber,0
;   temperatureSetpointCount,1
;   temperatureSetpointLayers,1
;   temperatureSetpointTemperatures,0
;   temperatureStabilizeAtStartup,1
;   temperatureHeatedBed,0
;   temperatureRelayBetweenLayers,0
;   temperatureRelayBetweenLoops,0
;   fanLayers,1,2
;   fanSpeeds,0,100
;   blipFanToFullPower,0
;   adjustSpeedForCooling,0
;   minSpeedLayerTime,15
;   minCoolingSpeedSlowdown,20
;   increaseFanForCooling,0
;   minFanLayerTime,45
;   maxCoolingFanSpeed,100
;   increaseFanForBridging,0
;   bridgingFanSpeed,100
;   use5D,1
;   relativeEdistances,0
;   allowEaxisZeroing,1
;   independentExtruderAxes,0
;   includeM10123,0
;   stickySupport,1
;   applyToolheadOffsets,0
;   gcodeXoffset,0
;   gcodeYoffset,0
;   gcodeZoffset,0
;   overrideMachineDefinition,0
;   machineTypeOverride,0
;   strokeXoverride,200
;   strokeYoverride,200
;   strokeZoverride,200
;   originOffsetXoverride,0
;   originOffsetYoverride,0
;   originOffsetZoverride,0
;   homeXdirOverride,-1
;   homeYdirOverride,-1
;   homeZdirOverride,-1
;   flipXoverride,1
;   flipYoverride,-1
;   flipZoverride,1
;   toolheadOffsets,0,0|0,0|0,0|0,0|0,0|0,0
;   overrideFirmwareConfiguration,0
;   firmwareTypeOverride,RepRap (Marlin/Repetier/Sprinter)
;   GPXconfigOverride,r2
;   baudRateOverride,115200
;   overridePrinterModels,0
;   printerModelsOverride
;   startingGcode,##Start
;   layerChangeGcode,#LayerChange
;   retractionGcode,#Retraction
;   toolChangeGcode,
;   endingGcode,##End
;   exportFileFormat,gcode
;   celebration,0
;   celebrationSong,Random Song
;   postProcessing,
;   defaultSpeed,600
;   outlineUnderspeed,1
;   solidInfillUnderspeed,0.8
;   supportUnderspeed,0.8
;   rapidXYspeed,4800
;   rapidZspeed,1000
;   minBridgingArea,40
;   bridgingExtraInflation,1
;   bridgingExtrusionMultiplier,1
;   bridgingSpeedMultiplier,1
;   filamentDiameter,1.75
;   filamentPricePerKg,46
;   filamentDensity,1.25
;   useMinPrintHeight,0
;   minPrintHeight,0
;   useMaxPrintHeight,0
;   maxPrintHeight,0
;   useDiaphragm,0
;   diaphragmLayerInterval,20
;   robustSlicing,0
;   mergeAllIntoSolid,0
;   onlyRetractWhenCrossingOutline,1
;   retractBetweenLayers,0
;   useRetractionMinTravel,0
;   retractionMinTravel,3
;   retractWhileWiping,0
;   onlyWipeOutlines,1
;   avoidCrossingOutline,0
;   maxMovementDetourFactor,3
;   toolChangeRetractionDistance,0
;   toolChangeExtraRestartDistance,0
;   toolChangeRetractionSpeed,600
;   allowThinWallGapFill,1
;   thinWallAllowedOverlapPercentage,50
;   horizontalSizeCompensation,0
G90
M82
M106 S0
M104 S0 T0
##Start
G92 E0
#Retraction
G1 E0.0000 F1800
G1 Z6.000 F1000
; layer 1, Z = 1
#LayerChange
T0
; tool H1.000 W1.650
; outer perimeter
G1 X59.179 Y0.769 F4800
G1 Z1.000 F1000
G1 E0.0000 F540
G92 E0
G1 X59.179 Y9.319 E5.8652 F600
G1 X0.829 Y9.319 E45.8927
G1 X0.829 Y0.769 E51.7580
G1 X59.179 Y0.769 E91.7855
; infill
G1 X57.549 Y2.254 F4800
G92 E0
G1 X57.694 Y2.400 E0.1408 F600
G1 X57.694 Y4.733 E1.7415
G1 X55.216 Y2.254 E4.1460
G1 X52.882 Y2.254 E5.7467
G1 X57.694 Y7.066 E10.4150
G1 X57.694 Y7.834 E10.9419
G1 X56.129 Y7.834 E12.0158
G1 X50.549 Y2.254 E17.4291
G1 X48.215 Y2.254 E19.0298
G1 X53.795 Y7.834 E24.4432
G1 X51.462 Y7.834 E26.0439
G1 X45.882 Y2.254 E31.4573
G1 X43.548 Y2.254 E33.0580
G1 X49.128 Y7.834 E38.4714
G1 X46.795 Y7.834 E40.0721
G1 X41.215 Y2.254 E45.4854
G1 X38.881 Y2.254 E47.0862
G1 X44.461 Y7.834 E52.4995
G1 X42.128 Y7.834 E54.1002
G1 X36.548 Y2.254 E59.5136
G1 X34.215 Y2.254 E61.1143
G1 X39.795 Y7.834 E66.5277
G1 X37.461 Y7.834 E68.1284
G1 X31.881 Y2.254 E73.5418
G1 X29.548 Y2.254 E75.1425
G1 X35.128 Y7.834 E80.5558
G1 X32.794 Y7.834 E82.1566
G1 X27.214 Y2.254 E87.5699
G1 X24.881 Y2.254 E89.1706
G1 X30.461 Y7.834 E94.5840
G1 X28.127 Y7.834 E96.1847
G1 X22.547 Y2.254 E101.5981
G1 X20.214 Y2.254 E103.1988
G1 X25.794 Y7.834 E108.6121
G1 X23.460 Y7.834 E110.2129
G1 X17.880 Y2.254 E115.6262
G1 X15.547 Y2.254 E117.2270
G1 X21.127 Y7.834 E122.6403
G1 X18.793 Y7.834 E124.2410
G1 X13.213 Y2.254 E129.6544
G1 X10.880 Y2.254 E131.2551
G1 X16.460 Y7.834 E136.6685
G1 X14.127 Y7.834 E138.2692
G1 X8.547 Y2.254 E143.6825
G1 X6.213 Y2.254 E145.2833
G1 X11.793 Y7.834 E150.6966
G1 X9.460 Y7.834 E152.2973
G1 X3.880 Y2.254 E157.7107
G1 X2.314 Y2.254 E158.7846
G1 X2.314 Y3.022 E159.3114
G1 X7.126 Y7.834 E163.9798
G1 X4.793 Y7.834 E165.5805
G1 X2.314 Y5.356 E167.9851
G1 X2.314 Y7.689 E169.5858
G1 X2.459 Y7.834 E169.7266
; layer 2, Z = 2
M106 S255
#LayerChange
; outer perimeter
G1 X59.179 Y9.319 F4800
G1 Z2.000 F1000
G92 E0
G1 X0.829 Y9.319 E40.0275 F600
G1 X0.829 Y0.769 E45.8927
G1 X59.179 Y0.769 E85.9203
G1 X59.179 Y9.319 E91.7855
; infill
G1 X57.694 Y7.689 F4800
G92 E0
G1 X57.549 Y7.834 E0.1407 F600
G1 X55.216 Y7.834 E1.7415
G1 X57.694 Y5.356 E4.1460
G1 X57.694 Y3.022 E5.7467
G1 X52.882 Y7.834 E10.4150
G1 X50.549 Y7.834 E12.0157
G1 X56.129 Y2.254 E17.4291
G1 X53.795 Y2.254 E19.0298
G1 X48.215 Y7.834 E24.4431
G1 X45.882 Y7.834 E26.0439
G1 X51.462 Y2.254 E31.4572
G1 X49.128 Y2.254 E33.0579
G1 X43.548 Y7.834 E38.4713
G1 X41.215 Y7.834 E40.0720
G1 X46.795 Y2.254 E45.4854
G1 X44.461 Y2.254 E47.0861
G1 X38.881 Y7.834 E52.4995
G1 X36.548 Y7.834 E54.1002
G1 X42.128 Y2.254 E59.5135
G1 X39.795 Y2.254 E61.1143
G1 X34.215 Y7.834 E66.5276
G1 X31.881 Y7.834 E68.1283
G1 X37.461 Y2.254 E73.5417
G1 X35.128 Y2.254 E75.1424
G1 X29.548 Y7.834 E80.5558
G1 X27.214 Y7.834 E82.1565
G1 X32.794 Y2.254 E87.5699
G1 X30.461 Y2.254 E89.1706
G1 X24.881 Y7.834 E94.5839
G1 X22.547 Y7.834 E96.1847
G1 X28.127 Y2.254 E101.5980
G1 X25.794 Y2.254 E103.1987
G1 X20.214 Y7.834 E108.6121
G1 X17.880 Y7.834 E110.2128
G1 X23.460 Y2.254 E115.6262
G1 X21.127 Y2.254 E117.2269
G1 X15.547 Y7.834 E122.6402
G1 X13.213 Y7.834 E124.2410
G1 X18.793 Y2.254 E129.6543
G1 X16.460 Y2.254 E131.2551
G1 X10.880 Y7.834 E136.6684
G1 X8.547 Y7.834 E138.2691
G1 X14.127 Y2.254 E143.6825
G1 X11.793 Y2.254 E145.2832
G1 X6.213 Y7.834 E150.6966
G1 X3.880 Y7.834 E152.2973
G1 X9.460 Y2.254 E157.7106
G1 X7.126 Y2.254 E159.3114
G1 X2.314 Y7.067 E163.9797
G1 X2.314 Y4.733 E165.5805
G1 X4.793 Y2.254 E167.9851
G1 X2.459 Y2.254 E169.5858
G1 X2.314 Y2.400 E169.7266
; layer 3, Z = 3
#LayerChange
; outer perimeter
G1 X59.179 Y9.319 F4800
G1 Z3.000 F1000
G92 E0
G1 X0.829 Y9.319 E40.0275 F600
G1 X0.829 Y0.769 E45.8927
G1 X59.179 Y0.769 E85.9203
G1 X59.179 Y9.319 E91.7855
; infill
G1 X57.549 Y2.254 F4800
G92 E0
G1 X57.694 Y2.400 E0.1408 F600
G1 X57.694 Y4.733 E1.7415
G1 X55.216 Y2.254 E4.1460
G1 X52.882 Y2.254 E5.7467
G1 X57.694 Y7.066 E10.4150
G1 X57.694 Y7.834 E10.9419
G1 X56.129 Y7.834 E12.0158
G1 X50.549 Y2.254 E17.4291
G1 X48.215 Y2.254 E19.0298
G1 X53.795 Y7.834 E24.4432
G1 X51.462 Y7.834 E26.0439
G1 X45.882 Y2.254 E31.4573
G1 X43.548 Y2.254 E33.0580
G1 X49.128 Y7.834 E38.4714
G1 X46.795 Y7.834 E40.0721
G1 X41.215 Y2.254 E45.4854
G1 X38.881 Y2.254 E47.0862
G1 X44.461 Y7.834 E52.4995
G1 X42.128 Y7.834 E54.1002
G1 X36.548 Y2.254 E59.5136
G1 X34.215 Y2.254 E61.1143
G1 X39.795 Y7.834 E66.5277
G1 X37.461 Y7.834 E68.1284
G1 X31.881 Y2.254 E73.5418
G1 X29.548 Y2.254 E75.1425
G1 X35.128 Y7.834 E80.5558
G1 X32.794 Y7.834 E82.1566
G1 X27.214 Y2.254 E87.5699
G1 X24.881 Y2.254 E89.1706
G1 X30.461 Y7.834 E94.5840
G1 X28.127 Y7.834 E96.1847
G1 X22.547 Y2.254 E101.5981
G1 X20.214 Y2.254 E103.1988
G1 X25.794 Y7.834 E108.6121
G1 X23.460 Y7.834 E110.2129
G1 X17.880 Y2.254 E115.6262
G1 X15.547 Y2.254 E117.2270
G1 X21.127 Y7.834 E122.6403
G1 X18.793 Y7.834 E124.2410
G1 X13.213 Y2.254 E129.6544
G1 X10.880 Y2.254 E131.2551
G1 X16.460 Y7.834 E136.6685
G1 X14.127 Y7.834 E138.2692
G1 X8.547 Y2.254 E143.6825
G1 X6.213 Y2.254 E145.2833
G1 X11.793 Y7.834 E150.6966
G1 X9.460 Y7.834 E152.2973
G1 X3.880 Y2.254 E157.7107
G1 X2.314 Y2.254 E158.7846
G1 X2.314 Y3.022 E159.3114
G1 X7.126 Y7.834 E163.9798
G1 X4.793 Y7.834 E165.5805
G1 X2.314 Y5.356 E167.9851
G1 X2.314 Y7.689 E169.5858
G1 X2.459 Y7.834 E169.7266
; layer 4, Z = 4
#LayerChange
; outer perimeter
G1 X0.829 Y0.769 F4800
G1 Z4.000 F1000
G92 E0
G1 X59.179 Y0.769 E40.0275 F600
G1 X59.179 Y9.319 E45.8927
G1 X0.829 Y9.319 E85.9203
G1 X0.829 Y0.769 E91.7855
; infill
G1 X2.314 Y2.400 F4800
G92 E0
G1 X2.459 Y2.254 E0.1408 F600
G1 X4.793 Y2.254 E1.7416
G1 X2.314 Y4.733 E4.1461
G1 X2.314 Y7.067 E5.7469
G1 X7.126 Y2.254 E10.4152
G1 X9.460 Y2.254 E12.0160
G1 X3.880 Y7.834 E17.4293
G1 X6.213 Y7.834 E19.0300
G1 X11.793 Y2.254 E24.4434
G1 X14.127 Y2.254 E26.0441
G1 X8.547 Y7.834 E31.4575
G1 X10.880 Y7.834 E33.0582
G1 X16.460 Y2.254 E38.4716
G1 X18.793 Y2.254 E40.0723
G1 X13.213 Y7.834 E45.4856
G1 X15.547 Y7.834 E47.0864
G1 X21.127 Y2.254 E52.4997
G1 X23.460 Y2.254 E54.1004
G1 X17.880 Y7.834 E59.5138
G1 X20.214 Y7.834 E61.1145
G1 X25.794 Y2.254 E66.5279
G1 X28.127 Y2.254 E68.1286
G1 X22.547 Y7.834 E73.5419
G1 X24.881 Y7.834 E75.1427
G1 X30.461 Y2.254 E80.5560
G1 X32.794 Y2.254 E82.1568
G1 X27.214 Y7.834 E87.5701
G1 X29.548 Y7.834 E89.1708
G1 X35.128 Y2.254 E94.5842
G1 X37.461 Y2.254 E96.1849
G1 X31.881 Y7.834 E101.5983
G1 X34.215 Y7.834 E103.1990
G1 X39.795 Y2.254 E108.6123
G1 X42.128 Y2.254 E110.2131
G1 X36.548 Y7.834 E115.6264
G1 X38.881 Y7.834 E117.2271
G1 X44.461 Y2.254 E122.6405
G1 X46.795 Y2.254 E124.2412
G1 X41.215 Y7.834 E129.6546
G1 X43.548 Y7.834 E131.2553
G1 X49.128 Y2.254 E136.6687
G1 X51.462 Y2.254 E138.2694
G1 X45.882 Y7.834 E143.6827
G1 X48.215 Y7.834 E145.2835
G1 X53.795 Y2.254 E150.6968
G1 X56.129 Y2.254 E152.2975
G1 X50.549 Y7.834 E157.7109
G1 X52.882 Y7.834 E159.3116
G1 X57.694 Y3.022 E163.9799
G1 X57.694 Y5.356 E165.5806
G1 X55.216 Y7.834 E167.9851
G1 X57.549 Y7.834 E169.5859
G1 X57.694 Y7.689 E169.7266
; layer 5, Z = 5
#LayerChange
; outer perimeter
G1 X59.179 Y9.319 F4800
G1 Z5.000 F1000
G92 E0
G1 X0.829 Y9.319 E40.0275 F600
G1 X0.829 Y0.769 E45.8927
G1 X59.179 Y0.769 E85.9203
G1 X59.179 Y9.319 E91.7855
; infill
G1 X57.549 Y2.254 F4800
G92 E0
G1 X57.694 Y2.400 E0.1408 F600
G1 X57.694 Y4.733 E1.7415
G1 X55.216 Y2.254 E4.1460
G1 X52.882 Y2.254 E5.7467
G1 X57.694 Y7.066 E10.4150
G1 X57.694 Y7.834 E10.9419
G1 X56.129 Y7.834 E12.0158
G1 X50.549 Y2.254 E17.4291
G1 X48.215 Y2.254 E19.0298
G1 X53.795 Y7.834 E24.4432
G1 X51.462 Y7.834 E26.0439
G1 X45.882 Y2.254 E31.4573
G1 X43.548 Y2.254 E33.0580
G1 X49.128 Y7.834 E38.4714
G1 X46.795 Y7.834 E40.0721
G1 X41.215 Y2.254 E45.4854
G1 X38.881 Y2.254 E47.0862
G1 X44.461 Y7.834 E52.4995
G1 X42.128 Y7.834 E54.1002
G1 X36.548 Y2.254 E59.5136
G1 X34.215 Y2.254 E61.1143
G1 X39.795 Y7.834 E66.5277
G1 X37.461 Y7.834 E68.1284
G1 X31.881 Y2.254 E73.5418
G1 X29.548 Y2.254 E75.1425
G1 X35.128 Y7.834 E80.5558
G1 X32.794 Y7.834 E82.1566
G1 X27.214 Y2.254 E87.5699
G1 X24.881 Y2.254 E89.1706
G1 X30.461 Y7.834 E94.5840
G1 X28.127 Y7.834 E96.1847
G1 X22.547 Y2.254 E101.5981
G1 X20.214 Y2.254 E103.1988
G1 X25.794 Y7.834 E108.6121
G1 X23.460 Y7.834 E110.2129
G1 X17.880 Y2.254 E115.6262
G1 X15.547 Y2.254 E117.2270
G1 X21.127 Y7.834 E122.6403
G1 X18.793 Y7.834 E124.2410
G1 X13.213 Y2.254 E129.6544
G1 X10.880 Y2.254 E131.2551
G1 X16.460 Y7.834 E136.6685
G1 X14.127 Y7.834 E138.2692
G1 X8.547 Y2.254 E143.6825
G1 X6.213 Y2.254 E145.2833
G1 X11.793 Y7.834 E150.6966
G1 X9.460 Y7.834 E152.2973
G1 X3.880 Y2.254 E157.7107
G1 X2.314 Y2.254 E158.7846
G1 X2.314 Y3.022 E159.3114
G1 X7.126 Y7.834 E163.9798
G1 X4.793 Y7.834 E165.5805
G1 X2.314 Y5.356 E167.9851
G1 X2.314 Y7.689 E169.5858
G1 X2.459 Y7.834 E169.7266
; layer end
##End
; Build Summary
;   Build time: 0 hours 3 minutes
;   Filament length: 1307.6 mm (1.31 m)
;   Plastic volume: 3145.05 mm^3 (3.15 cc)
;   Plastic weight: 3.93 g (0.01 lb)
;   Material cost: 0.18
