; G-Code generated by Simplify3D(R) Version 3.1.1
; Apr 11, 2019 at 12:58:56 PM
; Settings Summary
;   processName,Kjellberg_Block
;   applyToModels,block
;   profileName,Default (modified)
;   profileVersion,2015-05-01 08:00:00
;   baseProfile,
;   printMaterial,PLA
;   printQuality,High
;   printExtruders,
;   extruderName,Primary Extruder
;   extruderToolheadNumber,0
;   extruderDiameter,1
;   extruderAutoWidth,0
;   extruderWidth,1.3
;   extrusionMultiplier,1
;   extruderUseRetract,0
;   extruderRetractionDistance,0
;   extruderExtraRestartDistance,0
;   extruderRetractionZLift,5
;   extruderRetractionSpeed,1800
;   extruderUseCoasting,0
;   extruderCoastingDistance,0.2
;   extruderUseWipe,0
;   extruderWipeDistance,5
;   primaryExtruder,0
;   layerHeight,0.85
;   topSolidLayers,0
;   bottomSolidLayers,0
;   perimeterOutlines,1
;   printPerimetersInsideOut,1
;   startPointOption,1
;   startPointOriginX,0
;   startPointOriginY,0
;   startPointOriginZ,300
;   sequentialIslands,1
;   spiralVaseMode,0
;   firstLayerHeightPercentage,100
;   firstLayerWidthPercentage,100
;   firstLayerUnderspeed,1
;   useRaft,0
;   raftExtruder,0
;   raftLayers,3
;   raftOffset,3
;   raftSeparationDistance,0.14
;   raftInfill,85
;   disableRaftBaseLayers,0
;   useSkirt,0
;   skirtExtruder,0
;   skirtLayers,2
;   skirtOutlines,2
;   skirtOffset,4
;   usePrimePillar,0
;   primePillarExtruder,999
;   primePillarWidth,12
;   primePillarLocation,7
;   primePillarSpeedMultiplier,1
;   useOozeShield,0
;   oozeShieldExtruder,999
;   oozeShieldOffset,2
;   oozeShieldOutlines,1
;   oozeShieldSidewallShape,1
;   oozeShieldSidewallAngle,30
;   oozeShieldSpeedMultiplier,1
;   infillExtruder,0
;   internalInfillPattern,Rectilinear
;   externalInfillPattern,Rectilinear
;   infillPercentage,100
;   outlineOverlapPercentage,10
;   infillExtrusionWidthPercentage,100
;   minInfillLength,4
;   infillLayerInterval,1
;   infillAngles,45,-45
;   overlapInfillAngles,0
;   generateSupport,0
;   supportExtruder,0
;   supportInfillPercentage,40
;   supportExtraInflation,0
;   denseSupportLayers,0
;   denseSupportInfillPercentage,70
;   supportLayerInterval,1
;   supportHorizontalPartOffset,0.3
;   supportUpperSeparationLayers,1
;   supportLowerSeparationLayers,1
;   supportType,0
;   supportGridSpacing,4
;   maxOverhangAngle,45
;   supportAngles,0
;   temperatureName,Primary Extruder
;   temperatureNumber,0
;   temperatureSetpointCount,1
;   temperatureSetpointLayers,1
;   temperatureSetpointTemperatures,0
;   temperatureStabilizeAtStartup,1
;   temperatureHeatedBed,0
;   temperatureRelayBetweenLayers,0
;   temperatureRelayBetweenLoops,0
;   fanLayers,1,2
;   fanSpeeds,0,100
;   blipFanToFullPower,0
;   adjustSpeedForCooling,0
;   minSpeedLayerTime,15
;   minCoolingSpeedSlowdown,20
;   increaseFanForCooling,0
;   minFanLayerTime,45
;   maxCoolingFanSpeed,100
;   increaseFanForBridging,0
;   bridgingFanSpeed,100
;   use5D,1
;   relativeEdistances,0
;   allowEaxisZeroing,1
;   independentExtruderAxes,0
;   includeM10123,0
;   stickySupport,1
;   applyToolheadOffsets,0
;   gcodeXoffset,0
;   gcodeYoffset,0
;   gcodeZoffset,0
;   overrideMachineDefinition,0
;   machineTypeOverride,0
;   strokeXoverride,200
;   strokeYoverride,200
;   strokeZoverride,200
;   originOffsetXoverride,0
;   originOffsetYoverride,0
;   originOffsetZoverride,0
;   homeXdirOverride,-1
;   homeYdirOverride,-1
;   homeZdirOverride,-1
;   flipXoverride,1
;   flipYoverride,-1
;   flipZoverride,1
;   toolheadOffsets,0,0|0,0|0,0|0,0|0,0|0,0
;   overrideFirmwareConfiguration,0
;   firmwareTypeOverride,RepRap (Marlin/Repetier/Sprinter)
;   GPXconfigOverride,r2
;   baudRateOverride,115200
;   overridePrinterModels,0
;   printerModelsOverride
;   startingGcode,##Start
;   layerChangeGcode,#LayerChange
;   retractionGcode,#Retraction
;   toolChangeGcode,
;   endingGcode,##End
;   exportFileFormat,gcode
;   celebration,0
;   celebrationSong,Random Song
;   postProcessing,
;   defaultSpeed,600
;   outlineUnderspeed,1
;   solidInfillUnderspeed,0.8
;   supportUnderspeed,0.8
;   rapidXYspeed,4800
;   rapidZspeed,1000
;   minBridgingArea,40
;   bridgingExtraInflation,1
;   bridgingExtrusionMultiplier,1
;   bridgingSpeedMultiplier,1
;   filamentDiameter,1.75
;   filamentPricePerKg,46
;   filamentDensity,1.25
;   useMinPrintHeight,0
;   minPrintHeight,0
;   useMaxPrintHeight,0
;   maxPrintHeight,0
;   useDiaphragm,0
;   diaphragmLayerInterval,20
;   robustSlicing,0
;   mergeAllIntoSolid,0
;   onlyRetractWhenCrossingOutline,1
;   retractBetweenLayers,0
;   useRetractionMinTravel,0
;   retractionMinTravel,3
;   retractWhileWiping,0
;   onlyWipeOutlines,1
;   avoidCrossingOutline,0
;   maxMovementDetourFactor,3
;   toolChangeRetractionDistance,0
;   toolChangeExtraRestartDistance,0
;   toolChangeRetractionSpeed,600
;   allowThinWallGapFill,1
;   thinWallAllowedOverlapPercentage,50
;   horizontalSizeCompensation,0
G90
M82
M106 S0
M104 S0 T0
##Start
G92 E0
#Retraction
G1 E0.0000 F1800
G1 Z5.850 F1000
; layer 1, Z = 0.85
#LayerChange
T0
; tool H0.850 W1.300
; outer perimeter
G1 X59.354 Y0.694 F4800
G1 Z0.850 F1000
G1 E0.0000 F540
G92 E0
G1 X59.354 Y9.394 E3.9968 F600
G1 X0.654 Y9.394 E30.9639
G1 X0.654 Y0.694 E34.9608
G1 X59.354 Y0.694 E61.9279
; infill
G1 X58.078 Y1.864 F4800
G92 E0
G1 X58.184 Y1.970 E0.0688 F600
G1 X58.184 Y3.809 E0.9134
G1 X56.240 Y1.864 E2.1766
G1 X54.401 Y1.864 E3.0212
G1 X58.184 Y5.647 E5.4789
G1 X58.184 Y7.486 E6.3235
G1 X52.563 Y1.864 E9.9757
G1 X50.724 Y1.864 E10.8203
G1 X57.084 Y8.224 E14.9524
G1 X55.246 Y8.224 E15.7970
G1 X48.886 Y1.864 E19.9290
G1 X47.047 Y1.864 E20.7736
G1 X53.407 Y8.224 E24.9057
G1 X51.569 Y8.224 E25.7503
G1 X45.209 Y1.864 E29.8824
G1 X43.370 Y1.864 E30.7270
G1 X49.730 Y8.224 E34.8591
G1 X47.892 Y8.224 E35.7037
G1 X41.532 Y1.864 E39.8358
G1 X39.694 Y1.864 E40.6804
G1 X46.054 Y8.224 E44.8125
G1 X44.215 Y8.224 E45.6571
G1 X37.855 Y1.864 E49.7891
G1 X36.017 Y1.864 E50.6337
G1 X42.377 Y8.224 E54.7658
G1 X40.538 Y8.224 E55.6104
G1 X34.178 Y1.864 E59.7425
G1 X32.340 Y1.864 E60.5871
G1 X38.700 Y8.224 E64.7192
G1 X36.861 Y8.224 E65.5638
G1 X30.501 Y1.864 E69.6959
G1 X28.663 Y1.864 E70.5405
G1 X35.023 Y8.224 E74.6726
G1 X33.184 Y8.224 E75.5172
G1 X26.824 Y1.864 E79.6492
G1 X24.986 Y1.864 E80.4939
G1 X31.346 Y8.224 E84.6259
G1 X29.507 Y8.224 E85.4705
G1 X23.147 Y1.864 E89.6026
G1 X21.309 Y1.864 E90.4472
G1 X27.669 Y8.224 E94.5793
G1 X25.830 Y8.224 E95.4239
G1 X19.470 Y1.864 E99.5560
G1 X17.632 Y1.864 E100.4006
G1 X23.992 Y8.224 E104.5327
G1 X22.153 Y8.224 E105.3773
G1 X15.793 Y1.864 E109.5093
G1 X13.955 Y1.864 E110.3540
G1 X20.315 Y8.224 E114.4860
G1 X18.476 Y8.224 E115.3306
G1 X12.116 Y1.864 E119.4627
G1 X10.278 Y1.864 E120.3073
G1 X16.638 Y8.224 E124.4394
G1 X14.799 Y8.224 E125.2840
G1 X8.439 Y1.864 E129.4161
G1 X6.601 Y1.864 E130.2607
G1 X12.961 Y8.224 E134.3928
G1 X11.122 Y8.224 E135.2374
G1 X4.762 Y1.864 E139.3695
G1 X2.924 Y1.864 E140.2141
G1 X9.284 Y8.224 E144.3461
G1 X7.445 Y8.224 E145.1907
G1 X1.824 Y2.603 E148.8429
G1 X1.824 Y4.442 E149.6875
G1 X5.607 Y8.224 E152.1452
G1 X3.769 Y8.224 E152.9898
G1 X1.824 Y6.280 E154.2531
G1 X1.824 Y8.119 E155.0977
G1 X1.930 Y8.224 E155.1665
; layer 2, Z = 1.7
M106 S255
#LayerChange
; outer perimeter
G1 X59.354 Y9.394 F4800
G1 Z1.700 F1000
G92 E0
G1 X0.654 Y9.394 E26.9671 F600
G1 X0.654 Y0.694 E30.9639
G1 X59.354 Y0.694 E57.9311
G1 X59.354 Y9.394 E61.9279
; infill
G1 X58.184 Y8.119 F4800
G92 E0
G1 X58.078 Y8.224 E0.0688 F600
G1 X56.240 Y8.224 E0.9134
G1 X58.184 Y6.280 E2.1766
G1 X58.184 Y4.442 E3.0212
G1 X54.401 Y8.224 E5.4789
G1 X52.563 Y8.224 E6.3235
G1 X58.184 Y2.603 E9.9756
G1 X58.184 Y1.864 E10.3150
G1 X57.084 Y1.864 E10.8202
G1 X50.724 Y8.224 E14.9523
G1 X48.886 Y8.224 E15.7969
G1 X55.246 Y1.864 E19.9290
G1 X53.407 Y1.864 E20.7736
G1 X47.047 Y8.224 E24.9057
G1 X45.209 Y8.224 E25.7503
G1 X51.569 Y1.864 E29.8823
G1 X49.731 Y1.864 E30.7269
G1 X43.371 Y8.224 E34.8590
G1 X41.532 Y8.224 E35.7036
G1 X47.892 Y1.864 E39.8357
G1 X46.054 Y1.864 E40.6803
G1 X39.694 Y8.224 E44.8124
G1 X37.855 Y8.224 E45.6570
G1 X44.215 Y1.864 E49.7891
G1 X42.377 Y1.864 E50.6337
G1 X36.017 Y8.224 E54.7658
G1 X34.178 Y8.224 E55.6104
G1 X40.538 Y1.864 E59.7424
G1 X38.700 Y1.864 E60.5870
G1 X32.340 Y8.224 E64.7191
G1 X30.501 Y8.224 E65.5637
G1 X36.861 Y1.864 E69.6958
G1 X35.023 Y1.864 E70.5404
G1 X28.663 Y8.224 E74.6725
G1 X26.824 Y8.224 E75.5171
G1 X33.184 Y1.864 E79.6492
G1 X31.346 Y1.864 E80.4938
G1 X24.986 Y8.224 E84.6259
G1 X23.147 Y8.224 E85.4705
G1 X29.507 Y1.864 E89.6025
G1 X27.669 Y1.864 E90.4472
G1 X21.309 Y8.224 E94.5792
G1 X19.470 Y8.224 E95.4238
G1 X25.830 Y1.864 E99.5559
G1 X23.992 Y1.864 E100.4005
G1 X17.632 Y8.224 E104.5326
G1 X15.793 Y8.224 E105.3772
G1 X22.153 Y1.864 E109.5093
G1 X20.315 Y1.864 E110.3539
G1 X13.955 Y8.224 E114.4860
G1 X12.116 Y8.224 E115.3306
G1 X18.476 Y1.864 E119.4626
G1 X16.638 Y1.864 E120.3073
G1 X10.278 Y8.224 E124.4393
G1 X8.439 Y8.224 E125.2839
G1 X14.799 Y1.864 E129.4160
G1 X12.961 Y1.864 E130.2606
G1 X6.601 Y8.224 E134.3927
G1 X4.762 Y8.224 E135.2373
G1 X11.122 Y1.864 E139.3694
G1 X9.284 Y1.864 E140.2140
G1 X2.924 Y8.224 E144.3461
G1 X1.824 Y8.224 E144.8513
G1 X1.824 Y7.486 E145.1907
G1 X7.446 Y1.864 E148.8429
G1 X5.607 Y1.864 E149.6875
G1 X1.824 Y5.647 E152.1452
G1 X1.824 Y3.809 E152.9898
G1 X3.769 Y1.864 E154.2531
G1 X1.930 Y1.864 E155.0977
G1 X1.824 Y1.970 E155.1665
; layer 3, Z = 2.55
#LayerChange
; outer perimeter
G1 X59.354 Y9.394 F4800
G1 Z2.550 F1000
G92 E0
G1 X0.654 Y9.394 E26.9671 F600
G1 X0.654 Y0.694 E30.9639
G1 X59.354 Y0.694 E57.9311
G1 X59.354 Y9.394 E61.9279
; infill
G1 X58.078 Y1.864 F4800
G92 E0
G1 X58.184 Y1.970 E0.0688 F600
G1 X58.184 Y3.809 E0.9134
G1 X56.240 Y1.864 E2.1766
G1 X54.401 Y1.864 E3.0212
G1 X58.184 Y5.647 E5.4789
G1 X58.184 Y7.486 E6.3235
G1 X52.563 Y1.864 E9.9757
G1 X50.724 Y1.864 E10.8203
G1 X57.084 Y8.224 E14.9524
G1 X55.246 Y8.224 E15.7970
G1 X48.886 Y1.864 E19.9290
G1 X47.047 Y1.864 E20.7736
G1 X53.407 Y8.224 E24.9057
G1 X51.569 Y8.224 E25.7503
G1 X45.209 Y1.864 E29.8824
G1 X43.370 Y1.864 E30.7270
G1 X49.730 Y8.224 E34.8591
G1 X47.892 Y8.224 E35.7037
G1 X41.532 Y1.864 E39.8358
G1 X39.694 Y1.864 E40.6804
G1 X46.054 Y8.224 E44.8125
G1 X44.215 Y8.224 E45.6571
G1 X37.855 Y1.864 E49.7891
G1 X36.017 Y1.864 E50.6337
G1 X42.377 Y8.224 E54.7658
G1 X40.538 Y8.224 E55.6104
G1 X34.178 Y1.864 E59.7425
G1 X32.340 Y1.864 E60.5871
G1 X38.700 Y8.224 E64.7192
G1 X36.861 Y8.224 E65.5638
G1 X30.501 Y1.864 E69.6959
G1 X28.663 Y1.864 E70.5405
G1 X35.023 Y8.224 E74.6726
G1 X33.184 Y8.224 E75.5172
G1 X26.824 Y1.864 E79.6492
G1 X24.986 Y1.864 E80.4939
G1 X31.346 Y8.224 E84.6259
G1 X29.507 Y8.224 E85.4705
G1 X23.147 Y1.864 E89.6026
G1 X21.309 Y1.864 E90.4472
G1 X27.669 Y8.224 E94.5793
G1 X25.830 Y8.224 E95.4239
G1 X19.470 Y1.864 E99.5560
G1 X17.632 Y1.864 E100.4006
G1 X23.992 Y8.224 E104.5327
G1 X22.153 Y8.224 E105.3773
G1 X15.793 Y1.864 E109.5093
G1 X13.955 Y1.864 E110.3540
G1 X20.315 Y8.224 E114.4860
G1 X18.476 Y8.224 E115.3306
G1 X12.116 Y1.864 E119.4627
G1 X10.278 Y1.864 E120.3073
G1 X16.638 Y8.224 E124.4394
G1 X14.799 Y8.224 E125.2840
G1 X8.439 Y1.864 E129.4161
G1 X6.601 Y1.864 E130.2607
G1 X12.961 Y8.224 E134.3928
G1 X11.122 Y8.224 E135.2374
G1 X4.762 Y1.864 E139.3695
G1 X2.924 Y1.864 E140.2141
G1 X9.284 Y8.224 E144.3461
G1 X7.445 Y8.224 E145.1907
G1 X1.824 Y2.603 E148.8429
G1 X1.824 Y4.442 E149.6875
G1 X5.607 Y8.224 E152.1452
G1 X3.769 Y8.224 E152.9898
G1 X1.824 Y6.280 E154.2531
G1 X1.824 Y8.119 E155.0977
G1 X1.930 Y8.224 E155.1665
; layer 4, Z = 3.4
#LayerChange
; outer perimeter
G1 X0.654 Y0.694 F4800
G1 Z3.400 F1000
G92 E0
G1 X59.354 Y0.694 E26.9671 F600
G1 X59.354 Y9.394 E30.9639
G1 X0.654 Y9.394 E57.9311
G1 X0.654 Y0.694 E61.9279
; infill
G1 X1.824 Y1.970 F4800
G92 E0
G1 X1.930 Y1.864 E0.0688 F600
G1 X3.769 Y1.864 E0.9134
G1 X1.824 Y3.809 E2.1767
G1 X1.824 Y5.647 E3.0213
G1 X5.607 Y1.864 E5.4790
G1 X7.446 Y1.864 E6.3237
G1 X1.824 Y7.486 E9.9758
G1 X1.824 Y8.224 E10.3152
G1 X2.924 Y8.224 E10.8205
G1 X9.284 Y1.864 E14.9525
G1 X11.122 Y1.864 E15.7971
G1 X4.762 Y8.224 E19.9292
G1 X6.601 Y8.224 E20.7738
G1 X12.961 Y1.864 E24.9059
G1 X14.799 Y1.864 E25.7505
G1 X8.439 Y8.224 E29.8826
G1 X10.278 Y8.224 E30.7272
G1 X16.638 Y1.864 E34.8593
G1 X18.476 Y1.864 E35.7039
G1 X12.116 Y8.224 E39.8359
G1 X13.955 Y8.224 E40.6806
G1 X20.315 Y1.864 E44.8126
G1 X22.153 Y1.864 E45.6572
G1 X15.793 Y8.224 E49.7893
G1 X17.632 Y8.224 E50.6339
G1 X23.992 Y1.864 E54.7660
G1 X25.830 Y1.864 E55.6106
G1 X19.470 Y8.224 E59.7427
G1 X21.309 Y8.224 E60.5873
G1 X27.669 Y1.864 E64.7194
G1 X29.507 Y1.864 E65.5640
G1 X23.147 Y8.224 E69.6961
G1 X24.986 Y8.224 E70.5407
G1 X31.346 Y1.864 E74.6727
G1 X33.184 Y1.864 E75.5173
G1 X26.824 Y8.224 E79.6494
G1 X28.663 Y8.224 E80.4940
G1 X35.023 Y1.864 E84.6261
G1 X36.861 Y1.864 E85.4707
G1 X30.501 Y8.224 E89.6028
G1 X32.340 Y8.224 E90.4474
G1 X38.700 Y1.864 E94.5795
G1 X40.538 Y1.864 E95.4241
G1 X34.178 Y8.224 E99.5562
G1 X36.017 Y8.224 E100.4008
G1 X42.377 Y1.864 E104.5328
G1 X44.215 Y1.864 E105.3774
G1 X37.855 Y8.224 E109.5095
G1 X39.694 Y8.224 E110.3541
G1 X46.054 Y1.864 E114.4862
G1 X47.892 Y1.864 E115.3308
G1 X41.532 Y8.224 E119.4629
G1 X43.371 Y8.224 E120.3075
G1 X49.731 Y1.864 E124.4396
G1 X51.569 Y1.864 E125.2842
G1 X45.209 Y8.224 E129.4163
G1 X47.047 Y8.224 E130.2609
G1 X53.407 Y1.864 E134.3929
G1 X55.246 Y1.864 E135.2375
G1 X48.886 Y8.224 E139.3696
G1 X50.724 Y8.224 E140.2142
G1 X57.084 Y1.864 E144.3463
G1 X58.184 Y1.864 E144.8515
G1 X58.184 Y2.603 E145.1909
G1 X52.563 Y8.224 E148.8430
G1 X54.401 Y8.224 E149.6877
G1 X58.184 Y4.442 E152.1453
G1 X58.184 Y6.280 E152.9899
G1 X56.240 Y8.224 E154.2531
G1 X58.078 Y8.224 E155.0978
G1 X58.184 Y8.119 E155.1665
; layer 5, Z = 4.25
#LayerChange
; outer perimeter
G1 X59.354 Y9.394 F4800
G1 Z4.250 F1000
G92 E0
G1 X0.654 Y9.394 E26.9671 F600
G1 X0.654 Y0.694 E30.9639
G1 X59.354 Y0.694 E57.9311
G1 X59.354 Y9.394 E61.9279
; infill
G1 X58.078 Y1.864 F4800
G92 E0
G1 X58.184 Y1.970 E0.0688 F600
G1 X58.184 Y3.809 E0.9134
G1 X56.240 Y1.864 E2.1766
G1 X54.401 Y1.864 E3.0212
G1 X58.184 Y5.647 E5.4789
G1 X58.184 Y7.486 E6.3235
G1 X52.563 Y1.864 E9.9757
G1 X50.724 Y1.864 E10.8203
G1 X57.084 Y8.224 E14.9524
G1 X55.246 Y8.224 E15.7970
G1 X48.886 Y1.864 E19.9290
G1 X47.047 Y1.864 E20.7736
G1 X53.407 Y8.224 E24.9057
G1 X51.569 Y8.224 E25.7503
G1 X45.209 Y1.864 E29.8824
G1 X43.370 Y1.864 E30.7270
G1 X49.730 Y8.224 E34.8591
G1 X47.892 Y8.224 E35.7037
G1 X41.532 Y1.864 E39.8358
G1 X39.694 Y1.864 E40.6804
G1 X46.054 Y8.224 E44.8125
G1 X44.215 Y8.224 E45.6571
G1 X37.855 Y1.864 E49.7891
G1 X36.017 Y1.864 E50.6337
G1 X42.377 Y8.224 E54.7658
G1 X40.538 Y8.224 E55.6104
G1 X34.178 Y1.864 E59.7425
G1 X32.340 Y1.864 E60.5871
G1 X38.700 Y8.224 E64.7192
G1 X36.861 Y8.224 E65.5638
G1 X30.501 Y1.864 E69.6959
G1 X28.663 Y1.864 E70.5405
G1 X35.023 Y8.224 E74.6726
G1 X33.184 Y8.224 E75.5172
G1 X26.824 Y1.864 E79.6492
G1 X24.986 Y1.864 E80.4939
G1 X31.346 Y8.224 E84.6259
G1 X29.507 Y8.224 E85.4705
G1 X23.147 Y1.864 E89.6026
G1 X21.309 Y1.864 E90.4472
G1 X27.669 Y8.224 E94.5793
G1 X25.830 Y8.224 E95.4239
G1 X19.470 Y1.864 E99.5560
G1 X17.632 Y1.864 E100.4006
G1 X23.992 Y8.224 E104.5327
G1 X22.153 Y8.224 E105.3773
G1 X15.793 Y1.864 E109.5093
G1 X13.955 Y1.864 E110.3540
G1 X20.315 Y8.224 E114.4860
G1 X18.476 Y8.224 E115.3306
G1 X12.116 Y1.864 E119.4627
G1 X10.278 Y1.864 E120.3073
G1 X16.638 Y8.224 E124.4394
G1 X14.799 Y8.224 E125.2840
G1 X8.439 Y1.864 E129.4161
G1 X6.601 Y1.864 E130.2607
G1 X12.961 Y8.224 E134.3928
G1 X11.122 Y8.224 E135.2374
G1 X4.762 Y1.864 E139.3695
G1 X2.924 Y1.864 E140.2141
G1 X9.284 Y8.224 E144.3461
G1 X7.445 Y8.224 E145.1907
G1 X1.824 Y2.603 E148.8429
G1 X1.824 Y4.442 E149.6875
G1 X5.607 Y8.224 E152.1452
G1 X3.769 Y8.224 E152.9898
G1 X1.824 Y6.280 E154.2531
G1 X1.824 Y8.119 E155.0977
G1 X1.930 Y8.224 E155.1665
; layer 6, Z = 5.1
#LayerChange
; outer perimeter
G1 X0.654 Y9.394 F4800
G1 Z5.100 F1000
G92 E0
G1 X0.654 Y0.694 E3.9968 F600
G1 X59.354 Y0.694 E30.9639
G1 X59.354 Y9.394 E34.9608
G1 X0.654 Y9.394 E61.9279
; infill
