; G-Code generated by Simplify3D(R) Version 3.1.1
; Apr 11, 2019 at 3:44:45 PM
; Settings Summary
;   processName,Kjellberg_Block
;   applyToModels,block
;   profileName,Default (modified)
;   profileVersion,2015-05-01 08:00:00
;   baseProfile,
;   printMaterial,PLA
;   printQuality,High
;   printExtruders,
;   extruderName,Primary Extruder
;   extruderToolheadNumber,0
;   extruderDiameter,1
;   extruderAutoWidth,0
;   extruderWidth,1.8
;   extrusionMultiplier,1
;   extruderUseRetract,0
;   extruderRetractionDistance,0
;   extruderExtraRestartDistance,0
;   extruderRetractionZLift,5
;   extruderRetractionSpeed,1800
;   extruderUseCoasting,0
;   extruderCoastingDistance,0.2
;   extruderUseWipe,0
;   extruderWipeDistance,5
;   primaryExtruder,0
;   layerHeight,0.95
;   topSolidLayers,0
;   bottomSolidLayers,0
;   perimeterOutlines,1
;   printPerimetersInsideOut,1
;   startPointOption,1
;   startPointOriginX,0
;   startPointOriginY,0
;   startPointOriginZ,300
;   sequentialIslands,1
;   spiralVaseMode,0
;   firstLayerHeightPercentage,100
;   firstLayerWidthPercentage,100
;   firstLayerUnderspeed,1
;   useRaft,0
;   raftExtruder,0
;   raftLayers,3
;   raftOffset,3
;   raftSeparationDistance,0.14
;   raftInfill,85
;   disableRaftBaseLayers,0
;   useSkirt,0
;   skirtExtruder,0
;   skirtLayers,2
;   skirtOutlines,2
;   skirtOffset,4
;   usePrimePillar,0
;   primePillarExtruder,999
;   primePillarWidth,12
;   primePillarLocation,7
;   primePillarSpeedMultiplier,1
;   useOozeShield,0
;   oozeShieldExtruder,999
;   oozeShieldOffset,2
;   oozeShieldOutlines,1
;   oozeShieldSidewallShape,1
;   oozeShieldSidewallAngle,30
;   oozeShieldSpeedMultiplier,1
;   infillExtruder,0
;   internalInfillPattern,Rectilinear
;   externalInfillPattern,Rectilinear
;   infillPercentage,100
;   outlineOverlapPercentage,0
;   infillExtrusionWidthPercentage,100
;   minInfillLength,4
;   infillLayerInterval,1
;   infillAngles,45,-45
;   overlapInfillAngles,0
;   generateSupport,0
;   supportExtruder,0
;   supportInfillPercentage,40
;   supportExtraInflation,0
;   denseSupportLayers,0
;   denseSupportInfillPercentage,70
;   supportLayerInterval,1
;   supportHorizontalPartOffset,0.3
;   supportUpperSeparationLayers,1
;   supportLowerSeparationLayers,1
;   supportType,0
;   supportGridSpacing,4
;   maxOverhangAngle,45
;   supportAngles,0
;   temperatureName,Primary Extruder
;   temperatureNumber,0
;   temperatureSetpointCount,1
;   temperatureSetpointLayers,1
;   temperatureSetpointTemperatures,0
;   temperatureStabilizeAtStartup,1
;   temperatureHeatedBed,0
;   temperatureRelayBetweenLayers,0
;   temperatureRelayBetweenLoops,0
;   fanLayers,1,2
;   fanSpeeds,0,100
;   blipFanToFullPower,0
;   adjustSpeedForCooling,0
;   minSpeedLayerTime,15
;   minCoolingSpeedSlowdown,20
;   increaseFanForCooling,0
;   minFanLayerTime,45
;   maxCoolingFanSpeed,100
;   increaseFanForBridging,0
;   bridgingFanSpeed,100
;   use5D,1
;   relativeEdistances,0
;   allowEaxisZeroing,1
;   independentExtruderAxes,0
;   includeM10123,0
;   stickySupport,1
;   applyToolheadOffsets,0
;   gcodeXoffset,0
;   gcodeYoffset,0
;   gcodeZoffset,0
;   overrideMachineDefinition,0
;   machineTypeOverride,0
;   strokeXoverride,200
;   strokeYoverride,200
;   strokeZoverride,200
;   originOffsetXoverride,0
;   originOffsetYoverride,0
;   originOffsetZoverride,0
;   homeXdirOverride,-1
;   homeYdirOverride,-1
;   homeZdirOverride,-1
;   flipXoverride,1
;   flipYoverride,-1
;   flipZoverride,1
;   toolheadOffsets,0,0|0,0|0,0|0,0|0,0|0,0
;   overrideFirmwareConfiguration,0
;   firmwareTypeOverride,RepRap (Marlin/Repetier/Sprinter)
;   GPXconfigOverride,r2
;   baudRateOverride,115200
;   overridePrinterModels,0
;   printerModelsOverride
;   startingGcode,##Start
;   layerChangeGcode,#LayerChange
;   retractionGcode,#Retraction
;   toolChangeGcode,
;   endingGcode,##End
;   exportFileFormat,gcode
;   celebration,0
;   celebrationSong,Random Song
;   postProcessing,
;   defaultSpeed,600
;   outlineUnderspeed,1
;   solidInfillUnderspeed,0.8
;   supportUnderspeed,0.8
;   rapidXYspeed,4800
;   rapidZspeed,1000
;   minBridgingArea,40
;   bridgingExtraInflation,1
;   bridgingExtrusionMultiplier,1
;   bridgingSpeedMultiplier,1
;   filamentDiameter,1.75
;   filamentPricePerKg,46
;   filamentDensity,1.25
;   useMinPrintHeight,0
;   minPrintHeight,0
;   useMaxPrintHeight,0
;   maxPrintHeight,0
;   useDiaphragm,0
;   diaphragmLayerInterval,20
;   robustSlicing,0
;   mergeAllIntoSolid,0
;   onlyRetractWhenCrossingOutline,1
;   retractBetweenLayers,0
;   useRetractionMinTravel,0
;   retractionMinTravel,3
;   retractWhileWiping,0
;   onlyWipeOutlines,1
;   avoidCrossingOutline,0
;   maxMovementDetourFactor,3
;   toolChangeRetractionDistance,0
;   toolChangeExtraRestartDistance,0
;   toolChangeRetractionSpeed,600
;   allowThinWallGapFill,1
;   thinWallAllowedOverlapPercentage,50
;   horizontalSizeCompensation,0
G90
M82
M106 S0
M104 S0 T0
##Start
G92 E0
#Retraction
G1 E0.0000 F1800
G1 Z5.950 F1000
; layer 1, Z = 0.95
#LayerChange
T0
; tool H0.950 W1.800
; outer perimeter
G1 X59.104 Y0.944 F4800
G1 Z0.950 F1000
G1 E0.0000 F540
G92 E0
G1 X59.104 Y9.144 E5.8297 F600
G1 X0.904 Y9.144 E47.2061
G1 X0.904 Y0.944 E53.0358
G1 X59.104 Y0.944 E94.4122
; infill
G1 X55.706 Y2.744 F4800
G92 E0
G1 X57.304 Y4.343 E1.6072 F600
G1 X57.304 Y6.889 E3.4170
G1 X53.160 Y2.744 E7.5835
G1 X50.614 Y2.744 E9.3933
G1 X55.214 Y7.344 E14.0182
G1 X52.669 Y7.344 E15.8279
G1 X48.069 Y2.744 E20.4528
G1 X45.523 Y2.744 E22.2626
G1 X50.123 Y7.344 E26.8875
G1 X47.578 Y7.344 E28.6972
G1 X42.978 Y2.744 E33.3222
G1 X40.432 Y2.744 E35.1319
G1 X45.032 Y7.344 E39.7568
G1 X42.487 Y7.344 E41.5665
G1 X37.887 Y2.744 E46.1915
G1 X35.341 Y2.744 E48.0012
G1 X39.941 Y7.344 E52.6261
G1 X37.395 Y7.344 E54.4359
G1 X32.795 Y2.744 E59.0608
G1 X30.250 Y2.744 E60.8705
G1 X34.850 Y7.344 E65.4954
G1 X32.304 Y7.344 E67.3052
G1 X27.704 Y2.744 E71.9301
G1 X25.159 Y2.744 E73.7398
G1 X29.759 Y7.344 E78.3647
G1 X27.213 Y7.344 E80.1745
G1 X22.613 Y2.744 E84.7994
G1 X20.067 Y2.744 E86.6091
G1 X24.667 Y7.344 E91.2340
G1 X22.122 Y7.344 E93.0438
G1 X17.522 Y2.744 E97.6687
G1 X14.976 Y2.744 E99.4784
G1 X19.576 Y7.344 E104.1033
G1 X17.031 Y7.344 E105.9131
G1 X12.431 Y2.744 E110.5380
G1 X9.885 Y2.744 E112.3477
G1 X14.485 Y7.344 E116.9726
G1 X11.939 Y7.344 E118.7824
G1 X7.339 Y2.744 E123.4073
G1 X4.794 Y2.744 E125.2170
G1 X9.394 Y7.344 E129.8419
G1 X6.848 Y7.344 E131.6517
G1 X2.704 Y3.200 E135.8183
G1 X2.704 Y5.746 E137.6281
G1 X4.303 Y7.344 E139.2353
; layer 2, Z = 1.9
M106 S255
#LayerChange
; outer perimeter
G1 X59.104 Y9.144 F4800
G1 Z1.900 F1000
G92 E0
G1 X0.904 Y9.144 E41.3764 F600
G1 X0.904 Y0.944 E47.2061
G1 X59.104 Y0.944 E88.5826
G1 X59.104 Y9.144 E94.4122
; infill
G1 X57.304 Y5.746 F4800
G92 E0
G1 X55.706 Y7.344 E1.6072 F600
G1 X53.160 Y7.344 E3.4169
G1 X57.304 Y3.200 E7.5835
G1 X57.304 Y2.744 E7.9076
G1 X55.214 Y2.744 E9.3932
G1 X50.614 Y7.344 E14.0181
G1 X48.069 Y7.344 E15.8279
G1 X52.669 Y2.744 E20.4528
G1 X50.123 Y2.744 E22.2625
G1 X45.523 Y7.344 E26.8874
G1 X42.978 Y7.344 E28.6972
G1 X47.578 Y2.744 E33.3221
G1 X45.032 Y2.744 E35.1318
G1 X40.432 Y7.344 E39.7567
G1 X37.887 Y7.344 E41.5665
G1 X42.487 Y2.744 E46.1914
G1 X39.941 Y2.744 E48.0011
G1 X35.341 Y7.344 E52.6260
G1 X32.795 Y7.344 E54.4358
G1 X37.395 Y2.744 E59.0607
G1 X34.850 Y2.744 E60.8704
G1 X30.250 Y7.344 E65.4954
G1 X27.704 Y7.344 E67.3051
G1 X32.304 Y2.744 E71.9300
G1 X29.759 Y2.744 E73.7398
G1 X25.159 Y7.344 E78.3647
G1 X22.613 Y7.344 E80.1744
G1 X27.213 Y2.744 E84.7993
G1 X24.667 Y2.744 E86.6091
G1 X20.067 Y7.344 E91.2340
G1 X17.522 Y7.344 E93.0437
G1 X22.122 Y2.744 E97.6686
G1 X19.576 Y2.744 E99.4784
G1 X14.976 Y7.344 E104.1033
G1 X12.431 Y7.344 E105.9130
G1 X17.031 Y2.744 E110.5379
G1 X14.485 Y2.744 E112.3477
G1 X9.885 Y7.344 E116.9726
G1 X7.340 Y7.344 E118.7823
G1 X11.940 Y2.744 E123.4072
G1 X9.394 Y2.744 E125.2170
G1 X4.794 Y7.344 E129.8419
G1 X2.704 Y7.344 E131.3276
G1 X2.704 Y6.889 E131.6516
G1 X6.848 Y2.744 E135.8183
G1 X4.303 Y2.744 E137.6280
G1 X2.704 Y4.343 E139.2353
; layer 3, Z = 2.85
#LayerChange
; outer perimeter
G1 X59.104 Y9.144 F4800
G1 Z2.850 F1000
G92 E0
G1 X0.904 Y9.144 E41.3764 F600
G1 X0.904 Y0.944 E47.2061
G1 X59.104 Y0.944 E88.5826
G1 X59.104 Y9.144 E94.4122
; infill
G1 X55.706 Y2.744 F4800
G92 E0
G1 X57.304 Y4.343 E1.6072 F600
G1 X57.304 Y6.889 E3.4170
G1 X53.160 Y2.744 E7.5835
G1 X50.614 Y2.744 E9.3933
G1 X55.214 Y7.344 E14.0182
G1 X52.669 Y7.344 E15.8279
G1 X48.069 Y2.744 E20.4528
G1 X45.523 Y2.744 E22.2626
G1 X50.123 Y7.344 E26.8875
G1 X47.578 Y7.344 E28.6972
G1 X42.978 Y2.744 E33.3222
G1 X40.432 Y2.744 E35.1319
G1 X45.032 Y7.344 E39.7568
G1 X42.487 Y7.344 E41.5665
G1 X37.887 Y2.744 E46.1915
G1 X35.341 Y2.744 E48.0012
G1 X39.941 Y7.344 E52.6261
G1 X37.395 Y7.344 E54.4359
G1 X32.795 Y2.744 E59.0608
G1 X30.250 Y2.744 E60.8705
G1 X34.850 Y7.344 E65.4954
G1 X32.304 Y7.344 E67.3052
G1 X27.704 Y2.744 E71.9301
G1 X25.159 Y2.744 E73.7398
G1 X29.759 Y7.344 E78.3647
G1 X27.213 Y7.344 E80.1745
G1 X22.613 Y2.744 E84.7994
G1 X20.067 Y2.744 E86.6091
G1 X24.667 Y7.344 E91.2340
G1 X22.122 Y7.344 E93.0438
G1 X17.522 Y2.744 E97.6687
G1 X14.976 Y2.744 E99.4784
G1 X19.576 Y7.344 E104.1033
G1 X17.031 Y7.344 E105.9131
G1 X12.431 Y2.744 E110.5380
G1 X9.885 Y2.744 E112.3477
G1 X14.485 Y7.344 E116.9726
G1 X11.939 Y7.344 E118.7824
G1 X7.339 Y2.744 E123.4073
G1 X4.794 Y2.744 E125.2170
G1 X9.394 Y7.344 E129.8419
G1 X6.848 Y7.344 E131.6517
G1 X2.704 Y3.200 E135.8183
G1 X2.704 Y5.746 E137.6281
G1 X4.303 Y7.344 E139.2353
; layer 4, Z = 3.8
#LayerChange
; outer perimeter
G1 X0.904 Y0.944 F4800
G1 Z3.800 F1000
G92 E0
G1 X59.104 Y0.944 E41.3764 F600
G1 X59.104 Y9.144 E47.2061
G1 X0.904 Y9.144 E88.5826
G1 X0.904 Y0.944 E94.4122
; infill
G1 X2.704 Y4.343 F4800
G92 E0
G1 X4.303 Y2.744 E1.6073 F600
G1 X6.848 Y2.744 E3.4170
G1 X2.704 Y6.889 E7.5837
G1 X2.704 Y7.344 E7.9077
G1 X4.794 Y7.344 E9.3934
G1 X9.394 Y2.744 E14.0183
G1 X11.940 Y2.744 E15.8281
G1 X7.340 Y7.344 E20.4530
G1 X9.885 Y7.344 E22.2627
G1 X14.485 Y2.744 E26.8876
G1 X17.031 Y2.744 E28.6974
G1 X12.431 Y7.344 E33.3223
G1 X14.976 Y7.344 E35.1320
G1 X19.576 Y2.744 E39.7569
G1 X22.122 Y2.744 E41.5667
G1 X17.522 Y7.344 E46.1916
G1 X20.067 Y7.344 E48.0013
G1 X24.667 Y2.744 E52.6262
G1 X27.213 Y2.744 E54.4360
G1 X22.613 Y7.344 E59.0609
G1 X25.159 Y7.344 E60.8706
G1 X29.759 Y2.744 E65.4955
G1 X32.304 Y2.744 E67.3053
G1 X27.704 Y7.344 E71.9302
G1 X30.250 Y7.344 E73.7399
G1 X34.850 Y2.744 E78.3649
G1 X37.395 Y2.744 E80.1746
G1 X32.795 Y7.344 E84.7995
G1 X35.341 Y7.344 E86.6093
G1 X39.941 Y2.744 E91.2342
G1 X42.487 Y2.744 E93.0439
G1 X37.887 Y7.344 E97.6688
G1 X40.432 Y7.344 E99.4786
G1 X45.032 Y2.744 E104.1035
G1 X47.578 Y2.744 E105.9132
G1 X42.978 Y7.344 E110.5381
G1 X45.523 Y7.344 E112.3479
G1 X50.123 Y2.744 E116.9728
G1 X52.669 Y2.744 E118.7825
G1 X48.069 Y7.344 E123.4074
G1 X50.614 Y7.344 E125.2172
G1 X55.214 Y2.744 E129.8421
G1 X57.304 Y2.744 E131.3277
G1 X57.304 Y3.200 E131.6518
G1 X53.160 Y7.344 E135.8184
G1 X55.706 Y7.344 E137.6281
G1 X57.304 Y5.746 E139.2353
; layer 5, Z = 4.75
#LayerChange
; outer perimeter
G1 X59.104 Y9.144 F4800
G1 Z4.750 F1000
G92 E0
G1 X0.904 Y9.144 E41.3764 F600
G1 X0.904 Y0.944 E47.2061
G1 X59.104 Y0.944 E88.5826
G1 X59.104 Y9.144 E94.4122
; infill
G1 X55.706 Y2.744 F4800
G92 E0
G1 X57.304 Y4.343 E1.6072 F600
G1 X57.304 Y6.889 E3.4170
G1 X53.160 Y2.744 E7.5835
G1 X50.614 Y2.744 E9.3933
G1 X55.214 Y7.344 E14.0182
G1 X52.669 Y7.344 E15.8279
G1 X48.069 Y2.744 E20.4528
G1 X45.523 Y2.744 E22.2626
G1 X50.123 Y7.344 E26.8875
G1 X47.578 Y7.344 E28.6972
G1 X42.978 Y2.744 E33.3222
G1 X40.432 Y2.744 E35.1319
G1 X45.032 Y7.344 E39.7568
G1 X42.487 Y7.344 E41.5665
G1 X37.887 Y2.744 E46.1915
G1 X35.341 Y2.744 E48.0012
G1 X39.941 Y7.344 E52.6261
G1 X37.395 Y7.344 E54.4359
G1 X32.795 Y2.744 E59.0608
G1 X30.250 Y2.744 E60.8705
G1 X34.850 Y7.344 E65.4954
G1 X32.304 Y7.344 E67.3052
G1 X27.704 Y2.744 E71.9301
G1 X25.159 Y2.744 E73.7398
G1 X29.759 Y7.344 E78.3647
G1 X27.213 Y7.344 E80.1745
G1 X22.613 Y2.744 E84.7994
G1 X20.067 Y2.744 E86.6091
G1 X24.667 Y7.344 E91.2340
G1 X22.122 Y7.344 E93.0438
G1 X17.522 Y2.744 E97.6687
G1 X14.976 Y2.744 E99.4784
G1 X19.576 Y7.344 E104.1033
G1 X17.031 Y7.344 E105.9131
G1 X12.431 Y2.744 E110.5380
G1 X9.885 Y2.744 E112.3477
G1 X14.485 Y7.344 E116.9726
G1 X11.939 Y7.344 E118.7824
G1 X7.339 Y2.744 E123.4073
G1 X4.794 Y2.744 E125.2170
G1 X9.394 Y7.344 E129.8419
G1 X6.848 Y7.344 E131.6517
G1 X2.704 Y3.200 E135.8183
G1 X2.704 Y5.746 E137.6281
G1 X4.303 Y7.344 E139.2353
; layer end
##End
; Build Summary
;   Build time: 0 hours 2 minutes
;   Filament length: 1168.2 mm (1.17 m)
;   Plastic volume: 2809.94 mm^3 (2.81 cc)
;   Plastic weight: 3.51 g (0.01 lb)
;   Material cost: 0.16
