; G-Code generated by Simplify3D(R) Version 3.1.1
; Mar 19, 2019 at 5:29:15 PM
; Settings Summary
;   processName,Process1
;   applyToModels,gerade_testkanal2
;   profileName,Default (modified)
;   profileVersion,2015-05-01 08:00:00
;   baseProfile,
;   printMaterial,PLA
;   printQuality,High
;   printExtruders,
;   extruderName,Primary Extruder
;   extruderToolheadNumber,0
;   extruderDiameter,1
;   extruderAutoWidth,0
;   extruderWidth,4
;   extrusionMultiplier,1
;   extruderUseRetract,1
;   extruderRetractionDistance,0
;   extruderExtraRestartDistance,0
;   extruderRetractionZLift,5
;   extruderRetractionSpeed,1800
;   extruderUseCoasting,0
;   extruderCoastingDistance,0.2
;   extruderUseWipe,0
;   extruderWipeDistance,5
;   primaryExtruder,0
;   layerHeight,1.3
;   topSolidLayers,1
;   bottomSolidLayers,0
;   perimeterOutlines,2
;   printPerimetersInsideOut,1
;   startPointOption,1
;   startPointOriginX,0
;   startPointOriginY,0
;   startPointOriginZ,300
;   sequentialIslands,0
;   spiralVaseMode,0
;   firstLayerHeightPercentage,115
;   firstLayerWidthPercentage,100
;   firstLayerUnderspeed,1
;   useRaft,0
;   raftExtruder,0
;   raftLayers,3
;   raftOffset,3
;   raftSeparationDistance,0.14
;   raftInfill,85
;   disableRaftBaseLayers,0
;   useSkirt,0
;   skirtExtruder,0
;   skirtLayers,2
;   skirtOutlines,2
;   skirtOffset,4
;   usePrimePillar,0
;   primePillarExtruder,999
;   primePillarWidth,12
;   primePillarLocation,7
;   primePillarSpeedMultiplier,1
;   useOozeShield,0
;   oozeShieldExtruder,999
;   oozeShieldOffset,2
;   oozeShieldOutlines,1
;   oozeShieldSidewallShape,1
;   oozeShieldSidewallAngle,30
;   oozeShieldSpeedMultiplier,1
;   infillExtruder,0
;   internalInfillPattern,Rectilinear
;   externalInfillPattern,Rectilinear
;   infillPercentage,100
;   outlineOverlapPercentage,0
;   infillExtrusionWidthPercentage,100
;   minInfillLength,5
;   infillLayerInterval,1
;   infillAngles,0,90
;   overlapInfillAngles,0
;   generateSupport,0
;   supportExtruder,0
;   supportInfillPercentage,40
;   supportExtraInflation,0
;   denseSupportLayers,0
;   denseSupportInfillPercentage,70
;   supportLayerInterval,1
;   supportHorizontalPartOffset,0.3
;   supportUpperSeparationLayers,1
;   supportLowerSeparationLayers,1
;   supportType,0
;   supportGridSpacing,4
;   maxOverhangAngle,45
;   supportAngles,0
;   temperatureName,Primary Extruder
;   temperatureNumber,0
;   temperatureSetpointCount,1
;   temperatureSetpointLayers,1
;   temperatureSetpointTemperatures,0
;   temperatureStabilizeAtStartup,1
;   temperatureHeatedBed,0
;   temperatureRelayBetweenLayers,0
;   temperatureRelayBetweenLoops,0
;   fanLayers,1,2
;   fanSpeeds,0,100
;   blipFanToFullPower,0
;   adjustSpeedForCooling,0
;   minSpeedLayerTime,15
;   minCoolingSpeedSlowdown,20
;   increaseFanForCooling,0
;   minFanLayerTime,45
;   maxCoolingFanSpeed,100
;   increaseFanForBridging,0
;   bridgingFanSpeed,100
;   use5D,1
;   relativeEdistances,0
;   allowEaxisZeroing,1
;   independentExtruderAxes,0
;   includeM10123,0
;   stickySupport,1
;   applyToolheadOffsets,0
;   gcodeXoffset,0
;   gcodeYoffset,0
;   gcodeZoffset,0
;   overrideMachineDefinition,0
;   machineTypeOverride,0
;   strokeXoverride,200
;   strokeYoverride,200
;   strokeZoverride,200
;   originOffsetXoverride,0
;   originOffsetYoverride,0
;   originOffsetZoverride,0
;   homeXdirOverride,-1
;   homeYdirOverride,-1
;   homeZdirOverride,-1
;   flipXoverride,1
;   flipYoverride,-1
;   flipZoverride,1
;   toolheadOffsets,0,0|0,0|0,0|0,0|0,0|0,0
;   overrideFirmwareConfiguration,0
;   firmwareTypeOverride,RepRap (Marlin/Repetier/Sprinter)
;   GPXconfigOverride,r2
;   baudRateOverride,115200
;   overridePrinterModels,0
;   printerModelsOverride
;   startingGcode,##Start
;   layerChangeGcode,#LayerChange
;   retractionGcode,#Retraction
;   toolChangeGcode,
;   endingGcode,##End
;   exportFileFormat,gcode
;   celebration,0
;   celebrationSong,Random Song
;   postProcessing,
;   defaultSpeed,600
;   outlineUnderspeed,1
;   solidInfillUnderspeed,0.8
;   supportUnderspeed,0.8
;   rapidXYspeed,4800
;   rapidZspeed,1000
;   minBridgingArea,40
;   bridgingExtraInflation,1
;   bridgingExtrusionMultiplier,1
;   bridgingSpeedMultiplier,1
;   filamentDiameter,1.75
;   filamentPricePerKg,46
;   filamentDensity,1.25
;   useMinPrintHeight,0
;   minPrintHeight,0
;   useMaxPrintHeight,0
;   maxPrintHeight,0
;   useDiaphragm,0
;   diaphragmLayerInterval,20
;   robustSlicing,0
;   mergeAllIntoSolid,0
;   onlyRetractWhenCrossingOutline,1
;   retractBetweenLayers,0
;   useRetractionMinTravel,0
;   retractionMinTravel,3
;   retractWhileWiping,0
;   onlyWipeOutlines,1
;   avoidCrossingOutline,0
;   maxMovementDetourFactor,3
;   toolChangeRetractionDistance,0
;   toolChangeExtraRestartDistance,0
;   toolChangeRetractionSpeed,600
;   allowThinWallGapFill,1
;   thinWallAllowedOverlapPercentage,50
;   horizontalSizeCompensation,0
G90
M82
M106 S0
M104 S0 T0
##Start
G92 E0
#Retraction
G1 E0.0000 F1800
G1 Z6.495 F1000
; layer 1, Z = 1.495
#LayerChange
T0
; tool H1.495 W4.000
; inner perimeter
G1 X6.250 Y41.867 F4800
G1 Z1.495 F1000
G1 E0.0000 F540
G92 E0
G1 X5.356 Y42.761 E3.1419 F600
G1 X3.853 Y48.367 E17.5726
G1 X5.356 Y53.973 E32.0033
G1 X6.250 Y54.867 E35.1452
G1 X-1.119 Y54.867 E53.4665
G1 X-0.226 Y53.973 E56.6084
G1 X1.277 Y48.367 E71.0391
G1 X-0.226 Y42.761 E85.4697
G1 X-1.119 Y41.867 E88.6117
G1 X6.250 Y41.867 E106.9329
; outer perimeter
G1 X25.565 Y37.867 F4800
G92 E0
G1 X25.565 Y58.867 E52.2101 F600
G1 X-20.435 Y58.867 E166.5750
G1 X-20.435 Y37.867 E218.7851
G1 X25.565 Y37.867 E333.1501
; inner perimeter
; outer perimeter
G1 X18.601 Y42.244 F4800
G92 E0
G1 X15.065 Y41.296 E9.1007 F600
G1 X11.530 Y42.244 E18.2014
G1 X8.942 Y44.831 E27.2980
G1 X7.995 Y48.367 E36.3987
G1 X8.942 Y51.903 E45.4994
G1 X11.530 Y54.490 E54.5960
G1 X15.065 Y55.438 E63.6967
G1 X18.601 Y54.490 E72.7974
G1 X21.188 Y51.903 E81.8939
G1 X22.136 Y48.367 E90.9947
G1 X21.188 Y44.831 E100.0954
G1 X18.601 Y42.244 E109.1919
; inner perimeter
; outer perimeter
G1 X-3.812 Y44.831 F4800
G92 E0
G1 X-6.399 Y42.244 E9.0966 F600
G1 X-9.935 Y41.296 E18.1972
G1 X-13.470 Y42.244 E27.2980
G1 X-16.058 Y44.831 E36.3945
G1 X-17.005 Y48.367 E45.4953
G1 X-16.058 Y51.903 E54.5960
G1 X-13.470 Y54.490 E63.6925
G1 X-9.935 Y55.438 E72.7933
G1 X-6.399 Y54.490 E81.8940
G1 X-3.812 Y51.903 E90.9905
G1 X-2.864 Y48.367 E100.0912
G1 X-3.812 Y44.831 E109.1920
; layer 2, Z = 2.795
M106 S255
#LayerChange
; tool H1.300 W4.000
; inner perimeter
G1 X6.250 Y54.867 F4800
G1 Z2.795 F1000
G92 E0
G1 X-1.119 Y54.867 E15.9315 F600
G1 X-0.226 Y53.973 E18.6638
G1 X1.277 Y48.367 E31.2121
G1 X-0.226 Y42.761 E43.7604
G1 X-1.119 Y41.867 E46.4926
G1 X6.250 Y41.867 E62.4241
G1 X5.356 Y42.761 E65.1564
G1 X3.853 Y48.367 E77.7047
G1 X5.356 Y53.973 E90.2530
G1 X6.250 Y54.867 E92.9852
; outer perimeter
G1 X25.565 Y58.867 F4800
G92 E0
G1 X-20.435 Y58.867 E99.4478 F600
G1 X-20.435 Y37.867 E144.8479
G1 X25.565 Y37.867 E244.2956
G1 X25.565 Y58.867 E289.6957
; inner perimeter
; outer perimeter
G1 X18.601 Y54.490 F4800
G92 E0
G1 X21.188 Y51.903 E7.9102 F600
G1 X22.136 Y48.367 E15.8238
G1 X21.188 Y44.831 E23.7374
G1 X18.601 Y42.244 E31.6476
G1 X15.065 Y41.296 E39.5612
G1 X11.530 Y42.244 E47.4748
G1 X8.942 Y44.831 E55.3849
G1 X7.995 Y48.367 E63.2986
G1 X8.942 Y51.903 E71.2122
G1 X11.530 Y54.490 E79.1223
G1 X15.065 Y55.438 E87.0360
G1 X18.601 Y54.490 E94.9496
; inner perimeter
; outer perimeter
G1 X-3.812 Y51.903 F4800
G92 E0
G1 X-2.864 Y48.367 E7.9136 F600
G1 X-3.812 Y44.831 E15.8272
G1 X-6.399 Y42.244 E23.7374
G1 X-9.935 Y41.296 E31.6510
G1 X-13.470 Y42.244 E39.5646
G1 X-16.058 Y44.831 E47.4748
G1 X-17.005 Y48.367 E55.3884
G1 X-16.058 Y51.903 E63.3020
G1 X-13.470 Y54.490 E71.2122
G1 X-9.935 Y55.438 E79.1258
G1 X-6.399 Y54.490 E87.0394
G1 X-3.812 Y51.903 E94.9495
; layer 3, Z = 4.095
#LayerChange
; inner perimeter
G1 X6.250 Y54.867 F4800
G1 Z4.095 F1000
G92 E0
G1 X-1.119 Y54.867 E15.9315 F600
G1 X-0.226 Y53.973 E18.6638
G1 X1.277 Y48.367 E31.2121
G1 X-0.226 Y42.761 E43.7603
G1 X-1.119 Y41.867 E46.4926
G1 X6.250 Y41.867 E62.4241
G1 X5.356 Y42.761 E65.1564
G1 X3.853 Y48.367 E77.7047
G1 X5.356 Y53.973 E90.2529
G1 X6.250 Y54.867 E92.9852
; outer perimeter
G1 X25.565 Y58.867 F4800
G92 E0
G1 X-20.435 Y58.867 E99.4478 F600
G1 X-20.435 Y37.867 E144.8479
G1 X25.565 Y37.867 E244.2956
G1 X25.565 Y58.867 E289.6957
; inner perimeter
; outer perimeter
G1 X21.188 Y51.903 F4800
G92 E0
G1 X22.136 Y48.367 E7.9136 F600
G1 X21.188 Y44.831 E15.8272
G1 X18.601 Y42.244 E23.7374
G1 X15.065 Y41.296 E31.6510
G1 X11.530 Y42.244 E39.5645
G1 X8.942 Y44.831 E47.4748
G1 X7.995 Y48.367 E55.3884
G1 X8.942 Y51.903 E63.3019
G1 X11.530 Y54.490 E71.2122
G1 X15.065 Y55.438 E79.1258
G1 X18.601 Y54.490 E87.0393
G1 X21.188 Y51.903 E94.9496
; inner perimeter
; outer perimeter
G1 X-3.812 Y51.903 F4800
G92 E0
G1 X-2.864 Y48.367 E7.9136 F600
G1 X-3.812 Y44.831 E15.8271
G1 X-6.399 Y42.244 E23.7374
G1 X-9.935 Y41.296 E31.6509
G1 X-13.470 Y42.244 E39.5645
G1 X-16.058 Y44.831 E47.4748
G1 X-17.005 Y48.367 E55.3883
G1 X-16.058 Y51.903 E63.3019
G1 X-13.470 Y54.490 E71.2122
G1 X-9.935 Y55.438 E79.1257
G1 X-6.399 Y54.490 E87.0393
G1 X-3.812 Y51.903 E94.9495
; layer 4, Z = 5.395
#LayerChange
; inner perimeter
G1 X-1.119 Y41.867 F4800
G1 Z5.395 F1000
G92 E0
G1 X6.250 Y41.867 E15.9315 F600
G1 X5.356 Y42.761 E18.6639
G1 X3.853 Y48.367 E31.2121
G1 X5.356 Y53.973 E43.7602
G1 X6.250 Y54.867 E46.4926
G1 X-1.119 Y54.867 E62.4241
G1 X-0.226 Y53.973 E65.1565
G1 X1.277 Y48.367 E77.7047
G1 X-0.226 Y42.761 E90.2528
G1 X-1.119 Y41.867 E92.9852
; outer perimeter
G1 X-20.435 Y37.867 F4800
G92 E0
G1 X25.565 Y37.867 E99.4478 F600
G1 X25.565 Y58.867 E144.8479
G1 X-20.435 Y58.867 E244.2956
G1 X-20.435 Y37.867 E289.6957
; inner perimeter
; outer perimeter
G1 X-16.058 Y44.831 F4800
G92 E0
G1 X-17.005 Y48.367 E7.9135 F600
G1 X-16.058 Y51.903 E15.8270
G1 X-13.470 Y54.490 E23.7374
G1 X-9.935 Y55.438 E31.6509
G1 X-6.399 Y54.490 E39.5644
G1 X-3.812 Y51.903 E47.4748
G1 X-2.864 Y48.367 E55.3883
G1 X-3.812 Y44.831 E63.3018
G1 X-6.399 Y42.244 E71.2123
G1 X-9.935 Y41.296 E79.1257
G1 X-13.470 Y42.244 E87.0393
G1 X-16.058 Y44.831 E94.9497
; inner perimeter
; outer perimeter
G1 X8.942 Y44.831 F4800
G92 E0
G1 X7.995 Y48.367 E7.9135 F600
G1 X8.942 Y51.903 E15.8270
G1 X11.530 Y54.490 E23.7374
G1 X15.065 Y55.438 E31.6509
G1 X18.601 Y54.490 E39.5644
G1 X21.188 Y51.903 E47.4748
G1 X22.136 Y48.367 E55.3884
G1 X21.188 Y44.831 E63.3019
G1 X18.601 Y42.244 E71.2123
G1 X15.065 Y41.296 E79.1258
G1 X11.530 Y42.244 E87.0393
G1 X8.942 Y44.831 E94.9497
; layer 5, Z = 6.695
#LayerChange
; inner perimeter
G1 X6.250 Y54.867 F4800
G1 Z6.695 F1000
G92 E0
G1 X-1.119 Y54.867 E15.9315 F600
G1 X-0.226 Y53.973 E18.6640
G1 X1.277 Y48.367 E31.2121
G1 X-0.226 Y42.761 E43.7601
G1 X-1.119 Y41.867 E46.4926
G1 X6.250 Y41.867 E62.4241
G1 X5.356 Y42.761 E65.1566
G1 X3.853 Y48.367 E77.7047
G1 X5.356 Y53.973 E90.2528
G1 X6.250 Y54.867 E92.9852
; outer perimeter
G1 X25.565 Y58.867 F4800
G92 E0
G1 X-20.435 Y58.867 E99.4478 F600
G1 X-20.435 Y37.867 E144.8479
G1 X25.565 Y37.867 E244.2956
G1 X25.565 Y58.867 E289.6957
; inner perimeter
; outer perimeter
G1 X21.188 Y51.903 F4800
G92 E0
G1 X22.136 Y48.367 E7.9135 F600
G1 X21.188 Y44.831 E15.8269
G1 X18.601 Y42.244 E23.7374
G1 X15.065 Y41.296 E31.6509
G1 X11.530 Y42.244 E39.5643
G1 X8.942 Y44.831 E47.4749
G1 X7.995 Y48.367 E55.3883
G1 X8.942 Y51.903 E63.3018
G1 X11.530 Y54.490 E71.2123
G1 X15.065 Y55.438 E79.1258
G1 X18.601 Y54.490 E87.0392
G1 X21.188 Y51.903 E94.9497
; inner perimeter
; outer perimeter
G1 X-3.812 Y51.903 F4800
G92 E0
G1 X-2.864 Y48.367 E7.9135 F600
G1 X-3.812 Y44.831 E15.8270
G1 X-6.399 Y42.244 E23.7374
G1 X-9.935 Y41.296 E31.6509
G1 X-13.470 Y42.244 E39.5644
G1 X-16.058 Y44.831 E47.4749
G1 X-17.005 Y48.367 E55.3883
G1 X-16.058 Y51.903 E63.3018
G1 X-13.470 Y54.490 E71.2123
G1 X-9.935 Y55.438 E79.1258
G1 X-6.399 Y54.490 E87.0392
G1 X-3.812 Y51.903 E94.9497
; layer 6, Z = 7.995
#LayerChange
; inner perimeter
G1 X-1.119 Y54.867 F4800
G1 Z7.995 F1000
G92 E0
G1 X-0.226 Y53.973 E2.7325 F600
G1 X1.277 Y48.367 E15.2805
G1 X-0.226 Y42.761 E27.8286
G1 X-1.119 Y41.867 E30.5611
G1 X6.250 Y41.867 E46.4926
G1 X5.356 Y42.761 E49.2252
G1 X3.853 Y48.367 E61.7732
G1 X5.356 Y53.973 E74.3212
G1 X6.250 Y54.867 E77.0538
G1 X-1.119 Y54.867 E92.9853
; outer perimeter
G1 X-20.435 Y58.867 F4800
G92 E0
G1 X-20.435 Y37.867 E45.4001 F600
G1 X25.565 Y37.867 E144.8479
G1 X25.565 Y58.867 E190.2479
G1 X-20.435 Y58.867 E289.6957
; inner perimeter
; outer perimeter
G1 X-13.470 Y54.490 F4800
G92 E0
G1 X-9.935 Y55.438 E7.9134 F600
G1 X-6.399 Y54.490 E15.8268
G1 X-3.812 Y51.903 E23.7374
G1 X-2.864 Y48.367 E31.6508
G1 X-3.812 Y44.831 E39.5642
G1 X-6.399 Y42.244 E47.4749
G1 X-9.935 Y41.296 E55.3882
G1 X-13.470 Y42.244 E63.3017
G1 X-16.058 Y44.831 E71.2123
G1 X-17.005 Y48.367 E79.1257
G1 X-16.058 Y51.903 E87.0391
G1 X-13.470 Y54.490 E94.9497
; inner perimeter
; outer perimeter
G1 X8.942 Y51.903 F4800
G92 E0
G1 X11.530 Y54.490 E7.9106 F600
G1 X15.065 Y55.438 E15.8240
G1 X18.601 Y54.490 E23.7374
G1 X21.188 Y51.903 E31.6480
G1 X22.136 Y48.367 E39.5615
G1 X21.188 Y44.831 E47.4749
G1 X18.601 Y42.244 E55.3855
G1 X15.065 Y41.296 E63.2989
G1 X11.530 Y42.244 E71.2123
G1 X8.942 Y44.831 E79.1229
G1 X7.995 Y48.367 E87.0363
G1 X8.942 Y51.903 E94.9498
; layer 7, Z = 9.295
#LayerChange
; inner perimeter
G1 X6.250 Y41.867 F4800
G1 Z9.295 F1000
G92 E0
G1 X5.356 Y42.761 E2.7326 F600
G1 X3.853 Y48.367 E15.2806
G1 X5.356 Y53.973 E27.8285
G1 X6.250 Y54.867 E30.5611
G1 X-1.119 Y54.867 E46.4927
G1 X-0.226 Y53.973 E49.2253
G1 X1.277 Y48.367 E61.7732
G1 X-0.226 Y42.761 E74.3212
G1 X-1.119 Y41.867 E77.0538
G1 X6.250 Y41.867 E92.9853
; outer perimeter
G1 X25.565 Y37.867 F4800
G92 E0
G1 X25.565 Y58.867 E45.4001 F600
G1 X-20.435 Y58.867 E144.8479
G1 X-20.435 Y37.867 E190.2479
G1 X25.565 Y37.867 E289.6957
; inner perimeter
; outer perimeter
G1 X21.188 Y44.831 F4800
G92 E0
G1 X18.601 Y42.244 E7.9107 F600
G1 X15.065 Y41.296 E15.8241
G1 X11.530 Y42.244 E23.7374
G1 X8.942 Y44.831 E31.6482
G1 X7.995 Y48.367 E39.5615
G1 X8.942 Y51.903 E47.4749
G1 X11.530 Y54.490 E55.3856
G1 X15.065 Y55.438 E63.2990
G1 X18.601 Y54.490 E71.2124
G1 X21.188 Y51.903 E79.1231
G1 X22.136 Y48.367 E87.0365
G1 X21.188 Y44.831 E94.9498
; inner perimeter
; outer perimeter
G1 X-3.812 Y44.831 F4800
G92 E0
G1 X-6.399 Y42.244 E7.9107 F600
G1 X-9.935 Y41.296 E15.8241
G1 X-13.470 Y42.244 E23.7374
G1 X-16.058 Y44.831 E31.6482
G1 X-17.005 Y48.367 E39.5615
G1 X-16.058 Y51.903 E47.4749
G1 X-13.470 Y54.490 E55.3856
G1 X-9.935 Y55.438 E63.2990
G1 X-6.399 Y54.490 E71.2123
G1 X-3.812 Y51.903 E79.1231
G1 X-2.864 Y48.367 E87.0364
G1 X-3.812 Y44.831 E94.9498
; layer 8, Z = 10.595
#LayerChange
; inner perimeter
G1 X6.250 Y41.867 F4800
G1 Z10.595 F1000
G92 E0
G1 X5.356 Y42.761 E2.7326 F600
G1 X3.853 Y48.367 E15.2806
G1 X5.356 Y53.973 E27.8285
G1 X6.250 Y54.867 E30.5611
G1 X-1.119 Y54.867 E46.4926
G1 X-0.226 Y53.973 E49.2253
G1 X1.277 Y48.367 E61.7732
G1 X-0.226 Y42.761 E74.3211
G1 X-1.119 Y41.867 E77.0537
G1 X6.250 Y41.867 E92.9852
; outer perimeter
G1 X25.565 Y37.867 F4800
G92 E0
G1 X25.565 Y58.867 E45.4001 F600
G1 X-20.435 Y58.867 E144.8479
G1 X-20.435 Y37.867 E190.2479
G1 X25.565 Y37.867 E289.6957
; inner perimeter
; outer perimeter
G1 X21.188 Y44.832 F4800
G92 E0
G1 X18.601 Y42.244 E7.9108 F600
G1 X15.065 Y41.296 E15.8241
G1 X11.530 Y42.244 E23.7375
G1 X8.942 Y44.831 E31.6483
G1 X7.995 Y48.367 E39.5616
G1 X8.942 Y51.903 E47.4750
G1 X11.530 Y54.490 E55.3858
G1 X15.065 Y55.438 E63.2991
G1 X18.601 Y54.490 E71.2124
G1 X21.188 Y51.903 E79.1233
G1 X22.136 Y48.367 E87.0366
G1 X21.188 Y44.831 E94.9499
; inner perimeter
; outer perimeter
G1 X-3.812 Y44.832 F4800
G92 E0
G1 X-6.399 Y42.244 E7.9108 F600
G1 X-9.935 Y41.296 E15.8241
G1 X-13.470 Y42.244 E23.7375
G1 X-16.058 Y44.831 E31.6483
G1 X-17.005 Y48.367 E39.5616
G1 X-16.058 Y51.903 E47.4750
G1 X-13.470 Y54.490 E55.3858
G1 X-9.935 Y55.438 E63.2991
G1 X-6.399 Y54.490 E71.2124
G1 X-3.812 Y51.903 E79.1232
G1 X-2.864 Y48.367 E87.0366
