; G-Code generated by Simplify3D(R) Version 3.1.1
; Mar 4, 2019 at 9:39:40 AM
; Settings Summary
;   processName,Process1
;   applyToModels,Model2
;   profileName,Default (modified)
;   profileVersion,2015-05-01 08:00:00
;   baseProfile,
;   printMaterial,PLA
;   printQuality,High
;   printExtruders,
;   extruderName,Primary Extruder
;   extruderToolheadNumber,0
;   extruderDiameter,1
;   extruderAutoWidth,1
;   extruderWidth,1.2
;   extrusionMultiplier,0.9
;   extruderUseRetract,0
;   extruderRetractionDistance,1
;   extruderExtraRestartDistance,0
;   extruderRetractionZLift,0
;   extruderRetractionSpeed,1800
;   extruderUseCoasting,0
;   extruderCoastingDistance,0.2
;   extruderUseWipe,0
;   extruderWipeDistance,5
;   primaryExtruder,0
;   layerHeight,1.22
;   topSolidLayers,0
;   bottomSolidLayers,0
;   perimeterOutlines,1
;   printPerimetersInsideOut,1
;   startPointOption,2
;   startPointOriginX,0
;   startPointOriginY,0
;   startPointOriginZ,300
;   sequentialIslands,0
;   spiralVaseMode,1
;   firstLayerHeightPercentage,150
;   firstLayerWidthPercentage,100
;   firstLayerUnderspeed,1
;   useRaft,0
;   raftExtruder,0
;   raftLayers,3
;   raftOffset,3
;   raftSeparationDistance,0.14
;   raftInfill,85
;   disableRaftBaseLayers,0
;   useSkirt,0
;   skirtExtruder,0
;   skirtLayers,2
;   skirtOutlines,2
;   skirtOffset,4
;   usePrimePillar,0
;   primePillarExtruder,999
;   primePillarWidth,12
;   primePillarLocation,7
;   primePillarSpeedMultiplier,1
;   useOozeShield,0
;   oozeShieldExtruder,999
;   oozeShieldOffset,2
;   oozeShieldOutlines,1
;   oozeShieldSidewallShape,1
;   oozeShieldSidewallAngle,30
;   oozeShieldSpeedMultiplier,1
;   infillExtruder,0
;   internalInfillPattern,Rectilinear
;   externalInfillPattern,Rectilinear
;   infillPercentage,0
;   outlineOverlapPercentage,0
;   infillExtrusionWidthPercentage,100
;   minInfillLength,5
;   infillLayerInterval,1
;   infillAngles,0
;   overlapInfillAngles,0
;   generateSupport,0
;   supportExtruder,0
;   supportInfillPercentage,40
;   supportExtraInflation,0
;   denseSupportLayers,0
;   denseSupportInfillPercentage,70
;   supportLayerInterval,1
;   supportHorizontalPartOffset,0.3
;   supportUpperSeparationLayers,1
;   supportLowerSeparationLayers,1
;   supportType,0
;   supportGridSpacing,4
;   maxOverhangAngle,45
;   supportAngles,0
;   temperatureName,Primary Extruder
;   temperatureNumber,0
;   temperatureSetpointCount,1
;   temperatureSetpointLayers,1
;   temperatureSetpointTemperatures,0
;   temperatureStabilizeAtStartup,1
;   temperatureHeatedBed,0
;   temperatureRelayBetweenLayers,0
;   temperatureRelayBetweenLoops,0
;   fanLayers,1,2
;   fanSpeeds,0,100
;   blipFanToFullPower,0
;   adjustSpeedForCooling,0
;   minSpeedLayerTime,15
;   minCoolingSpeedSlowdown,20
;   increaseFanForCooling,0
;   minFanLayerTime,45
;   maxCoolingFanSpeed,100
;   increaseFanForBridging,0
;   bridgingFanSpeed,100
;   use5D,1
;   relativeEdistances,0
;   allowEaxisZeroing,1
;   independentExtruderAxes,0
;   includeM10123,0
;   stickySupport,1
;   applyToolheadOffsets,0
;   gcodeXoffset,0
;   gcodeYoffset,0
;   gcodeZoffset,0
;   overrideMachineDefinition,0
;   machineTypeOverride,0
;   strokeXoverride,200
;   strokeYoverride,200
;   strokeZoverride,200
;   originOffsetXoverride,0
;   originOffsetYoverride,0
;   originOffsetZoverride,0
;   homeXdirOverride,-1
;   homeYdirOverride,-1
;   homeZdirOverride,-1
;   flipXoverride,1
;   flipYoverride,-1
;   flipZoverride,1
;   toolheadOffsets,0,0|0,0|0,0|0,0|0,0|0,0
;   overrideFirmwareConfiguration,0
;   firmwareTypeOverride,RepRap (Marlin/Repetier/Sprinter)
;   GPXconfigOverride,r2
;   baudRateOverride,115200
;   overridePrinterModels,0
;   printerModelsOverride
;   startingGcode,##Start
;   layerChangeGcode,#LayerChange
;   retractionGcode,#Retraction
;   toolChangeGcode,
;   endingGcode,##End
;   exportFileFormat,gcode
;   celebration,0
;   celebrationSong,Random Song
;   postProcessing,
;   defaultSpeed,600
;   outlineUnderspeed,1
;   solidInfillUnderspeed,0.8
;   supportUnderspeed,0.8
;   rapidXYspeed,4800
;   rapidZspeed,1000
;   minBridgingArea,40
;   bridgingExtraInflation,1
;   bridgingExtrusionMultiplier,1
;   bridgingSpeedMultiplier,1
;   filamentDiameter,1.75
;   filamentPricePerKg,46
;   filamentDensity,1.25
;   useMinPrintHeight,0
;   minPrintHeight,0
;   useMaxPrintHeight,0
;   maxPrintHeight,0
;   useDiaphragm,0
;   diaphragmLayerInterval,20
;   robustSlicing,0
;   mergeAllIntoSolid,1
;   onlyRetractWhenCrossingOutline,1
;   retractBetweenLayers,0
;   useRetractionMinTravel,0
;   retractionMinTravel,3
;   retractWhileWiping,0
;   onlyWipeOutlines,1
;   avoidCrossingOutline,0
;   maxMovementDetourFactor,3
;   toolChangeRetractionDistance,0
;   toolChangeExtraRestartDistance,0
;   toolChangeRetractionSpeed,600
;   allowThinWallGapFill,0
;   thinWallAllowedOverlapPercentage,0
;   horizontalSizeCompensation,0
G90
M82
M106 S0
M104 S0 T0
##Start
G92 E0
#Retraction
G1 E-1.0000 F1800
G1 Z1.830 F1000
; layer 1, Z = 1.83
#LayerChange
T0
; tool H1.830 W1.200
; outer perimeter
G1 X-0.317 Y-0.072 F4800
G1 E0.0000 F540
G92 E0
G1 X-2.464 Y0.724 E1.8811 F600
G1 X-3.572 Y2.727 E3.7619
G1 X-5.603 Y8.514 E8.8016
G1 X-5.777 Y9.212 E9.3924
G1 X-6.030 Y9.763 E9.8906
G1 X-9.948 Y14.310 E14.8228
G1 X-10.365 Y14.896 E15.4136
G1 X-10.802 Y15.316 E15.9118
G1 X-16.107 Y18.117 E20.8412
G1 X-16.709 Y18.510 E21.4320
G1 X-17.269 Y18.742 E21.9302
G1 X-23.234 Y19.412 E26.8618
G1 X-23.938 Y19.558 E27.4526
G1 X-24.544 Y19.569 E27.9508
G1 X-30.341 Y18.014 E32.8826
G1 X-31.050 Y17.893 E33.4734
G1 X-31.618 Y17.682 E33.9716
G1 X-36.445 Y14.119 E38.9014
G1 X-37.060 Y13.747 E39.4923
G1 X-37.512 Y13.343 E39.9904
G1 X-40.706 Y8.260 E44.9234
G1 X-41.144 Y7.689 E45.5142
G1 X-41.417 Y7.148 E46.0124
G1 X-42.532 Y1.251 E50.9440
G1 X-42.731 Y0.560 E51.5348
G1 X-42.788 Y-0.044 E52.0330
G1 X-41.672 Y-5.941 E56.9645
G1 X-41.605 Y-6.657 E57.5554
G1 X-41.430 Y-7.267 E58.0769
G1 X-41.131 Y-7.858 E58.6217
G1 X-37.937 Y-12.942 E63.5550
G1 X-37.534 Y-13.468 E64.0997
G1 X-37.039 Y-13.910 E64.6444
G1 X-32.212 Y-17.474 E69.5746
G1 X-31.645 Y-17.816 E70.1194
G1 X-31.023 Y-18.047 E70.6640
G1 X-25.226 Y-19.602 E75.5962
G1 X-24.572 Y-19.714 E76.1410
G1 X-23.909 Y-19.701 E76.6857
G1 X-17.945 Y-19.032 E81.6176
G1 X-17.296 Y-18.897 E82.1624
G1 X-16.683 Y-18.643 E82.7071
G1 X-11.377 Y-15.843 E87.6369
G1 X-10.822 Y-15.480 E88.1816
G1 X-10.345 Y-15.020 E88.7264
G1 X-6.426 Y-10.473 E93.6589
G1 X-6.042 Y-9.932 E94.2036
G1 X-5.765 Y-9.330 E94.7484
G1 X-3.779 Y-3.670 E99.6773
G1 X-3.586 Y-2.895 E100.3331
G1 X-2.464 Y-0.868 E102.2372
G1 X-0.317 Y-0.072 E104.1183
G1 X0.531 Y-0.072 F4800
G92 E0
G1 X2.677 Y-0.868 E1.8811 F600
G1 X3.786 Y-2.871 E3.7619
G1 X5.816 Y-8.658 E8.8016
G1 X5.990 Y-9.356 E9.3924
G1 X6.243 Y-9.907 E9.8906
G1 X10.162 Y-14.454 E14.8228
G1 X10.578 Y-15.040 E15.4136
G1 X11.015 Y-15.460 E15.9118
G1 X16.320 Y-18.261 E20.8412
G1 X16.922 Y-18.654 E21.4320
G1 X17.483 Y-18.886 E21.9302
G1 X23.447 Y-19.556 E26.8618
G1 X24.151 Y-19.702 E27.4526
G1 X24.757 Y-19.713 E27.9508
G1 X30.554 Y-18.158 E32.8826
G1 X31.263 Y-18.037 E33.4734
G1 X31.831 Y-17.826 E33.9716
G1 X36.658 Y-14.263 E38.9014
G1 X37.274 Y-13.891 E39.4923
G1 X37.726 Y-13.487 E39.9905
G1 X40.919 Y-8.404 E44.9234
G1 X41.357 Y-7.833 E45.5142
G1 X41.630 Y-7.292 E46.0124
G1 X42.746 Y-1.395 E50.9440
G1 X42.945 Y-0.704 E51.5348
G1 X43.001 Y-0.100 E52.0330
G1 X41.886 Y5.797 E56.9646
G1 X41.818 Y6.513 E57.5554
G1 X41.643 Y7.123 E58.0769
G1 X41.344 Y7.714 E58.6216
G1 X38.150 Y12.798 E63.5550
G1 X37.747 Y13.324 E64.0997
G1 X37.253 Y13.766 E64.6445
G1 X32.426 Y17.330 E69.5747
G1 X31.858 Y17.672 E70.1194
G1 X31.237 Y17.903 E70.6640
G1 X25.439 Y19.458 E75.5962
G1 X24.785 Y19.570 E76.1410
G1 X24.123 Y19.558 E76.6857
G1 X18.158 Y18.888 E81.6176
G1 X17.509 Y18.753 E82.1624
G1 X16.896 Y18.499 E82.7071
G1 X11.591 Y15.699 E87.6369
G1 X11.036 Y15.336 E88.1816
G1 X10.558 Y14.876 E88.7263
G1 X6.639 Y10.329 E93.6588
G1 X6.255 Y9.788 E94.2036
G1 X5.978 Y9.186 E94.7484
G1 X3.992 Y3.526 E99.6773
G1 X3.799 Y2.751 E100.3331
G1 X2.677 Y0.724 E102.2372
G1 X0.531 Y-0.072 E104.1183
; layer 2, Z = 3.05
M106 S255
#LayerChange
; tool H1.220 W1.200
; outer perimeter
G1 X0.531 Y-0.072 F4800
G1 Z3.050 F1000
G92 E0
G1 X2.677 Y-0.868 E1.2540 F600
G1 X3.786 Y-2.871 E2.5079
G1 X4.996 Y-6.319 E4.5099
G1 X5.470 Y-8.225 E5.5860
G1 X6.244 Y-9.908 E6.6004
G1 X8.543 Y-12.576 E8.5297
G1 X9.681 Y-14.177 E9.6057
G1 X11.016 Y-15.461 E10.6202
G1 X14.128 Y-17.104 E12.5483
G1 X15.773 Y-18.179 E13.6244
G1 X17.484 Y-18.886 E14.6388
G1 X20.983 Y-19.279 E16.5679
G1 X22.907 Y-19.679 E17.6440
G1 X24.758 Y-19.713 E18.6584
G1 X28.160 Y-18.801 E20.5875
G1 X30.096 Y-18.471 E21.6636
G1 X31.832 Y-17.826 E22.6780
G1 X34.664 Y-15.735 E24.6063
G1 X36.346 Y-14.721 E25.6824
G1 X37.727 Y-13.486 E26.6968
G1 X39.600 Y-10.504 E28.6264
G1 X40.796 Y-8.945 E29.7025
G1 X41.630 Y-7.292 E30.7169
G1 X42.285 Y-3.832 E32.6459
G1 X42.828 Y-1.944 E33.7221
G1 X43.001 Y-0.100 E34.7364
G1 X42.347 Y3.360 E36.6654
G1 X42.163 Y5.316 E37.7416
G1 X41.643 Y7.122 E38.7715
G1 X40.783 Y8.826 E39.8169
G1 X38.909 Y11.809 E41.7467
G1 X37.748 Y13.323 E42.7921
G1 X36.325 Y14.595 E43.8375
G1 X33.493 Y16.687 E45.7661
G1 X31.858 Y17.672 E46.8115
G1 X30.070 Y18.337 E47.8568
G1 X26.668 Y19.249 E49.7863
G1 X24.786 Y19.570 E50.8317
G1 X22.878 Y19.535 E51.8770
G1 X19.379 Y19.142 E53.8063
G1 X17.510 Y18.753 E54.8518
G1 X15.747 Y18.024 E55.8971
G1 X12.633 Y16.381 E57.8255
G1 X11.036 Y15.336 E58.8710
G1 X9.661 Y14.013 E59.9163
G1 X7.361 Y11.345 E61.8459
G1 X6.256 Y9.790 E62.8913
G1 X5.459 Y8.056 E63.9367
G1 X4.293 Y4.734 E65.8648
G1 X3.799 Y2.751 E66.9842
G1 X2.677 Y0.724 E68.2537
G1 X0.531 Y-0.072 E69.5077
G1 X-0.317 Y-0.072 F4800
G92 E0
G1 X-2.464 Y0.724 E1.2540 F600
G1 X-3.572 Y2.727 E2.5079
G1 X-4.782 Y6.175 E4.5099
G1 X-5.257 Y8.081 E5.5860
G1 X-6.031 Y9.764 E6.6004
G1 X-8.330 Y12.432 E8.5296
G1 X-9.468 Y14.033 E9.6057
G1 X-10.802 Y15.317 E10.6202
G1 X-13.915 Y16.960 E12.5483
G1 X-15.559 Y18.035 E13.6244
G1 X-17.271 Y18.742 E14.6388
G1 X-20.770 Y19.135 E16.5679
G1 X-22.693 Y19.535 E17.6440
G1 X-24.545 Y19.569 E18.6584
G1 X-27.946 Y18.657 E20.5875
G1 X-29.883 Y18.327 E21.6636
G1 X-31.619 Y17.682 E22.6780
G1 X-34.451 Y15.591 E24.6063
G1 X-36.133 Y14.577 E25.6824
G1 X-37.513 Y13.342 E26.6968
G1 X-39.387 Y10.360 E28.6264
G1 X-40.583 Y8.801 E29.7025
G1 X-41.417 Y7.148 E30.7169
G1 X-42.072 Y3.688 E32.6459
G1 X-42.615 Y1.800 E33.7221
G1 X-42.788 Y-0.044 E34.7364
G1 X-42.133 Y-3.504 E36.6654
G1 X-41.950 Y-5.460 E37.7415
G1 X-41.430 Y-7.266 E38.7715
G1 X-40.570 Y-8.970 E39.8169
G1 X-38.696 Y-11.953 E41.7468
G1 X-37.534 Y-13.467 E42.7921
G1 X-36.112 Y-14.739 E43.8375
G1 X-33.280 Y-16.831 E45.7661
G1 X-31.645 Y-17.816 E46.8115
G1 X-29.856 Y-18.481 E47.8568
G1 X-26.455 Y-19.393 E49.7863
G1 X-24.573 Y-19.714 E50.8317
G1 X-22.665 Y-19.679 E51.8770
G1 X-19.165 Y-19.286 E53.8063
G1 X-17.297 Y-18.897 E54.8518
G1 X-15.533 Y-18.168 E55.8971
G1 X-12.420 Y-16.525 E57.8256
G1 X-10.823 Y-15.480 E58.8710
G1 X-9.447 Y-14.157 E59.9163
G1 X-7.148 Y-11.489 E61.8459
G1 X-6.043 Y-9.934 E62.8913
G1 X-5.245 Y-8.200 E63.9367
G1 X-4.080 Y-4.878 E65.8648
G1 X-3.586 Y-2.895 E66.9842
G1 X-2.464 Y-0.868 E68.2537
G1 X-0.317 Y-0.072 E69.5077
; layer 3, Z = 4.27
#LayerChange
; outer perimeter
G1 X-0.317 Y-0.072 F4800
G1 Z4.270 F1000
G92 E0
G1 X-2.464 Y0.724 E1.2539 F600
G1 X-3.572 Y2.727 E2.5079
G1 X-4.126 Y4.304 E3.4236
G1 X-4.841 Y7.177 E5.0455
G1 X-6.031 Y9.765 E6.6057
G1 X-7.035 Y10.929 E7.4479
G1 X-8.750 Y13.343 E9.0698
G1 X-10.803 Y15.317 E10.6300
G1 X-12.162 Y16.034 E11.4717
G1 X-14.640 Y17.654 E13.0936
G1 X-17.272 Y18.743 E14.6537
G1 X-18.799 Y18.914 E15.4959
G1 X-21.698 Y19.517 E17.1178
G1 X-24.546 Y19.569 E18.6779
G1 X-26.031 Y19.171 E19.5201
G1 X-28.949 Y18.674 E21.1420
G1 X-31.619 Y17.682 E22.7021
G1 X-32.855 Y16.769 E23.5439
G1 X-35.391 Y15.240 E25.1658
G1 X-37.514 Y13.342 E26.7260
G1 X-38.332 Y12.040 E27.5683
G1 X-40.134 Y9.690 E29.1903
G1 X-41.417 Y7.148 E30.7504
G1 X-41.703 Y5.637 E31.5925
G1 X-42.522 Y2.792 E33.2144
G1 X-42.788 Y-0.044 E34.7746
G1 X-42.502 Y-1.554 E35.6167
G1 X-42.226 Y-4.502 E37.2386
G1 X-41.430 Y-7.266 E38.8143
G1 X-40.121 Y-9.859 E40.4055
G1 X-39.303 Y-11.162 E41.2481
G1 X-37.535 Y-13.467 E42.8393
G1 X-35.370 Y-15.403 E44.4305
G1 X-34.133 Y-16.316 E45.2725
G1 X-31.646 Y-17.816 E46.8637
G1 X-28.923 Y-18.827 E48.4548
G1 X-27.438 Y-19.226 E49.2973
G1 X-24.574 Y-19.714 E50.8885
G1 X-21.670 Y-19.661 E52.4796
G1 X-20.142 Y-19.489 E53.3220
G1 X-17.298 Y-18.897 E54.9132
G1 X-14.614 Y-17.788 E56.5043
G1 X-13.254 Y-17.070 E57.3464
G1 X-10.823 Y-15.481 E58.9375
G1 X-8.730 Y-13.467 E60.5287
G1 X-7.726 Y-12.302 E61.3711
G1 X-6.043 Y-9.934 E62.9623
G1 X-4.829 Y-7.295 E64.5535
G1 X-4.321 Y-5.845 E65.3954
G1 X-3.586 Y-2.895 E67.0606
G1 X-2.464 Y-0.868 E68.3302
G1 X-0.317 Y-0.072 E69.5840
G1 X0.531 Y-0.072 F4800
G92 E0
G1 X2.677 Y-0.868 E1.2539 F600
G1 X3.786 Y-2.871 E2.5079
G1 X4.339 Y-4.448 E3.4236
G1 X5.055 Y-7.321 E5.0455
G1 X6.244 Y-9.909 E6.6057
G1 X7.248 Y-11.073 E7.4479
G1 X8.963 Y-13.487 E9.0698
G1 X11.016 Y-15.461 E10.6300
G1 X12.375 Y-16.178 E11.4717
G1 X14.853 Y-17.798 E13.0936
G1 X17.485 Y-18.887 E14.6538
G1 X19.013 Y-19.058 E15.4959
G1 X21.911 Y-19.661 E17.1178
G1 X24.759 Y-19.713 E18.6779
G1 X26.244 Y-19.315 E19.5201
G1 X29.163 Y-18.817 E21.1420
G1 X31.832 Y-17.826 E22.7021
G1 X33.069 Y-16.913 E23.5439
G1 X35.604 Y-15.384 E25.1658
G1 X37.727 Y-13.486 E26.7260
G1 X38.545 Y-12.184 E27.5684
G1 X40.347 Y-9.834 E29.1903
G1 X41.630 Y-7.292 E30.7504
G1 X41.916 Y-5.781 E31.5925
G1 X42.736 Y-2.936 E33.2145
G1 X43.001 Y-0.100 E34.7746
G1 X42.716 Y1.410 E35.6167
G1 X42.439 Y4.358 E37.2386
G1 X41.643 Y7.122 E38.8144
G1 X40.335 Y9.715 E40.4055
G1 X39.516 Y11.018 E41.2481
G1 X37.748 Y13.323 E42.8393
G1 X35.583 Y15.259 E44.4305
G1 X34.346 Y16.172 E45.2725
G1 X31.859 Y17.672 E46.8637
G1 X29.136 Y18.683 E48.4548
G1 X27.651 Y19.082 E49.2973
G1 X24.787 Y19.570 E50.8885
G1 X21.883 Y19.517 E52.4796
G1 X20.355 Y19.345 E53.3220
G1 X17.511 Y18.753 E54.9132
G1 X14.827 Y17.644 E56.5043
G1 X13.468 Y16.926 E57.3463
G1 X11.036 Y15.337 E58.9375
G1 X8.943 Y13.323 E60.5287
G1 X7.939 Y12.158 E61.3711
G1 X6.256 Y9.790 E62.9623
G1 X5.043 Y7.151 E64.5535
G1 X4.534 Y5.701 E65.3954
G1 X3.799 Y2.751 E67.0606
G1 X2.677 Y0.724 E68.3301
G1 X0.531 Y-0.072 E69.5840
; layer 4, Z = 5.49
#LayerChange
; outer perimeter
G1 X0.518 Y-0.071 F4800
G1 Z5.490 F1000
G92 E0
G1 X2.658 Y-0.868 E1.2511 F600
G1 X3.790 Y-2.895 E2.5230
G1 X4.657 Y-6.415 E4.5086
G1 X4.762 Y-6.732 E4.6916
G1 X6.218 Y-9.898 E6.6008
G1 X8.251 Y-12.758 E8.5226
G1 X8.444 Y-13.010 E8.6968
G1 X10.956 Y-15.427 E10.6064
G1 X14.159 Y-17.524 E12.7034
G1 X17.385 Y-18.857 E14.6157
G1 X20.872 Y-19.583 E16.5669
G1 X21.136 Y-19.651 E16.7159
G1 X24.655 Y-19.715 E18.6442
G1 X24.889 Y-19.698 E18.7728
G1 X28.387 Y-19.102 E20.7164
G1 X31.725 Y-17.862 E22.6670
G1 X31.923 Y-17.776 E22.7852
G1 X34.959 Y-15.945 E24.7275
G1 X37.781 Y-13.419 E26.8020
G1 X39.934 Y-10.612 E28.7405
G1 X41.646 Y-7.237 E30.8128
G1 X42.626 Y-3.834 E32.7530
G1 X42.964 Y-0.230 E34.7361
G1 X42.994 Y-0.050 E34.8357
G1 X42.661 Y3.494 E36.7857
G1 X42.632 Y3.669 E36.8829
G1 X41.646 Y7.093 E38.8352
G1 X39.934 Y10.468 E40.9076
G1 X37.781 Y13.275 E42.8461
G1 X34.959 Y15.801 E44.9206
G1 X31.936 Y17.624 E46.8544
G1 X28.559 Y18.879 E48.8279
G1 X28.371 Y18.960 E48.9401
G1 X24.889 Y19.554 E50.8749
G1 X24.655 Y19.571 E51.0035
G1 X21.121 Y19.507 E52.9398
G1 X17.648 Y18.784 E54.8832
G1 X17.399 Y18.719 E55.0239
G1 X14.159 Y17.380 E56.9446
G1 X10.956 Y15.283 E59.0417
G1 X8.451 Y12.874 E60.9456
G1 X6.399 Y9.986 E62.8861
G1 X6.214 Y9.745 E63.0529
G1 X4.762 Y6.588 E64.9562
G1 X4.657 Y6.270 E65.1393
G1 X3.790 Y2.753 E67.1240
G1 X2.740 Y0.851 E68.3141
G1 X2.512 Y0.658 E68.4775
G1 X0.619 Y-0.044 E69.5836
G1 X0.518 Y-0.071 E69.6409
G1 X-0.305 Y-0.073 F4800
G92 E0
G1 X-2.445 Y0.724 E1.2511 F600
G1 X-3.577 Y2.751 E2.5230
G1 X-4.444 Y6.271 E4.5086
G1 X-4.549 Y6.588 E4.6917
G1 X-6.005 Y9.754 E6.6009
G1 X-8.037 Y12.614 E8.5226
G1 X-8.230 Y12.866 E8.6968
