; G-Code generated by Simplify3D(R) Version 3.1.1
; Mar 20, 2019 at 10:28:53 AM
; Settings Summary
;   processName,Process3
;   applyToModels,3dprint_retra
;   profileName,Default (modified)
;   profileVersion,2015-05-01 08:00:00
;   baseProfile,
;   printMaterial,PLA
;   printQuality,High
;   printExtruders,
;   extruderName,Primary Extruder
;   extruderToolheadNumber,0
;   extruderDiameter,1
;   extruderAutoWidth,0
;   extruderWidth,4
;   extrusionMultiplier,1
;   extruderUseRetract,1
;   extruderRetractionDistance,0
;   extruderExtraRestartDistance,0
;   extruderRetractionZLift,5
;   extruderRetractionSpeed,1800
;   extruderUseCoasting,0
;   extruderCoastingDistance,0.2
;   extruderUseWipe,0
;   extruderWipeDistance,5
;   primaryExtruder,0
;   layerHeight,1.3
;   topSolidLayers,0
;   bottomSolidLayers,0
;   perimeterOutlines,1
;   printPerimetersInsideOut,1
;   startPointOption,1
;   startPointOriginX,0
;   startPointOriginY,0
;   startPointOriginZ,300
;   sequentialIslands,1
;   spiralVaseMode,1
;   firstLayerHeightPercentage,115
;   firstLayerWidthPercentage,100
;   firstLayerUnderspeed,1
;   useRaft,0
;   raftExtruder,0
;   raftLayers,3
;   raftOffset,3
;   raftSeparationDistance,0.14
;   raftInfill,85
;   disableRaftBaseLayers,0
;   useSkirt,0
;   skirtExtruder,0
;   skirtLayers,2
;   skirtOutlines,2
;   skirtOffset,4
;   usePrimePillar,0
;   primePillarExtruder,999
;   primePillarWidth,12
;   primePillarLocation,7
;   primePillarSpeedMultiplier,1
;   useOozeShield,0
;   oozeShieldExtruder,999
;   oozeShieldOffset,2
;   oozeShieldOutlines,1
;   oozeShieldSidewallShape,1
;   oozeShieldSidewallAngle,30
;   oozeShieldSpeedMultiplier,1
;   infillExtruder,0
;   internalInfillPattern,Rectilinear
;   externalInfillPattern,Rectilinear
;   infillPercentage,0
;   outlineOverlapPercentage,0
;   infillExtrusionWidthPercentage,100
;   minInfillLength,5
;   infillLayerInterval,1
;   infillAngles,0,90
;   overlapInfillAngles,0
;   generateSupport,0
;   supportExtruder,0
;   supportInfillPercentage,40
;   supportExtraInflation,0
;   denseSupportLayers,0
;   denseSupportInfillPercentage,70
;   supportLayerInterval,1
;   supportHorizontalPartOffset,0.3
;   supportUpperSeparationLayers,1
;   supportLowerSeparationLayers,1
;   supportType,0
;   supportGridSpacing,4
;   maxOverhangAngle,45
;   supportAngles,0
;   temperatureName,Primary Extruder
;   temperatureNumber,0
;   temperatureSetpointCount,1
;   temperatureSetpointLayers,1
;   temperatureSetpointTemperatures,0
;   temperatureStabilizeAtStartup,1
;   temperatureHeatedBed,0
;   temperatureRelayBetweenLayers,0
;   temperatureRelayBetweenLoops,0
;   fanLayers,1,2
;   fanSpeeds,0,100
;   blipFanToFullPower,0
;   adjustSpeedForCooling,0
;   minSpeedLayerTime,15
;   minCoolingSpeedSlowdown,20
;   increaseFanForCooling,0
;   minFanLayerTime,45
;   maxCoolingFanSpeed,100
;   increaseFanForBridging,0
;   bridgingFanSpeed,100
;   use5D,1
;   relativeEdistances,0
;   allowEaxisZeroing,1
;   independentExtruderAxes,0
;   includeM10123,0
;   stickySupport,1
;   applyToolheadOffsets,0
;   gcodeXoffset,0
;   gcodeYoffset,0
;   gcodeZoffset,0
;   overrideMachineDefinition,0
;   machineTypeOverride,0
;   strokeXoverride,200
;   strokeYoverride,200
;   strokeZoverride,200
;   originOffsetXoverride,0
;   originOffsetYoverride,0
;   originOffsetZoverride,0
;   homeXdirOverride,-1
;   homeYdirOverride,-1
;   homeZdirOverride,-1
;   flipXoverride,1
;   flipYoverride,-1
;   flipZoverride,1
;   toolheadOffsets,0,0|0,0|0,0|0,0|0,0|0,0
;   overrideFirmwareConfiguration,0
;   firmwareTypeOverride,RepRap (Marlin/Repetier/Sprinter)
;   GPXconfigOverride,r2
;   baudRateOverride,115200
;   overridePrinterModels,0
;   printerModelsOverride
;   startingGcode,##Start
;   layerChangeGcode,#LayerChange
;   retractionGcode,#Retraction
;   toolChangeGcode,
;   endingGcode,##End
;   exportFileFormat,gcode
;   celebration,0
;   celebrationSong,Random Song
;   postProcessing,
;   defaultSpeed,600
;   outlineUnderspeed,1
;   solidInfillUnderspeed,0.8
;   supportUnderspeed,0.8
;   rapidXYspeed,4800
;   rapidZspeed,1000
;   minBridgingArea,40
;   bridgingExtraInflation,1
;   bridgingExtrusionMultiplier,1
;   bridgingSpeedMultiplier,1
;   filamentDiameter,1.75
;   filamentPricePerKg,46
;   filamentDensity,1.25
;   useMinPrintHeight,0
;   minPrintHeight,0
;   useMaxPrintHeight,0
;   maxPrintHeight,0
;   useDiaphragm,0
;   diaphragmLayerInterval,20
;   robustSlicing,0
;   mergeAllIntoSolid,0
;   onlyRetractWhenCrossingOutline,1
;   retractBetweenLayers,0
;   useRetractionMinTravel,0
;   retractionMinTravel,3
;   retractWhileWiping,0
;   onlyWipeOutlines,1
;   avoidCrossingOutline,0
;   maxMovementDetourFactor,3
;   toolChangeRetractionDistance,0
;   toolChangeExtraRestartDistance,0
;   toolChangeRetractionSpeed,600
;   allowThinWallGapFill,1
;   thinWallAllowedOverlapPercentage,50
;   horizontalSizeCompensation,0
G90
M82
M106 S0
M104 S0 T0
##Start
G92 E0
#Retraction
G1 E0.0000 F1800
G1 Z6.495 F1000
; layer 1, Z = 1.495
#LayerChange
T0
; tool H1.495 W4.000
; outer perimeter
G1 X-24.904 Y17.221 F4800
G1 Z1.495 F1000
G1 E0.0000 F540
G92 E0
G1 X-24.904 Y23.221 E14.9172 F600
G1 X-30.904 Y23.221 E29.8343
G1 X-30.904 Y17.221 E44.7515
G1 X-24.904 Y17.221 E59.6687
; outer perimeter
G1 X0.096 Y23.221 F4800
G92 E0
G1 X-10.904 Y23.221 E27.3481 F600
G1 X-10.904 Y12.221 E54.6963
G1 X0.096 Y12.221 E82.0444
G1 X0.096 Y23.221 E109.3925
; outer perimeter
G1 X30.096 Y23.221 F4800
G92 E0
G1 X14.096 Y23.221 E39.7791 F600
G1 X14.096 Y7.221 E79.5583
G1 X30.096 Y7.221 E119.3374
G1 X30.096 Y23.221 E159.1165
; outer perimeter
G1 X-30.904 Y-27.779 F4800
G92 E0
G1 X-4.904 Y-27.779 E64.6411 F600
G1 X-4.904 Y-1.779 E129.2821
G1 X-30.904 Y-1.779 E193.9232
G1 X-30.904 Y-27.779 E258.5642
; outer perimeter
G1 X30.096 Y-6.779 F4800
G92 E0
G1 X9.096 Y-6.779 E52.2101 F600
G1 X9.096 Y-27.779 E104.4202
G1 X30.096 Y-27.779 E156.6303
G1 X30.096 Y-6.779 E208.8404
; layer 2, Z = 2.795
M106 S255
#LayerChange
; tool H1.300 W4.000
; outer perimeter
G1 X-30.904 Y23.221 F4800
G1 Z2.795 F1000
G92 E0
G1 X-30.904 Y17.221 E12.9715 F600
G1 X-24.904 Y17.221 E25.9429
G1 X-24.904 Y23.221 E38.9144
G1 X-30.904 Y23.221 E51.8858
; outer perimeter
G1 X0.096 Y12.221 F4800
G92 E0
G1 X0.096 Y23.221 E23.7810 F600
G1 X-10.904 Y23.221 E47.5620
G1 X-10.904 Y12.221 E71.3430
G1 X0.096 Y12.221 E95.1239
; outer perimeter
G1 X30.096 Y7.221 F4800
G92 E0
G1 X30.096 Y23.221 E34.5906 F600
G1 X14.096 Y23.221 E69.1811
G1 X14.096 Y7.221 E103.7717
G1 X30.096 Y7.221 E138.3622
; outer perimeter
G1 X-30.904 Y-27.779 F4800
G92 E0
G1 X-4.904 Y-27.779 E56.2096 F600
G1 X-4.904 Y-1.779 E112.4192
G1 X-30.904 Y-1.779 E168.6289
G1 X-30.904 Y-27.779 E224.8385
; outer perimeter
G1 X30.096 Y-6.779 F4800
G92 E0
G1 X9.096 Y-6.779 E45.4001 F600
G1 X9.096 Y-27.779 E90.8002
G1 X30.096 Y-27.779 E136.2003
G1 X30.096 Y-6.779 E181.6003
; layer 3, Z = 4.095
#LayerChange
; outer perimeter
G1 X-24.904 Y23.221 F4800
G1 Z4.095 F1000
G92 E0
G1 X-30.904 Y23.221 E12.9715 F600
G1 X-30.904 Y17.221 E25.9429
G1 X-24.904 Y17.221 E38.9144
G1 X-24.904 Y23.221 E51.8858
; outer perimeter
G1 X-10.904 Y23.221 F4800
G92 E0
G1 X-10.904 Y12.221 E23.7810 F600
G1 X0.096 Y12.221 E47.5620
G1 X0.096 Y23.221 E71.3430
G1 X-10.904 Y23.221 E95.1239
; outer perimeter
G1 X14.096 Y7.221 F4800
G92 E0
G1 X30.096 Y7.221 E34.5905 F600
G1 X30.096 Y23.221 E69.1811
G1 X14.096 Y23.221 E103.7716
G1 X14.096 Y7.221 E138.3622
; outer perimeter
G1 X-4.904 Y-1.779 F4800
G92 E0
G1 X-30.904 Y-1.779 E56.2096 F600
G1 X-30.904 Y-27.779 E112.4192
G1 X-4.904 Y-27.779 E168.6289
G1 X-4.904 Y-1.779 E224.8385
; outer perimeter
G1 X30.096 Y-27.779 F4800
G92 E0
G1 X30.096 Y-6.779 E45.4001 F600
G1 X9.096 Y-6.779 E90.8002
G1 X9.096 Y-27.779 E136.2003
G1 X30.096 Y-27.779 E181.6003
; layer 4, Z = 5.395
#LayerChange
; outer perimeter
G1 X-30.904 Y17.221 F4800
G1 Z5.395 F1000
G92 E0
G1 X-24.904 Y17.221 E12.9715 F600
G1 X-24.904 Y23.221 E25.9429
G1 X-30.904 Y23.221 E38.9144
G1 X-30.904 Y17.221 E51.8858
; outer perimeter
G1 X-10.904 Y12.221 F4800
G92 E0
G1 X0.096 Y12.221 E23.7810 F600
G1 X0.096 Y23.221 E47.5620
G1 X-10.904 Y23.221 E71.3429
G1 X-10.904 Y12.221 E95.1239
; outer perimeter
G1 X30.096 Y23.221 F4800
G92 E0
G1 X14.096 Y23.221 E34.5905 F600
G1 X14.096 Y7.221 E69.1811
G1 X30.096 Y7.221 E103.7716
G1 X30.096 Y23.221 E138.3622
; outer perimeter
G1 X-4.904 Y-27.779 F4800
G92 E0
G1 X-4.904 Y-1.779 E56.2096 F600
G1 X-30.904 Y-1.779 E112.4192
G1 X-30.904 Y-27.779 E168.6288
G1 X-4.904 Y-27.779 E224.8385
; outer perimeter
G1 X9.096 Y-27.779 F4800
G92 E0
G1 X30.096 Y-27.779 E45.4001 F600
G1 X30.096 Y-6.779 E90.8002
G1 X9.096 Y-6.779 E136.2003
G1 X9.096 Y-27.779 E181.6003
; layer 5, Z = 6.695
#LayerChange
; outer perimeter
G1 X-24.904 Y17.221 F4800
G1 Z6.695 F1000
G92 E0
G1 X-24.904 Y23.221 E12.9715 F600
G1 X-30.904 Y23.221 E25.9429
G1 X-30.904 Y17.221 E38.9144
G1 X-24.904 Y17.221 E51.8858
; outer perimeter
G1 X-10.904 Y23.221 F4800
G92 E0
G1 X-10.904 Y12.221 E23.7810 F600
G1 X0.096 Y12.221 E47.5620
G1 X0.096 Y23.221 E71.3430
G1 X-10.904 Y23.221 E95.1239
; outer perimeter
G1 X30.096 Y23.221 F4800
G92 E0
G1 X14.096 Y23.221 E34.5905 F600
G1 X14.096 Y7.221 E69.1811
G1 X30.096 Y7.221 E103.7716
G1 X30.096 Y23.221 E138.3622
; outer perimeter
G1 X-4.904 Y-27.779 F4800
G92 E0
G1 X-4.904 Y-1.779 E56.2096 F600
G1 X-30.904 Y-1.779 E112.4192
G1 X-30.904 Y-27.779 E168.6288
G1 X-4.904 Y-27.779 E224.8385
; outer perimeter
G1 X30.096 Y-6.779 F4800
G92 E0
G1 X9.096 Y-6.779 E45.4001 F600
G1 X9.096 Y-27.779 E90.8002
G1 X30.096 Y-27.779 E136.2003
G1 X30.096 Y-6.779 E181.6003
; layer 6, Z = 7.995
#LayerChange
; outer perimeter
G1 X-24.904 Y23.221 F4800
G1 Z7.995 F1000
G92 E0
G1 X-30.904 Y23.221 E12.9715 F600
G1 X-30.904 Y17.221 E25.9429
G1 X-24.904 Y17.221 E38.9144
G1 X-24.904 Y23.221 E51.8858
; outer perimeter
G1 X-10.904 Y23.221 F4800
G92 E0
G1 X-10.904 Y12.221 E23.7810 F600
G1 X0.096 Y12.221 E47.5620
G1 X0.096 Y23.221 E71.3430
G1 X-10.904 Y23.221 E95.1239
; outer perimeter
G1 X30.096 Y7.221 F4800
G92 E0
G1 X30.096 Y23.221 E34.5906 F600
G1 X14.096 Y23.221 E69.1811
G1 X14.096 Y7.221 E103.7717
G1 X30.096 Y7.221 E138.3622
; outer perimeter
G1 X-30.904 Y-1.779 F4800
G92 E0
G1 X-30.904 Y-27.779 E56.2096 F600
G1 X-4.904 Y-27.779 E112.4192
G1 X-4.904 Y-1.779 E168.6288
G1 X-30.904 Y-1.779 E224.8385
; outer perimeter
G1 X9.096 Y-27.779 F4800
G92 E0
G1 X30.096 Y-27.779 E45.4001 F600
G1 X30.096 Y-6.779 E90.8002
G1 X9.096 Y-6.779 E136.2003
G1 X9.096 Y-27.779 E181.6003
; layer 7, Z = 9.295
#LayerChange
; outer perimeter
G1 X-24.904 Y17.221 F4800
G1 Z9.295 F1000
G92 E0
G1 X-24.904 Y23.221 E12.9715 F600
G1 X-30.904 Y23.221 E25.9429
G1 X-30.904 Y17.221 E38.9144
G1 X-24.904 Y17.221 E51.8858
; outer perimeter
G1 X-10.904 Y12.221 F4800
G92 E0
G1 X0.096 Y12.221 E23.7810 F600
G1 X0.096 Y23.221 E47.5620
G1 X-10.904 Y23.221 E71.3429
G1 X-10.904 Y12.221 E95.1239
; outer perimeter
G1 X14.096 Y7.221 F4800
G92 E0
G1 X30.096 Y7.221 E34.5905 F600
G1 X30.096 Y23.221 E69.1811
G1 X14.096 Y23.221 E103.7716
G1 X14.096 Y7.221 E138.3622
; outer perimeter
G1 X-30.904 Y-27.779 F4800
G92 E0
G1 X-4.904 Y-27.779 E56.2096 F600
G1 X-4.904 Y-1.779 E112.4192
G1 X-30.904 Y-1.779 E168.6289
G1 X-30.904 Y-27.779 E224.8385
; outer perimeter
G1 X30.096 Y-6.779 F4800
G92 E0
G1 X9.096 Y-6.779 E45.4001 F600
G1 X9.096 Y-27.779 E90.8002
G1 X30.096 Y-27.779 E136.2003
G1 X30.096 Y-6.779 E181.6003
; layer 8, Z = 10.595
#LayerChange
; outer perimeter
G1 X-30.904 Y23.221 F4800
G1 Z10.595 F1000
G92 E0
G1 X-30.904 Y17.221 E12.9715 F600
G1 X-24.904 Y17.221 E25.9429
G1 X-24.904 Y23.221 E38.9144
G1 X-30.904 Y23.221 E51.8858
; outer perimeter
G1 X-10.904 Y23.221 F4800
G92 E0
G1 X-10.904 Y12.221 E23.7810 F600
G1 X0.096 Y12.221 E47.5620
G1 X0.096 Y23.221 E71.3430
G1 X-10.904 Y23.221 E95.1239
; outer perimeter
G1 X14.096 Y7.221 F4800
G92 E0
G1 X30.096 Y7.221 E34.5905 F600
G1 X30.096 Y23.221 E69.1811
G1 X14.096 Y23.221 E103.7716
G1 X14.096 Y7.221 E138.3622
; outer perimeter
G1 X-30.904 Y-1.779 F4800
G92 E0
G1 X-30.904 Y-27.779 E56.2096 F600
G1 X-4.904 Y-27.779 E112.4192
G1 X-4.904 Y-1.779 E168.6288
G1 X-30.904 Y-1.779 E224.8385
; outer perimeter
G1 X30.096 Y-6.779 F4800
G92 E0
G1 X9.096 Y-6.779 E45.4001 F600
G1 X9.096 Y-27.779 E90.8002
G1 X30.096 Y-27.779 E136.2003
G1 X30.096 Y-6.779 E181.6003
G92 E0
G1 E0.0000 F1800
; layer end
##End
; Build Summary
;   Build time: 0 hours 4 minutes
;   Filament length: 5638.3 mm (5.64 m)
;   Plastic volume: 13561.60 mm^3 (13.56 cc)
;   Plastic weight: 16.95 g (0.04 lb)
;   Material cost: 0.78
