; G-Code generated by Simplify3D(R) Version 3.1.1
; Aug 9, 2019 at 1:06:22 PM
; Settings Summary
;   processName,Gutroff_Hosenrohr
;   applyToModels,rohr_krumm
;   profileName,Default (modified)
;   profileVersion,2015-05-01 08:00:00
;   baseProfile,
;   printMaterial,PLA
;   printQuality,High
;   printExtruders,
;   extruderName,Primary Extruder
;   extruderToolheadNumber,0
;   extruderDiameter,1
;   extruderAutoWidth,0
;   extruderWidth,2.7
;   extrusionMultiplier,1
;   extruderUseRetract,1
;   extruderRetractionDistance,0
;   extruderExtraRestartDistance,0
;   extruderRetractionZLift,5
;   extruderRetractionSpeed,1800
;   extruderUseCoasting,0
;   extruderCoastingDistance,0.2
;   extruderUseWipe,0
;   extruderWipeDistance,5
;   primaryExtruder,0
;   layerHeight,1.3
;   topSolidLayers,0
;   bottomSolidLayers,0
;   perimeterOutlines,1
;   printPerimetersInsideOut,1
;   startPointOption,1
;   startPointOriginX,0
;   startPointOriginY,0
;   startPointOriginZ,300
;   sequentialIslands,0
;   spiralVaseMode,0
;   firstLayerHeightPercentage,115
;   firstLayerWidthPercentage,100
;   firstLayerUnderspeed,1
;   useRaft,0
;   raftExtruder,0
;   raftLayers,3
;   raftOffset,3
;   raftSeparationDistance,0.14
;   raftInfill,85
;   disableRaftBaseLayers,0
;   useSkirt,0
;   skirtExtruder,0
;   skirtLayers,2
;   skirtOutlines,2
;   skirtOffset,4
;   usePrimePillar,0
;   primePillarExtruder,999
;   primePillarWidth,12
;   primePillarLocation,7
;   primePillarSpeedMultiplier,1
;   useOozeShield,0
;   oozeShieldExtruder,999
;   oozeShieldOffset,2
;   oozeShieldOutlines,1
;   oozeShieldSidewallShape,1
;   oozeShieldSidewallAngle,30
;   oozeShieldSpeedMultiplier,1
;   infillExtruder,0
;   internalInfillPattern,Rectilinear
;   externalInfillPattern,Rectilinear
;   infillPercentage,0
;   outlineOverlapPercentage,5
;   infillExtrusionWidthPercentage,100
;   minInfillLength,5
;   infillLayerInterval,1
;   infillAngles,45,-45
;   overlapInfillAngles,0
;   generateSupport,0
;   supportExtruder,0
;   supportInfillPercentage,40
;   supportExtraInflation,0
;   denseSupportLayers,0
;   denseSupportInfillPercentage,70
;   supportLayerInterval,1
;   supportHorizontalPartOffset,0.3
;   supportUpperSeparationLayers,1
;   supportLowerSeparationLayers,1
;   supportType,0
;   supportGridSpacing,4
;   maxOverhangAngle,45
;   supportAngles,0
;   temperatureName,Primary Extruder
;   temperatureNumber,0
;   temperatureSetpointCount,1
;   temperatureSetpointLayers,1
;   temperatureSetpointTemperatures,0
;   temperatureStabilizeAtStartup,1
;   temperatureHeatedBed,0
;   temperatureRelayBetweenLayers,0
;   temperatureRelayBetweenLoops,0
;   fanLayers,1,2
;   fanSpeeds,0,100
;   blipFanToFullPower,0
;   adjustSpeedForCooling,0
;   minSpeedLayerTime,15
;   minCoolingSpeedSlowdown,20
;   increaseFanForCooling,0
;   minFanLayerTime,45
;   maxCoolingFanSpeed,100
;   increaseFanForBridging,0
;   bridgingFanSpeed,100
;   use5D,1
;   relativeEdistances,0
;   allowEaxisZeroing,1
;   independentExtruderAxes,0
;   includeM10123,0
;   stickySupport,1
;   applyToolheadOffsets,0
;   gcodeXoffset,0
;   gcodeYoffset,0
;   gcodeZoffset,0
;   overrideMachineDefinition,0
;   machineTypeOverride,0
;   strokeXoverride,200
;   strokeYoverride,200
;   strokeZoverride,200
;   originOffsetXoverride,0
;   originOffsetYoverride,0
;   originOffsetZoverride,0
;   homeXdirOverride,-1
;   homeYdirOverride,-1
;   homeZdirOverride,-1
;   flipXoverride,1
;   flipYoverride,-1
;   flipZoverride,1
;   toolheadOffsets,0,0|0,0|0,0|0,0|0,0|0,0
;   overrideFirmwareConfiguration,0
;   firmwareTypeOverride,RepRap (Marlin/Repetier/Sprinter)
;   GPXconfigOverride,r2
;   baudRateOverride,115200
;   overridePrinterModels,0
;   printerModelsOverride
;   startingGcode,##Start
;   layerChangeGcode,#LayerChange
;   retractionGcode,#Retraction
;   toolChangeGcode,
;   endingGcode,##End
;   exportFileFormat,gcode
;   celebration,0
;   celebrationSong,Random Song
;   postProcessing,
;   defaultSpeed,600
;   outlineUnderspeed,1
;   solidInfillUnderspeed,0.8
;   supportUnderspeed,0.8
;   rapidXYspeed,4800
;   rapidZspeed,1000
;   minBridgingArea,40
;   bridgingExtraInflation,1
;   bridgingExtrusionMultiplier,1
;   bridgingSpeedMultiplier,1
;   filamentDiameter,1.75
;   filamentPricePerKg,46
;   filamentDensity,1.25
;   useMinPrintHeight,0
;   minPrintHeight,1.5
;   useMaxPrintHeight,0
;   maxPrintHeight,1.5
;   useDiaphragm,0
;   diaphragmLayerInterval,20
;   robustSlicing,0
;   mergeAllIntoSolid,0
;   onlyRetractWhenCrossingOutline,1
;   retractBetweenLayers,0
;   useRetractionMinTravel,0
;   retractionMinTravel,3
;   retractWhileWiping,0
;   onlyWipeOutlines,1
;   avoidCrossingOutline,0
;   maxMovementDetourFactor,3
;   toolChangeRetractionDistance,0
;   toolChangeExtraRestartDistance,0
;   toolChangeRetractionSpeed,600
;   allowThinWallGapFill,1
;   thinWallAllowedOverlapPercentage,50
;   horizontalSizeCompensation,0
G90
M82
M106 S0
M104 S0 T0
##Start
G92 E0
#Retraction
G1 E0.0000 F1800
G1 Z6.495 F1000
; layer 1, Z = 1.495
#LayerChange
T0
; tool H1.495 W2.700
; outer perimeter
G1 X22.862 Y26.538 F4800
G1 Z1.495 F1000
G1 E0.0000 F540
G92 E0
G1 X19.889 Y28.107 E5.6411 F600
G1 X19.482 Y28.255 E6.3686
G1 X15.754 Y28.847 E12.7022
G1 X15.353 Y28.931 E13.3894
G1 X14.736 Y28.888 E14.4281
G1 X11.055 Y28.306 E20.6822
G1 X10.729 Y28.202 E21.2568
G1 X10.236 Y27.969 E22.1717
G1 X7.242 Y26.392 E27.8510
G1 X6.300 Y25.623 E29.8910
G1 X5.739 Y25.115 E31.1607
G1 X4.174 Y23.352 E35.1174
G1 X2.235 Y19.562 E42.2621
G1 X1.552 Y15.302 E49.5026
G1 X2.135 Y11.624 E55.7511
G1 X2.153 Y11.364 E56.1883
G1 X2.331 Y10.799 E57.1829
G1 X4.017 Y7.492 E63.4127
G1 X4.137 Y7.295 E63.7995
G1 X5.730 Y5.514 E67.8087
G1 X5.964 Y5.245 E68.4070
G1 X6.904 Y4.479 E70.4429
G1 X7.508 Y4.068 E71.6683
G1 X10.498 Y2.492 E77.3405
G1 X10.888 Y2.351 E78.0369
G1 X14.632 Y1.759 E84.3980
G1 X15.033 Y1.675 E85.0859
G1 X15.650 Y1.718 E86.1240
G1 X19.314 Y2.300 E92.3488
G1 X19.658 Y2.410 E92.9556
G1 X20.151 Y2.643 E93.8705
G1 X23.127 Y4.214 E99.5183
G1 X24.087 Y4.998 E101.5983
G1 X24.647 Y5.506 E102.8680
G1 X26.196 Y7.253 E106.7856
G1 X28.135 Y11.044 E113.9314
G1 X28.818 Y15.304 E121.1719
G1 X28.235 Y18.982 E127.4204
G1 X28.217 Y19.241 E127.8576
G1 X28.039 Y19.807 E128.8521
G1 X26.353 Y23.114 E135.0821
G1 X26.232 Y23.312 E135.4719
G1 X24.428 Y25.341 E140.0275
G1 X23.465 Y26.128 E142.1137
G1 X22.862 Y26.538 E143.3387
; layer 2, Z = 2.795
M106 S255
#LayerChange
; tool H1.300 W2.700
; outer perimeter
G1 X5.196 Y24.531 F4800
G1 Z2.795 F1000
G92 E0
G1 X4.268 Y23.492 E2.0335 F600
G1 X4.199 Y23.401 E2.2006
G1 X3.181 Y21.403 E5.4719
G1 X2.264 Y19.646 E8.3648
G1 X1.929 Y17.530 E11.4901
G1 X1.553 Y15.296 E14.7959
G1 X1.896 Y13.129 E17.9980
G1 X1.961 Y12.195 E19.3646
G1 X2.626 Y10.088 E22.5892
G1 X3.621 Y8.137 E25.7839
G1 X4.137 Y7.295 E27.2253
G1 X5.074 Y6.247 E29.2776
G1 X5.878 Y5.326 E31.0605
G1 X6.396 Y4.903 E32.0364
G1 X8.336 Y3.583 E35.4615
G1 X10.103 Y2.652 E38.3752
G1 X10.899 Y2.349 E39.6182
G1 X13.124 Y1.997 E42.9064
G1 X14.558 Y1.698 E45.0431
G1 X16.788 Y1.853 E48.3054
G1 X18.962 Y2.199 E51.5187
G1 X19.539 Y2.371 E52.3964
G1 X21.143 Y3.130 E54.9865
G1 X22.893 Y4.054 E57.8745
G1 X23.424 Y4.488 E58.8752
G1 X25.184 Y6.084 E62.3423
G1 X26.102 Y7.113 E64.3549
G1 X26.171 Y7.205 E64.5230
G1 X27.189 Y9.203 E67.7943
G1 X28.106 Y10.960 E70.6873
G1 X28.441 Y13.075 E73.8125
G1 X28.817 Y15.309 E77.1183
G1 X28.474 Y17.477 E80.3205
G1 X28.409 Y18.411 E81.6870
G1 X27.743 Y20.518 E84.9116
G1 X26.749 Y22.469 E88.1062
G1 X26.230 Y23.314 E89.5540
G1 X24.506 Y25.268 E93.3574
G1 X23.974 Y25.703 E94.3600
G1 X22.033 Y27.023 E97.7849
G1 X20.278 Y27.950 E100.6820
G1 X19.471 Y28.257 E101.9415
G1 X17.255 Y28.609 E105.2153
G1 X15.823 Y28.908 E107.3512
G1 X13.592 Y28.752 E110.6143
G1 X11.407 Y28.407 E113.8429
G1 X10.841 Y28.239 E114.7034
G1 X9.237 Y27.479 E117.2941
G1 X7.476 Y26.552 E120.1988
G1 X6.956 Y26.127 E121.1782
G1 X5.196 Y24.531 E124.6450
; layer 3, Z = 4.095
#LayerChange
; outer perimeter
G1 X8.308 Y27.024 F4800
G1 Z4.095 F1000
G92 E0
G1 X7.693 Y26.700 E1.0132 F600
G1 X7.566 Y26.596 E1.2535
G1 X4.693 Y23.989 E6.9153
G1 X4.373 Y23.631 E7.6149
G1 X4.195 Y23.396 E8.0449
G1 X2.289 Y19.724 E14.0827
G1 X1.553 Y15.298 E20.6312
G1 X1.674 Y14.529 E21.7668
G1 X1.783 Y12.968 E24.0509
G1 X2.901 Y9.426 E29.4706
G1 X3.252 Y8.738 E30.5978
G1 X4.137 Y7.295 E33.0672
G1 X4.465 Y6.928 E33.7855
G1 X5.797 Y5.401 E36.7430
G1 X5.923 Y5.299 E36.9799
G1 X9.107 Y3.131 E42.6000
G1 X9.730 Y2.803 E43.6279
G1 X10.903 Y2.348 E45.4641
G1 X11.722 Y2.219 E46.6735
G1 X14.115 Y1.719 E50.2413
G1 X17.846 Y1.980 E55.6987
G1 X18.630 Y2.104 E56.8577
G1 X19.423 Y2.332 E58.0612
G1 X22.066 Y3.583 E62.3290
G1 X22.676 Y3.905 E63.3348
G1 X22.808 Y4.013 E63.5841
G1 X25.681 Y6.620 E69.2460
G1 X25.996 Y6.974 E69.9371
G1 X26.175 Y7.209 E70.3683
G1 X28.081 Y10.882 E76.4061
G1 X28.817 Y15.308 E82.9545
G1 X28.695 Y16.077 E84.0901
G1 X28.587 Y17.638 E86.3743
G1 X27.469 Y21.180 E91.7939
G1 X27.118 Y21.868 E92.9210
G1 X26.229 Y23.316 E95.4002
G1 X24.578 Y25.200 E99.0568
G1 X24.446 Y25.308 E99.3043
G1 X21.263 Y27.475 E104.9243
G1 X20.644 Y27.801 E105.9456
G1 X19.467 Y28.258 E107.7883
G1 X18.652 Y28.387 E108.9919
G1 X16.259 Y28.887 E112.5591
G1 X12.528 Y28.626 E118.0171
G1 X11.739 Y28.502 E119.1822
G1 X10.951 Y28.275 E120.3785
G1 X8.308 Y27.024 E124.6469
; layer 4, Z = 5.395
#LayerChange
; outer perimeter
G1 X11.994 Y28.555 F4800
G1 Z5.395 F1000
G92 E0
G1 X11.709 Y28.433 E0.4526 F600
G1 X10.715 Y28.152 E1.9605
G1 X7.851 Y26.796 E6.5850
G1 X4.479 Y23.736 E13.2300
G1 X4.335 Y23.472 E13.6681
G1 X4.023 Y23.060 E14.4230
G1 X2.310 Y19.776 E19.8280
G1 X1.544 Y15.237 E26.5443
G1 X1.668 Y13.480 E29.1156
G1 X3.052 Y9.098 E35.8214
G1 X3.215 Y8.877 E36.2224
G1 X4.300 Y7.110 E39.2477
G1 X5.708 Y5.495 E42.3747
G1 X9.495 Y2.918 E49.0593
G1 X9.809 Y2.833 E49.5344
G1 X11.245 Y2.272 E51.7835
G1 X13.825 Y1.733 E55.6292
G1 X18.380 Y2.051 E62.2936
G1 X18.736 Y2.203 E62.8584
G1 X19.713 Y2.479 E64.3400
G1 X22.524 Y3.810 E68.8782
G1 X25.896 Y6.870 E75.5231
G1 X26.105 Y7.253 E76.1602
G1 X26.408 Y7.653 E76.8921
G1 X28.065 Y10.830 E82.1199
G1 X28.827 Y15.369 E88.8372
G1 X28.706 Y17.127 E91.4090
G1 X27.323 Y21.508 E98.1127
G1 X27.100 Y21.808 E98.6582
G1 X26.040 Y23.536 E101.6158
G1 X24.666 Y25.110 E104.6654
G1 X20.880 Y27.688 E111.3499
G1 X20.552 Y27.777 E111.8450
G1 X19.121 Y28.336 E114.0869
G1 X16.550 Y28.872 E117.9196
G1 X11.994 Y28.555 E124.5841
; layer 5, Z = 6.695
#LayerChange
; outer perimeter
G1 X9.796 Y27.713 F4800
G1 Z6.695 F1000
G92 E0
G1 X7.859 Y26.796 E3.1272 F600
G1 X4.488 Y23.736 E9.7715
G1 X3.738 Y22.361 E12.0565
G1 X3.514 Y22.066 E12.5964
G1 X2.319 Y19.775 E16.3682
G1 X1.547 Y15.239 E23.0827
G1 X1.677 Y13.482 E25.6534
G1 X3.061 Y9.098 E32.3627
G1 X4.005 Y7.827 E34.6721
G1 X4.769 Y6.583 E36.8034
G1 X5.718 Y5.495 E38.9090
G1 X9.504 Y2.918 E45.5928
G1 X11.187 Y2.462 E48.1384
G1 X12.159 Y2.083 E49.6599
G1 X13.832 Y1.733 E52.1547
G1 X18.387 Y2.051 E58.8177
G1 X20.179 Y2.816 E61.6612
G1 X20.804 Y2.993 E62.6096
G1 X22.530 Y3.810 E65.3950
G1 X25.901 Y6.870 E72.0390
G1 X26.910 Y8.718 E75.1119
G1 X27.095 Y8.963 E75.5600
G1 X28.068 Y10.829 E78.6310
G1 X28.826 Y15.370 E85.3494
G1 X28.709 Y17.129 E87.9218
G1 X27.327 Y21.508 E94.6230
G1 X26.150 Y23.093 E97.5042
G1 X25.482 Y24.181 E99.3675
G1 X24.671 Y25.110 E101.1669
G1 X20.886 Y27.688 E107.8503
G1 X19.150 Y28.158 E110.4749
G1 X18.196 Y28.530 E111.9685
G1 X16.557 Y28.872 E114.4116
G1 X12.002 Y28.555 E121.0746
G1 X10.490 Y27.909 E123.4742
G1 X9.796 Y27.713 E124.5264
; layer 6, Z = 7.995
#LayerChange
; outer perimeter
G1 X4.795 Y6.778 F4800
G1 Z7.995 F1000
G92 E0
G1 X5.239 Y6.055 E1.2374 F600
G1 X5.727 Y5.495 E2.3216
G1 X9.512 Y2.917 E9.0045
G1 X12.566 Y2.091 E13.6205
G1 X13.072 Y1.893 E14.4144
G1 X13.840 Y1.733 E15.5585
G1 X18.394 Y2.051 E22.2199
G1 X21.622 Y3.430 E27.3423
G1 X21.896 Y3.507 E27.7575
G1 X22.535 Y3.810 E28.7901
G1 X25.905 Y6.870 E35.4330
G1 X27.714 Y10.183 E40.9417
G1 X27.782 Y10.273 E41.1062
G1 X28.072 Y10.828 E42.0202
G1 X28.825 Y15.371 E48.7399
G1 X28.713 Y17.131 E51.3129
G1 X27.331 Y21.508 E58.0115
G1 X25.199 Y24.378 E63.2284
G1 X24.924 Y24.827 E63.9974
G1 X24.676 Y25.111 E64.5467
G1 X20.892 Y27.688 E71.2288
G1 X17.747 Y28.539 E75.9830
G1 X17.271 Y28.725 E76.7282
G1 X16.564 Y28.872 E77.7818
G1 X12.011 Y28.555 E84.4434
G1 X9.271 Y27.385 E88.7899
G1 X8.878 Y27.274 E89.3866
G1 X7.868 Y26.796 E91.0163
G1 X4.498 Y23.736 E97.6600
G1 X3.140 Y21.251 E101.7919
G1 X3.006 Y21.073 E102.1167
G1 X2.328 Y19.774 E104.2554
G1 X1.549 Y15.240 E110.9681
G1 X1.687 Y13.484 E113.5382
G1 X3.071 Y9.098 E120.2511
G1 X4.795 Y6.778 E124.4688
; layer 7, Z = 9.295
#LayerChange
; outer perimeter
G1 X27.378 Y21.506 F4800
G1 Z9.295 F1000
G92 E0
G1 X24.667 Y25.139 E6.6148 F600
G1 X20.910 Y27.688 E13.2395
G1 X16.531 Y28.870 E19.8581
G1 X12.019 Y28.555 E26.4597
G1 X8.052 Y26.861 E32.7532
G1 X7.959 Y26.835 E32.8944
G1 X7.877 Y26.796 E33.0265
G1 X4.507 Y23.736 E39.6696
G1 X2.543 Y20.140 E45.6483
G1 X2.498 Y20.080 E45.7581
G1 X2.338 Y19.774 E46.2620
G1 X1.557 Y15.223 E53.0009
G1 X1.562 Y15.126 E53.1414
G1 X1.696 Y13.487 E55.5423
G1 X3.081 Y9.098 E62.2585
G1 X5.585 Y5.728 E68.3845
G1 X5.708 Y5.528 E68.7278
G1 X5.736 Y5.495 E68.7908
G1 X9.521 Y2.917 E75.4728
G1 X13.888 Y1.736 E82.0746
G1 X18.401 Y2.051 E88.6770
G1 X22.581 Y3.829 E95.3056
G1 X25.946 Y6.872 E101.9261
G1 X28.125 Y10.845 E108.5380
G1 X28.892 Y15.368 E115.2335
G1 X28.766 Y17.125 E117.8032
G1 X27.378 Y21.506 E124.5101
; layer 8, Z = 10.595
#LayerChange
; outer perimeter
G1 X24.798 Y25.139 F4800
G1 Z10.595 F1000
G92 E0
G1 X21.041 Y27.688 E6.6244 F600
G1 X16.653 Y28.870 E13.2560
G1 X12.119 Y28.555 E19.8895
G1 X7.938 Y26.777 E26.5185
G1 X4.574 Y23.734 E33.1388
G1 X2.390 Y19.753 E39.7644
G1 X2.324 Y19.389 E40.3046
G1 X1.654 Y15.230 E46.4519
G1 X1.740 Y13.569 E48.8789
G1 X1.747 Y13.502 E48.9765
G1 X3.142 Y9.099 E55.7161
G1 X5.852 Y5.467 E62.3307
G1 X9.609 Y2.918 E68.9549
G1 X13.997 Y1.736 E75.5865
G1 X18.532 Y2.051 E82.2200
G1 X22.712 Y3.829 E88.8491
G1 X26.077 Y6.872 E95.4696
G1 X28.253 Y10.841 E102.0748
G1 X28.992 Y15.375 E108.7782
G1 X28.894 Y17.135 E111.3512
G1 X27.509 Y21.506 E118.0422
G1 X24.798 Y25.139 E124.6570
; layer 9, Z = 11.895
#LayerChange
; outer perimeter
G1 X29.073 Y16.861 F4800
G1 Z11.895 F1000
G92 E0
G1 X29.059 Y17.134 E0.3992 F600
G1 X27.651 Y21.502 E7.0971
G1 X24.930 Y25.138 E13.7248
G1 X21.172 Y27.687 E20.3508
G1 X16.784 Y28.870 E26.9826
G1 X12.249 Y28.554 E33.6161
G1 X8.069 Y26.777 E40.2452
G1 X4.704 Y23.734 E46.8656
G1 X2.521 Y19.753 E53.4911
G1 X2.184 Y17.914 E56.2190
G1 X1.751 Y15.230 E60.1868
G1 X1.805 Y14.197 E61.6955
G1 X1.877 Y13.502 E62.7152
G1 X3.272 Y9.100 E69.4547
G1 X5.983 Y5.467 E76.0694
G1 X9.740 Y2.918 E82.6936
G1 X14.128 Y1.736 E89.3252
G1 X18.662 Y2.051 E95.9588
G1 X22.843 Y3.829 E102.5881
G1 X26.210 Y6.874 E109.2128
G1 X28.412 Y10.850 E115.8455
G1 X29.197 Y15.364 E122.5311
G1 X29.073 Y16.861 E124.7228
; layer 10, Z = 13.195
#LayerChange
; outer perimeter
G1 X26.472 Y6.881 F4800
G1 Z13.195 F1000
G92 E0
G1 X28.685 Y10.847 E6.6279 F600
G1 X29.432 Y15.377 E13.3268
G1 X29.335 Y17.132 E15.8926
G1 X27.928 Y21.498 E22.5860
G1 X25.170 Y25.131 E29.2429
G1 X21.340 Y27.685 E35.9603
G1 X16.916 Y28.870 E42.6444
G1 X12.380 Y28.554 E49.2797
G1 X8.199 Y26.777 E55.9088
G1 X4.835 Y23.734 E62.5291
G1 X2.651 Y19.753 E69.1547
G1 X2.043 Y16.440 E74.0702
G1 X1.849 Y15.230 E75.8586
G1 X1.870 Y14.826 E76.4489
G1 X2.008 Y13.502 E78.3908
G1 X3.403 Y9.100 E85.1302
G1 X6.114 Y5.467 E91.7449
G1 X9.870 Y2.918 E98.3691
G1 X14.258 Y1.736 E105.0008
G1 X18.796 Y2.052 E111.6395
G1 X23.045 Y3.834 E118.3622
G1 X26.472 Y6.881 E125.0544
; layer 11, Z = 14.495
#LayerChange
; outer perimeter
G1 X29.771 Y15.367 F4800
G1 Z14.495 F1000
G92 E0
G1 X29.625 Y17.113 E2.5568 F600
G1 X28.205 Y21.497 E9.2819
G1 X25.446 Y25.131 E15.9405
G1 X21.617 Y27.684 E22.6554
G1 X17.140 Y28.870 E29.4136
G1 X12.517 Y28.554 E36.1770
G1 X8.329 Y26.776 E42.8149
G1 X4.965 Y23.734 E49.4347
G1 X2.782 Y19.754 E56.0588
G1 X1.962 Y15.249 E62.7405
G1 X2.139 Y13.500 E65.3055
G1 X3.533 Y9.100 E72.0418
