; G-Code generated by Simplify3D(R) Version 3.1.1
; Apr 19, 2018 at 12:03:15 PM
; Settings Summary
;   processName,Process1
;   applyToModels,test_parallel
;   profileName,Default (modified)
;   profileVersion,2015-05-01 08:00:00
;   baseProfile,
;   printMaterial,PLA
;   printQuality,Medium
;   printExtruders,
;   extruderName,Primary Extruder
;   extruderToolheadNumber,0
;   extruderDiameter,0.35
;   extruderAutoWidth,0
;   extruderWidth,0.4
;   extrusionMultiplier,0.9
;   extruderUseRetract,0
;   extruderRetractionDistance,1
;   extruderExtraRestartDistance,0
;   extruderRetractionZLift,0
;   extruderRetractionSpeed,1800
;   extruderUseCoasting,0
;   extruderCoastingDistance,0.2
;   extruderUseWipe,0
;   extruderWipeDistance,5
;   primaryExtruder,0
;   layerHeight,1
;   topSolidLayers,0
;   bottomSolidLayers,0
;   perimeterOutlines,1
;   printPerimetersInsideOut,1
;   startPointOption,2
;   startPointOriginX,0
;   startPointOriginY,0
;   startPointOriginZ,300
;   sequentialIslands,0
;   spiralVaseMode,1
;   firstLayerHeightPercentage,90
;   firstLayerWidthPercentage,100
;   firstLayerUnderspeed,0.5
;   useRaft,0
;   raftExtruder,0
;   raftLayers,3
;   raftOffset,3
;   raftSeparationDistance,0.14
;   raftInfill,85
;   disableRaftBaseLayers,0
;   useSkirt,0
;   skirtExtruder,0
;   skirtLayers,1
;   skirtOutlines,2
;   skirtOffset,4
;   usePrimePillar,0
;   primePillarExtruder,999
;   primePillarWidth,12
;   primePillarLocation,7
;   primePillarSpeedMultiplier,1
;   useOozeShield,0
;   oozeShieldExtruder,999
;   oozeShieldOffset,2
;   oozeShieldOutlines,1
;   oozeShieldSidewallShape,1
;   oozeShieldSidewallAngle,30
;   oozeShieldSpeedMultiplier,1
;   infillExtruder,0
;   internalInfillPattern,Rectilinear
;   externalInfillPattern,Rectilinear
;   infillPercentage,0
;   outlineOverlapPercentage,15
;   infillExtrusionWidthPercentage,100
;   minInfillLength,5
;   infillLayerInterval,1
;   infillAngles,0,90
;   overlapInfillAngles,0
;   generateSupport,0
;   supportExtruder,0
;   supportInfillPercentage,30
;   supportExtraInflation,0
;   denseSupportLayers,0
;   denseSupportInfillPercentage,70
;   supportLayerInterval,1
;   supportHorizontalPartOffset,0.3
;   supportUpperSeparationLayers,1
;   supportLowerSeparationLayers,1
;   supportType,0
;   supportGridSpacing,4
;   maxOverhangAngle,45
;   supportAngles,0
;   temperatureName,Primary Extruder
;   temperatureNumber,0
;   temperatureSetpointCount,1
;   temperatureSetpointLayers,1
;   temperatureSetpointTemperatures,190
;   temperatureStabilizeAtStartup,1
;   temperatureHeatedBed,0
;   temperatureRelayBetweenLayers,0
;   temperatureRelayBetweenLoops,0
;   fanLayers,1,2
;   fanSpeeds,0,100
;   blipFanToFullPower,0
;   adjustSpeedForCooling,1
;   minSpeedLayerTime,15
;   minCoolingSpeedSlowdown,20
;   increaseFanForCooling,0
;   minFanLayerTime,45
;   maxCoolingFanSpeed,100
;   increaseFanForBridging,0
;   bridgingFanSpeed,100
;   use5D,1
;   relativeEdistances,0
;   allowEaxisZeroing,1
;   independentExtruderAxes,0
;   includeM10123,0
;   stickySupport,1
;   applyToolheadOffsets,0
;   gcodeXoffset,0
;   gcodeYoffset,0
;   gcodeZoffset,0
;   overrideMachineDefinition,0
;   machineTypeOverride,0
;   strokeXoverride,200
;   strokeYoverride,200
;   strokeZoverride,200
;   originOffsetXoverride,0
;   originOffsetYoverride,0
;   originOffsetZoverride,0
;   homeXdirOverride,-1
;   homeYdirOverride,-1
;   homeZdirOverride,-1
;   flipXoverride,1
;   flipYoverride,-1
;   flipZoverride,1
;   toolheadOffsets,0,0|0,0|0,0|0,0|0,0|0,0
;   overrideFirmwareConfiguration,0
;   firmwareTypeOverride,RepRap (Marlin/Repetier/Sprinter)
;   GPXconfigOverride,r2
;   baudRateOverride,115200
;   overridePrinterModels,0
;   printerModelsOverride
;   startingGcode,G28 ; home all axes
;   layerChangeGcode,
;   retractionGcode,
;   toolChangeGcode,
;   endingGcode,M104 S0 ; turn off extruder,M140 S0 ; turn off bed,M84 ; disable motors
;   exportFileFormat,gcode
;   celebration,0
;   celebrationSong,Random Song
;   postProcessing,
;   defaultSpeed,3600
;   outlineUnderspeed,0.5
;   solidInfillUnderspeed,0.8
;   supportUnderspeed,0.8
;   rapidXYspeed,4800
;   rapidZspeed,1000
;   minBridgingArea,50
;   bridgingExtraInflation,0
;   bridgingExtrusionMultiplier,1
;   bridgingSpeedMultiplier,1
;   filamentDiameter,1.75
;   filamentPricePerKg,46
;   filamentDensity,1.25
;   useMinPrintHeight,0
;   minPrintHeight,0
;   useMaxPrintHeight,0
;   maxPrintHeight,0
;   useDiaphragm,0
;   diaphragmLayerInterval,20
;   robustSlicing,1
;   mergeAllIntoSolid,0
;   onlyRetractWhenCrossingOutline,1
;   retractBetweenLayers,1
;   useRetractionMinTravel,0
;   retractionMinTravel,3
;   retractWhileWiping,0
;   onlyWipeOutlines,1
;   avoidCrossingOutline,0
;   maxMovementDetourFactor,3
;   toolChangeRetractionDistance,12
;   toolChangeExtraRestartDistance,-0.5
;   toolChangeRetractionSpeed,600
;   allowThinWallGapFill,1
;   thinWallAllowedOverlapPercentage,10
;   horizontalSizeCompensation,0
G90
M82
M106 S0
M104 S190 T0
M109 S190 T0
G28 ; home all axes
G92 E0
G1 E-1.0000 F1800
G1 Z0.000 F1000
; layer 1, Z = 0.9
T0
; tool H1.000 W0.400
; outer perimeter
G1 X65.993 Y95.281 F4800
G1 E0.0000 F540
G92 E0
G1 X66.256 Y95.138 Z0.000 E0.0224 F882
G1 X70.899 Y93.080 Z0.001 E0.4117
G1 X71.182 Y92.981 Z0.022 E0.4347
G1 X71.477 Y92.931 Z0.023 E0.4577
G1 X76.535 Y92.486 Z0.024 E0.8568
G1 X76.835 Y92.484 Z0.045 E0.8804
G1 X77.130 Y92.532 Z0.046 E0.9039
G1 X82.061 Y93.748 Z0.048 E1.3128
G1 X82.344 Y93.843 Z0.068 E1.3369
G1 X82.609 Y93.984 Z0.069 E1.3611
G1 X86.880 Y96.730 Z0.071 E1.7797
G1 X87.118 Y96.912 Z0.091 E1.8044
G1 X87.322 Y97.130 Z0.093 E1.8292
G1 X90.476 Y101.111 Z0.094 E2.2576
G1 X90.641 Y101.360 Z0.115 E2.2828
G1 X90.764 Y101.633 Z0.116 E2.3082
G1 X92.459 Y106.415 Z0.117 E2.7460
G1 X92.544 Y106.735 Z0.138 E2.7746
G1 X93.026 Y107.850 Z0.139 E2.8800
G1 X93.981 Y108.650 Z0.144 E2.9887
G1 X95.171 Y108.932 Z0.149 E3.0960
G1 X95.835 Y108.932 Z0.154 E3.1543
G1 X97.026 Y108.650 Z0.157 E3.2623
G1 X97.981 Y107.850 Z0.162 E3.3729
G1 X98.460 Y106.743 Z0.167 E3.4803
G1 X100.166 Y101.928 Z0.172 E3.9445
G1 X100.215 Y101.718 Z0.193 E3.9641
G1 X100.280 Y101.535 Z0.194 E3.9818
G1 X100.360 Y101.370 Z0.194 E3.9985
G1 X103.517 Y97.385 Z0.195 E4.4702
G1 X103.631 Y97.202 Z0.216 E4.4902
G1 X103.752 Y97.049 Z0.217 E4.5083
G1 X103.881 Y96.919 Z0.218 E4.5253
G1 X108.157 Y94.170 Z0.218 E5.0067
G1 X108.325 Y94.034 Z0.239 E5.0272
G1 X108.488 Y93.929 Z0.240 E5.0456
G1 X108.652 Y93.848 Z0.241 E5.0630
G1 X113.587 Y92.631 Z0.241 E5.5542
G1 X113.790 Y92.556 Z0.262 E5.5751
G1 X113.978 Y92.510 Z0.263 E5.5939
G1 X114.160 Y92.486 Z0.264 E5.6117
G1 X119.224 Y92.931 Z0.265 E6.1127
G1 X119.440 Y92.926 Z0.285 E6.1340
G1 X119.633 Y92.943 Z0.286 E6.1531
G1 X119.813 Y92.979 Z0.287 E6.1712
G1 X124.460 Y95.038 Z0.288 E6.6821
G1 X124.666 Y95.104 Z0.309 E6.7038
G1 X124.844 Y95.182 Z0.309 E6.7233
G1 X125.002 Y95.275 Z0.310 E6.7418
G1 X128.734 Y98.728 Z0.311 E7.2625
G1 X128.907 Y98.856 Z0.332 E7.2846
G1 X129.050 Y98.988 Z0.333 E7.3045
G1 X129.170 Y99.127 Z0.333 E7.3233
G1 X131.584 Y103.603 Z0.334 E7.8539
G1 X131.706 Y103.781 Z0.355 E7.8765
G1 X131.798 Y103.951 Z0.356 E7.8968
G1 X131.867 Y104.121 Z0.357 E7.9159
G1 X132.702 Y109.139 Z0.357 E8.4565
G1 X132.760 Y109.347 Z0.378 E8.4795
G1 X132.792 Y109.538 Z0.379 E8.5001
G1 X132.802 Y109.721 Z0.380 E8.5196
G1 X131.968 Y114.734 Z0.380 E9.0695
G1 X131.931 Y115.108 Z0.401 E9.1101
G1 X131.829 Y115.442 Z0.403 E9.1480
G1 X129.241 Y120.241 Z0.404 E9.7494
G1 X129.179 Y120.327 Z0.426 E9.7610
G1 X129.019 Y120.507 Z0.427 E9.7876
G1 X125.292 Y123.956 Z0.428 E10.3571
G1 X125.015 Y124.180 Z0.449 E10.3971
G1 X120.376 Y126.236 Z0.450 E10.9754
G1 X120.040 Y126.412 Z0.471 E11.0187
G1 X119.820 Y126.484 Z0.472 E11.0451
G1 X119.714 Y126.508 Z0.473 E11.0575
G1 X114.278 Y126.985 Z0.474 E11.6909
G1 X114.174 Y126.981 Z0.496 E11.7030
G1 X113.934 Y126.946 Z0.496 E11.7311
G1 X109.004 Y125.730 Z0.497 E12.3299
G1 X108.669 Y125.623 Z0.518 E12.3715
G1 X104.397 Y122.877 Z0.519 E12.9795
G1 X104.066 Y122.693 Z0.540 E13.0250
G1 X103.886 Y122.551 Z0.542 E13.0525
G1 X103.806 Y122.474 Z0.543 E13.0658
G1 X100.418 Y118.195 Z0.543 E13.7308
G1 X100.366 Y118.108 Z0.565 E13.7432
G1 X100.262 Y117.886 Z0.566 E13.7730
G1 X98.568 Y113.104 Z0.567 E14.4006
G1 X98.462 Y112.728 Z0.588 E14.4490
G1 X97.981 Y111.615 Z0.589 E14.5996
G1 X97.026 Y110.814 Z0.594 E14.7549
G1 X95.835 Y110.532 Z0.599 E14.9079
G1 X95.171 Y110.532 Z0.604 E14.9911
G1 X93.981 Y110.814 Z0.607 E15.1449
G1 X93.026 Y111.615 Z0.612 E15.3021
G1 X92.547 Y112.721 Z0.617 E15.4547
G1 X90.842 Y117.534 Z0.622 E16.1097
G1 X90.761 Y117.840 Z0.643 E16.1502
G1 X90.645 Y118.097 Z0.644 E16.1865
G1 X87.492 Y122.078 Z0.645 E16.8477
G1 X87.317 Y122.340 Z0.666 E16.8888
G1 X87.123 Y122.547 Z0.667 E16.9257
G1 X82.852 Y125.293 Z0.668 E17.5966
G1 X82.601 Y125.485 Z0.689 E17.6384
G1 X82.352 Y125.617 Z0.690 E17.6758
G1 X77.421 Y126.834 Z0.691 E18.3565
G1 X77.122 Y126.934 Z0.712 E18.3989
G1 X76.843 Y126.979 Z0.713 E18.4368
G1 X71.784 Y126.534 Z0.715 E19.1274
G1 X71.468 Y126.532 Z0.735 E19.1703
G1 X71.190 Y126.484 Z0.737 E19.2088
G1 X66.547 Y124.426 Z0.738 E19.9092
G1 X66.249 Y124.323 Z0.759 E19.9528
G1 X66.001 Y124.187 Z0.760 E19.9918
G1 X62.274 Y120.737 Z0.761 E20.7020
G1 X62.025 Y120.542 Z0.782 E20.7462
G1 X61.834 Y120.334 Z0.783 E20.7858
G1 X59.424 Y115.863 Z0.784 E21.5058
G1 X59.252 Y115.598 Z0.805 E21.5506
G1 X59.139 Y115.339 Z0.806 E21.5907
G1 X58.305 Y110.328 Z0.807 E22.3206
G1 X58.228 Y110.022 Z0.828 E22.3660
G1 X58.205 Y109.741 Z0.829 E22.4067
G1 X59.038 Y104.730 Z0.830 E23.1463
G1 X59.064 Y104.415 Z0.851 E23.1923
G1 X59.135 Y104.133 Z0.852 E23.2348
G1 X59.255 Y103.859 Z0.854 E23.2784
G1 X61.665 Y99.388 Z0.855 E24.0284
G1 X61.829 Y99.137 Z0.876 E24.0726
G1 X62.031 Y98.916 Z0.877 E24.1168
G1 X65.758 Y95.466 Z0.878 E24.8765
G1 X65.993 Y95.281 Z0.899 E24.9213
; layer 2, Z = 1.9
M106 S255
; outer perimeter
G92 E0
G1 X66.856 Y94.811 Z0.900 E0.1470 F883
G1 X70.252 Y93.305 Z0.904 E0.7031
G1 X71.181 Y92.982 Z0.921 E0.8502
G1 X72.150 Y92.815 Z0.926 E0.9974
G1 X75.850 Y92.490 Z0.930 E1.5534
G1 X76.834 Y92.484 Z0.947 E1.7006
G1 X77.804 Y92.640 Z0.951 E1.8478
G1 X81.411 Y93.530 Z0.956 E2.4038
G1 X82.343 Y93.843 Z0.973 E2.5509
G1 X83.212 Y94.304 Z0.977 E2.6981
G1 X86.336 Y96.313 Z0.982 E3.2541
G1 X87.117 Y96.911 Z0.999 E3.4013
G1 X87.789 Y97.629 Z1.003 E3.5484
G1 X90.096 Y100.540 Z1.007 E4.1044
G1 X90.641 Y101.359 Z1.024 E4.2516
G1 X91.045 Y102.255 Z1.029 E4.3988
G1 X92.284 Y105.754 Z1.033 E4.9543
G1 X92.544 Y106.735 Z1.050 E5.1062
G1 X93.026 Y107.850 Z1.055 E5.2880
G1 X93.981 Y108.650 Z1.060 E5.4745
G1 X95.171 Y108.932 Z1.066 E5.6576
G1 X95.835 Y108.932 Z1.071 E5.7569
G1 X97.025 Y108.650 Z1.074 E5.9400
G1 X97.981 Y107.850 Z1.080 E6.1265
G1 X98.460 Y106.743 Z1.085 E6.3070
G1 X99.711 Y103.212 Z1.091 E6.8677
G1 X99.865 Y102.558 Z1.108 E6.9684
G1 X100.082 Y101.944 Z1.111 E7.0657
G1 X100.360 Y101.369 Z1.114 E7.1614
G1 X102.670 Y98.452 Z1.117 E7.7183
G1 X103.028 Y97.883 Z1.134 E7.8189
G1 X103.432 Y97.373 Z1.137 E7.9162
G1 X103.882 Y96.919 Z1.140 E8.0119
G1 X107.011 Y94.907 Z1.143 E8.5687
G1 X107.533 Y94.484 Z1.159 E8.6694
G1 X108.080 Y94.132 Z1.162 E8.7667
G1 X108.653 Y93.847 Z1.165 E8.8624
G1 X112.265 Y92.957 Z1.168 E9.4192
G1 X112.896 Y92.725 Z1.185 E9.5198
G1 X113.527 Y92.570 Z1.188 E9.6172
G1 X114.161 Y92.486 Z1.191 E9.7129
G1 X117.867 Y92.811 Z1.194 E10.2696
G1 X118.539 Y92.796 Z1.211 E10.3703
G1 X119.187 Y92.853 Z1.214 E10.4676
G1 X119.814 Y92.979 Z1.217 E10.5633
G1 X123.215 Y94.486 Z1.220 E11.1201
G1 X123.856 Y94.690 Z1.237 E11.2208
G1 X124.451 Y94.954 Z1.240 E11.3181
G1 X125.003 Y95.275 Z1.243 E11.4138
G1 X127.734 Y97.802 Z1.246 E11.9707
G1 X128.275 Y98.202 Z1.262 E12.0713
G1 X128.752 Y98.644 Z1.265 E12.1687
G1 X129.171 Y99.128 Z1.268 E12.2644
G1 X130.937 Y102.403 Z1.271 E12.8214
G1 X131.319 Y102.957 Z1.288 E12.9220
G1 X131.628 Y103.529 Z1.291 E13.0194
G1 X131.867 Y104.122 Z1.294 E13.1151
G1 X132.478 Y107.794 Z1.297 E13.6722
G1 X132.661 Y108.441 Z1.314 E13.7729
G1 X132.767 Y109.083 Z1.317 E13.8702
G1 X132.802 Y109.721 Z1.320 E13.9659
G1 X132.192 Y113.389 Z1.323 E14.5224
G1 X132.074 Y114.582 Z1.340 E14.7019
G1 X131.870 Y115.335 Z1.345 E14.8187
G1 X131.735 Y115.692 Z1.349 E14.8758
G1 X129.402 Y120.020 Z1.350 E15.6116
G1 X129.180 Y120.326 Z1.373 E15.6682
G1 X128.656 Y120.918 Z1.374 E15.7865
G1 X125.929 Y123.441 Z1.378 E16.3426
G1 X125.014 Y124.181 Z1.395 E16.5188
G1 X121.621 Y125.685 Z1.400 E17.0743
G1 X120.557 Y126.242 Z1.417 E17.2539
G1 X119.822 Y126.484 Z1.422 E17.3698
G1 X119.443 Y126.568 Z1.426 E17.4278
G1 X114.547 Y126.997 Z1.428 E18.1634
G1 X114.176 Y126.981 Z1.450 E18.2191
G1 X113.387 Y126.867 Z1.451 E18.3383
G1 X109.781 Y125.977 Z1.455 E18.8943
G1 X108.670 Y125.623 Z1.472 E19.0688
G1 X105.538 Y123.612 Z1.477 E19.6259
G1 X104.489 Y123.029 Z1.494 E19.8055
G1 X103.887 Y122.552 Z1.500 E19.9205
G1 X103.604 Y122.278 Z1.503 E19.9795
G1 X100.554 Y118.423 Z1.505 E20.7152
G1 X100.367 Y118.109 Z1.527 E20.7699
G1 X100.026 Y117.382 Z1.529 E20.8901
G1 X98.786 Y113.883 Z1.532 E21.4456
G1 X98.462 Y112.728 Z1.549 E21.6252
G1 X97.981 Y111.615 Z1.555 E21.8068
G1 X97.025 Y110.814 Z1.560 E21.9933
G1 X95.835 Y110.532 Z1.566 E22.1763
G1 X95.171 Y110.532 Z1.571 E22.2757
G1 X93.981 Y110.814 Z1.574 E22.4588
G1 X93.026 Y111.615 Z1.580 E22.6453
G1 X92.547 Y112.721 Z1.585 E22.8258
G1 X91.297 Y116.250 Z1.591 E23.3861
G1 X91.041 Y117.217 Z1.608 E23.5358
G1 X90.644 Y118.098 Z1.612 E23.6804
G1 X88.338 Y121.010 Z1.617 E24.2364
G1 X87.783 Y121.842 Z1.634 E24.3860
G1 X87.123 Y122.548 Z1.638 E24.5307
G1 X83.998 Y124.556 Z1.643 E25.0867
G1 X83.204 Y125.164 Z1.659 E25.2363
G1 X82.351 Y125.618 Z1.664 E25.3810
G1 X78.744 Y126.508 Z1.668 E25.9370
G1 X77.796 Y126.826 Z1.685 E26.0866
G1 X76.842 Y126.979 Z1.690 E26.2313
G1 X73.141 Y126.654 Z1.694 E26.7873
G1 X72.142 Y126.648 Z1.711 E26.9370
G1 X71.189 Y126.484 Z1.715 E27.0817
G1 X67.793 Y124.979 Z1.720 E27.6377
G1 X66.848 Y124.650 Z1.737 E27.7873
G1 X66.000 Y124.187 Z1.741 E27.9320
G1 X63.273 Y121.663 Z1.746 E28.4881
G1 X62.487 Y121.046 Z1.762 E28.6377
G1 X61.834 Y120.333 Z1.767 E28.7824
G1 X60.071 Y117.063 Z1.771 E29.3385
G1 X59.525 Y116.225 Z1.788 E29.4881
G1 X59.138 Y115.339 Z1.793 E29.6328
G1 X58.529 Y111.673 Z1.797 E30.1890
G1 X58.284 Y110.704 Z1.814 E30.3386
G1 X58.205 Y109.741 Z1.818 E30.4833
G1 X58.814 Y106.075 Z1.823 E31.0395
G1 X58.897 Y105.079 Z1.840 E31.1891
G1 X59.135 Y104.133 Z1.844 E31.3350
G1 X59.529 Y103.232 Z1.849 E31.4822
G1 X61.292 Y99.962 Z1.853 E32.0383
G1 X61.828 Y99.137 Z1.870 E32.1855
G1 X62.492 Y98.412 Z1.874 E32.3326
G1 X65.219 Y95.888 Z1.879 E32.8887
G1 X65.993 Y95.282 Z1.896 E33.0359
; layer 3, Z = 2.9
; outer perimeter
G92 E0
G1 X67.487 Y94.466 Z1.900 E0.2548 F884
G1 X69.571 Y93.542 Z1.908 E0.5960
G1 X71.180 Y92.982 Z1.918 E0.8509
G1 X72.858 Y92.693 Z1.926 E1.1059
G1 X75.129 Y92.494 Z1.933 E1.4471
G1 X76.833 Y92.484 Z1.944 E1.7020
G1 X78.514 Y92.754 Z1.951 E1.9570
G1 X80.728 Y93.300 Z1.959 E2.2982
G1 X82.342 Y93.842 Z1.970 E2.5531
G1 X83.846 Y94.642 Z1.977 E2.8080
G1 X85.764 Y95.875 Z1.985 E3.1492
G1 X87.116 Y96.910 Z1.995 E3.4042
G1 X88.280 Y98.153 Z2.003 E3.6591
G1 X89.696 Y99.940 Z2.011 E4.0003
G1 X90.640 Y101.358 Z2.021 E4.2552
G1 X91.340 Y102.911 Z2.029 E4.5102
G1 X92.101 Y105.058 Z2.036 E4.8511
G1 X92.544 Y106.735 Z2.047 E5.1108
G1 X93.026 Y107.850 Z2.055 E5.2925
G1 X93.981 Y108.650 Z2.060 E5.4791
G1 X95.171 Y108.932 Z2.066 E5.6621
G1 X95.835 Y108.932 Z2.071 E5.7615
G1 X97.025 Y108.650 Z2.074 E5.9445
G1 X97.981 Y107.850 Z2.080 E6.1311
G1 X98.460 Y106.743 Z2.085 E6.3116
G1 X99.232 Y104.564 Z2.091 E6.6576
G1 X99.496 Y103.442 Z2.101 E6.8301
G1 X99.873 Y102.376 Z2.107 E6.9994
G1 X100.361 Y101.368 Z2.112 E7.1670
G1 X101.780 Y99.576 Z2.117 E7.5090
G1 X102.393 Y98.600 Z2.127 E7.6815
G1 X103.095 Y97.714 Z2.132 E7.8508
G1 X103.882 Y96.918 Z2.137 E8.0184
G1 X105.804 Y95.682 Z2.143 E8.3604
G1 X106.700 Y94.957 Z2.153 E8.5329
G1 X107.651 Y94.345 Z2.158 E8.7021
G1 X108.654 Y93.847 Z2.163 E8.8697
G1 X110.873 Y93.300 Z2.168 E9.2117
G1 X111.955 Y92.903 Z2.179 E9.3842
