; G-Code generated by Simplify3D(R) Version 3.1.1
; Apr 29, 2019 at 2:24:56 PM
; Settings Summary
;   processName,Gutroff_Olli
;   applyToModels,test_hase
;   profileName,Default (modified)
;   profileVersion,2015-05-01 08:00:00
;   baseProfile,
;   printMaterial,PLA
;   printQuality,High
;   printExtruders,
;   extruderName,Primary Extruder
;   extruderToolheadNumber,0
;   extruderDiameter,1
;   extruderAutoWidth,0
;   extruderWidth,2.4
;   extrusionMultiplier,1
;   extruderUseRetract,0
;   extruderRetractionDistance,0
;   extruderExtraRestartDistance,0
;   extruderRetractionZLift,5
;   extruderRetractionSpeed,1800
;   extruderUseCoasting,0
;   extruderCoastingDistance,0.2
;   extruderUseWipe,0
;   extruderWipeDistance,5
;   primaryExtruder,0
;   layerHeight,2.5
;   topSolidLayers,0
;   bottomSolidLayers,0
;   perimeterOutlines,0
;   printPerimetersInsideOut,0
;   startPointOption,1
;   startPointOriginX,0
;   startPointOriginY,0
;   startPointOriginZ,300
;   sequentialIslands,0
;   spiralVaseMode,0
;   firstLayerHeightPercentage,100
;   firstLayerWidthPercentage,100
;   firstLayerUnderspeed,1
;   useRaft,0
;   raftExtruder,0
;   raftLayers,3
;   raftOffset,3
;   raftSeparationDistance,0.14
;   raftInfill,85
;   disableRaftBaseLayers,0
;   useSkirt,0
;   skirtExtruder,0
;   skirtLayers,2
;   skirtOutlines,2
;   skirtOffset,4
;   usePrimePillar,0
;   primePillarExtruder,999
;   primePillarWidth,12
;   primePillarLocation,7
;   primePillarSpeedMultiplier,1
;   useOozeShield,0
;   oozeShieldExtruder,999
;   oozeShieldOffset,2
;   oozeShieldOutlines,1
;   oozeShieldSidewallShape,1
;   oozeShieldSidewallAngle,30
;   oozeShieldSpeedMultiplier,1
;   infillExtruder,0
;   internalInfillPattern,Rectilinear
;   externalInfillPattern,Rectilinear
;   infillPercentage,100
;   outlineOverlapPercentage,99
;   infillExtrusionWidthPercentage,100
;   minInfillLength,4
;   infillLayerInterval,1
;   infillAngles,45,-45
;   overlapInfillAngles,0
;   generateSupport,0
;   supportExtruder,0
;   supportInfillPercentage,40
;   supportExtraInflation,0
;   denseSupportLayers,0
;   denseSupportInfillPercentage,70
;   supportLayerInterval,1
;   supportHorizontalPartOffset,0.3
;   supportUpperSeparationLayers,1
;   supportLowerSeparationLayers,1
;   supportType,0
;   supportGridSpacing,4
;   maxOverhangAngle,45
;   supportAngles,0
;   temperatureName,Primary Extruder
;   temperatureNumber,0
;   temperatureSetpointCount,1
;   temperatureSetpointLayers,1
;   temperatureSetpointTemperatures,0
;   temperatureStabilizeAtStartup,1
;   temperatureHeatedBed,0
;   temperatureRelayBetweenLayers,0
;   temperatureRelayBetweenLoops,0
;   fanLayers,1,2
;   fanSpeeds,0,100
;   blipFanToFullPower,0
;   adjustSpeedForCooling,0
;   minSpeedLayerTime,15
;   minCoolingSpeedSlowdown,20
;   increaseFanForCooling,0
;   minFanLayerTime,45
;   maxCoolingFanSpeed,100
;   increaseFanForBridging,0
;   bridgingFanSpeed,100
;   use5D,1
;   relativeEdistances,0
;   allowEaxisZeroing,1
;   independentExtruderAxes,0
;   includeM10123,0
;   stickySupport,1
;   applyToolheadOffsets,0
;   gcodeXoffset,0
;   gcodeYoffset,0
;   gcodeZoffset,0
;   overrideMachineDefinition,0
;   machineTypeOverride,0
;   strokeXoverride,200
;   strokeYoverride,200
;   strokeZoverride,200
;   originOffsetXoverride,0
;   originOffsetYoverride,0
;   originOffsetZoverride,0
;   homeXdirOverride,-1
;   homeYdirOverride,-1
;   homeZdirOverride,-1
;   flipXoverride,1
;   flipYoverride,-1
;   flipZoverride,1
;   toolheadOffsets,0,0|0,0|0,0|0,0|0,0|0,0
;   overrideFirmwareConfiguration,0
;   firmwareTypeOverride,RepRap (Marlin/Repetier/Sprinter)
;   GPXconfigOverride,r2
;   baudRateOverride,115200
;   overridePrinterModels,0
;   printerModelsOverride
;   startingGcode,##Start
;   layerChangeGcode,#LayerChange
;   retractionGcode,#Retraction
;   toolChangeGcode,
;   endingGcode,##End
;   exportFileFormat,gcode
;   celebration,0
;   celebrationSong,Random Song
;   postProcessing,
;   defaultSpeed,600
;   outlineUnderspeed,1
;   solidInfillUnderspeed,0.8
;   supportUnderspeed,0.8
;   rapidXYspeed,4800
;   rapidZspeed,1000
;   minBridgingArea,40
;   bridgingExtraInflation,1
;   bridgingExtrusionMultiplier,1
;   bridgingSpeedMultiplier,1
;   filamentDiameter,1.75
;   filamentPricePerKg,46
;   filamentDensity,1.25
;   useMinPrintHeight,0
;   minPrintHeight,0
;   useMaxPrintHeight,0
;   maxPrintHeight,0
;   useDiaphragm,0
;   diaphragmLayerInterval,3
;   robustSlicing,0
;   mergeAllIntoSolid,0
;   onlyRetractWhenCrossingOutline,1
;   retractBetweenLayers,0
;   useRetractionMinTravel,0
;   retractionMinTravel,3
;   retractWhileWiping,0
;   onlyWipeOutlines,1
;   avoidCrossingOutline,0
;   maxMovementDetourFactor,3
;   toolChangeRetractionDistance,0
;   toolChangeExtraRestartDistance,0
;   toolChangeRetractionSpeed,600
;   allowThinWallGapFill,1
;   thinWallAllowedOverlapPercentage,50
;   horizontalSizeCompensation,0
G90
M82
M106 S0
M104 S0 T0
##Start
G92 E0
#Retraction
G1 E0.0000 F1800
G1 Z7.500 F1000
; layer 1, Z = 2.5
#LayerChange
T0
; tool H2.500 W2.400
; infill
G1 X-9.800 Y3.776 F4800
G1 Z2.500 F1000
G1 E0.0000 F540
G92 E0
G1 X-11.276 Y2.300 E5.2054 F600
G1 X-11.276 Y-1.094 E13.6721
G1 X-6.406 Y3.776 E30.8512
G1 X-3.012 Y3.776 E39.3178
G1 X-10.564 Y-3.776 E65.9596
G1 X-7.170 Y-3.776 E74.4262
G1 X0.382 Y3.776 E101.0679
G1 X3.776 Y3.776 E109.5346
G1 X-3.776 Y-3.776 E136.1763
G1 X-0.382 Y-3.776 E144.6429
G1 X7.170 Y3.776 E171.2847
G1 X10.564 Y3.776 E179.7513
G1 X3.012 Y-3.776 E206.3930
G1 X6.406 Y-3.776 E214.8597
G1 X11.276 Y1.094 E232.0387
G1 X11.276 Y-2.300 E240.5053
G1 X9.800 Y-3.776 E245.7107
; layer 2, Z = 5
M106 S255
#LayerChange
; infill
G1 X11.276 Y2.300 F4800
G1 Z5.000 F1000
G92 E0
G1 X9.800 Y3.776 E5.2053 F600
G1 X6.406 Y3.776 E13.6719
G1 X11.276 Y-1.094 E30.8509
G1 X11.276 Y-3.776 E37.5421
G1 X10.564 Y-3.776 E39.3175
G1 X3.012 Y3.776 E65.9592
G1 X-0.382 Y3.776 E74.4259
G1 X7.170 Y-3.776 E101.0676
G1 X3.776 Y-3.776 E109.5342
G1 X-3.776 Y3.776 E136.1760
G1 X-7.170 Y3.776 E144.6426
G1 X0.382 Y-3.776 E171.2843
G1 X-3.012 Y-3.776 E179.7510
G1 X-10.564 Y3.776 E206.3927
G1 X-11.276 Y3.776 E208.1683
G1 X-11.276 Y1.094 E214.8593
G1 X-6.406 Y-3.776 E232.0385
G1 X-9.800 Y-3.776 E240.5052
G1 X-11.276 Y-2.300 E245.7107
; layer 3, Z = 7.5
#LayerChange
; infill
G1 X-7.170 Y-3.776 F4800
G1 Z7.500 F1000
G92 E0
G1 X-5.114 Y-1.720 E7.2526 F600
G1 X-5.114 Y1.674 E15.7193
G1 X-10.564 Y-3.776 E34.9455
G1 X-11.276 Y-3.776 E36.7211
G1 X-11.276 Y-1.094 E43.4122
G1 X-6.406 Y3.776 E60.5912
G1 X-9.800 Y3.776 E69.0579
G1 X-11.276 Y2.300 E74.2633
; infill
G1 X5.114 Y1.720 F4800
G92 E0
G1 X7.170 Y3.776 E7.2527 F600
G1 X10.564 Y3.776 E15.7193
G1 X5.114 Y-1.674 E34.9457
G1 X5.114 Y-3.776 E40.1891
G1 X6.406 Y-3.776 E43.4123
G1 X11.276 Y1.094 E60.5913
G1 X11.276 Y-2.300 E69.0580
G1 X9.800 Y-3.776 E74.2633
; layer 4, Z = 10
#LayerChange
; infill
G1 X7.534 Y-0.745 F4800
G1 Z10.000 F1000
G92 E0
G1 X10.564 Y-3.776 E10.6910 F600
G1 X11.276 Y-3.776 E12.4665
G1 X11.276 Y-1.094 E19.1577
G1 X7.534 Y2.649 E32.3595
G1 X7.534 Y3.776 E35.1717
G1 X9.800 Y3.776 E40.8262
G1 X11.276 Y2.300 E46.0315
; infill
G1 X-7.534 Y0.746 F4800
G92 E0
G1 X-10.564 Y3.776 E10.6908 F600
G1 X-11.276 Y3.776 E12.4664
G1 X-11.276 Y1.094 E19.1574
G1 X-7.534 Y-2.649 E32.3593
G1 X-7.534 Y-3.776 E35.1717
G1 X-9.800 Y-3.776 E40.8259
G1 X-11.276 Y-2.300 E46.0315
; layer 5, Z = 12.5
#LayerChange
; infill
G1 X-10.564 Y-3.776 F4800
G1 Z12.500 F1000
G92 E0
G1 X-8.536 Y-1.748 E7.1555 F600
G1 X-8.536 Y1.646 E15.6221
G1 X-11.276 Y-1.094 E25.2887
G1 X-11.276 Y2.300 E33.7553
G1 X-9.800 Y3.776 E38.9607
; infill
G1 X10.564 Y3.776 F4800
G92 E0
G1 X8.536 Y1.748 E7.1556 F600
G1 X8.536 Y-1.646 E15.6222
G1 X11.276 Y1.094 E25.2887
G1 X11.276 Y-2.300 E33.7554
G1 X9.800 Y-3.776 E38.9607
; layer 6, Z = 15
#LayerChange
; infill
G1 X8.536 Y-1.748 F4800
G1 Z15.000 F1000
G92 E0
G1 X10.564 Y-3.776 E7.1557 F600
G1 X11.276 Y-3.776 E8.9311
G1 X11.276 Y-1.094 E15.6223
G1 X8.536 Y1.646 E25.2888
G1 X8.536 Y3.776 E30.6009
G1 X9.800 Y3.776 E33.7555
G1 X11.276 Y2.300 E38.9607
; infill
G1 X-8.536 Y1.748 F4800
G92 E0
G1 X-10.564 Y3.776 E7.1554 F600
G1 X-11.276 Y3.776 E8.9310
G1 X-11.276 Y1.094 E15.6221
G1 X-8.536 Y-1.646 E25.2886
G1 X-8.536 Y-3.776 E30.6008
G1 X-9.800 Y-3.776 E33.7552
G1 X-11.276 Y-2.300 E38.9607
; layer 7, Z = 17.5
#LayerChange
; infill
G1 X-10.564 Y-3.776 F4800
G1 Z17.500 F1000
G92 E0
G1 X-7.534 Y-0.746 E10.6908 F600
G1 X-7.534 Y2.649 E19.1575
G1 X-11.276 Y-1.094 E32.3594
G1 X-11.276 Y2.300 E40.8260
G1 X-9.800 Y3.776 E46.0315
; infill
G1 X10.564 Y3.776 F4800
G92 E0
G1 X7.534 Y0.745 E10.6909 F600
G1 X7.534 Y-2.649 E19.1576
G1 X11.276 Y1.094 E32.3594
G1 X11.276 Y-2.300 E40.8261
G1 X9.800 Y-3.776 E46.0315
; layer 8, Z = 20
#LayerChange
; infill
G1 X5.114 Y-1.720 F4800
G1 Z20.000 F1000
G92 E0
G1 X7.170 Y-3.776 E7.2528 F600
G1 X10.564 Y-3.776 E15.7194
G1 X5.114 Y1.674 E34.9458
G1 X5.114 Y3.776 E40.1892
G1 X6.406 Y3.776 E43.4125
G1 X11.276 Y-1.094 E60.5914
G1 X11.276 Y2.300 E69.0581
G1 X9.800 Y3.776 E74.2633
; infill
G1 X-7.170 Y3.776 F4800
G92 E0
G1 X-5.114 Y1.720 E7.2525 F600
G1 X-5.114 Y-1.674 E15.7192
G1 X-10.564 Y3.776 E34.9453
G1 X-11.276 Y3.776 E36.7210
G1 X-11.276 Y1.094 E43.4120
G1 X-6.406 Y-3.776 E60.5912
G1 X-9.800 Y-3.776 E69.0578
G1 X-11.276 Y-2.300 E74.2633
; layer 9, Z = 22.5
#LayerChange
; infill
G1 X-9.800 Y3.776 F4800
G1 Z22.500 F1000
G92 E0
G1 X-11.276 Y2.300 E5.2054 F600
G1 X-11.276 Y-1.094 E13.6721
G1 X-6.406 Y3.776 E30.8512
G1 X-3.012 Y3.776 E39.3178
G1 X-10.564 Y-3.776 E65.9596
G1 X-7.170 Y-3.776 E74.4262
G1 X0.382 Y3.776 E101.0679
G1 X3.776 Y3.776 E109.5346
G1 X-3.776 Y-3.776 E136.1763
G1 X-0.382 Y-3.776 E144.6429
G1 X7.170 Y3.776 E171.2847
G1 X10.564 Y3.776 E179.7513
G1 X3.012 Y-3.776 E206.3930
G1 X6.406 Y-3.776 E214.8597
G1 X11.276 Y1.094 E232.0387
G1 X11.276 Y-2.300 E240.5053
G1 X9.800 Y-3.776 E245.7107
; layer 10, Z = 25
#LayerChange
; infill
G1 X11.276 Y2.300 F4800
G1 Z25.000 F1000
G92 E0
G1 X9.800 Y3.776 E5.2053 F600
G1 X6.406 Y3.776 E13.6719
G1 X11.276 Y-1.094 E30.8509
G1 X11.276 Y-3.776 E37.5421
G1 X10.564 Y-3.776 E39.3175
G1 X3.012 Y3.776 E65.9592
G1 X-0.382 Y3.776 E74.4259
G1 X7.170 Y-3.776 E101.0676
G1 X3.776 Y-3.776 E109.5342
G1 X-3.776 Y3.776 E136.1760
G1 X-7.170 Y3.776 E144.6426
G1 X0.382 Y-3.776 E171.2843
G1 X-3.012 Y-3.776 E179.7510
G1 X-10.564 Y3.776 E206.3927
G1 X-11.276 Y3.776 E208.1683
G1 X-11.276 Y1.094 E214.8593
G1 X-6.406 Y-3.776 E232.0385
G1 X-9.800 Y-3.776 E240.5052
G1 X-11.276 Y-2.300 E245.7107
; layer 11, Z = 27.5
#LayerChange
; infill
G1 X-11.276 Y2.300 F4800
G1 Z27.500 F1000
G92 E0
G1 X-8.939 Y4.637 E8.2428 F600
G1 X-5.545 Y4.637 E16.7095
G1 X-11.276 Y-1.094 E36.9259
G1 X-11.276 Y-4.488 E45.3926
G1 X-2.151 Y4.637 E77.5827
G1 X-1.224 Y4.637 E79.8957
G1 X-1.224 Y2.170 E86.0493
G1 X-8.031 Y-4.637 E110.0632
G1 X-4.637 Y-4.637 E118.5298
G1 X-1.224 Y-1.224 E130.5700
G1 X-1.224 Y-4.618 E139.0367
G1 X-1.243 Y-4.637 E139.1032
; layer 12, Z = 30
#LayerChange
; infill
G1 X-1.224 Y4.618 F4800
G1 Z30.000 F1000
G92 E0
G1 X-2.965 Y6.359 E6.1413 F600
G1 X-6.359 Y6.359 E14.6079
G1 X-1.224 Y1.224 E32.7229
G1 X-1.224 Y-2.170 E41.1895
G1 X-9.753 Y6.359 E71.2781
G1 X-11.276 Y6.359 E75.0771
G1 X-11.276 Y4.488 E79.7448
G1 X-1.224 Y-5.564 E115.2059
G1 X-1.224 Y-6.359 E117.1886
G1 X-3.823 Y-6.359 E123.6726
G1 X-11.276 Y1.094 E149.9639
G1 X-11.276 Y-2.300 E158.4306
G1 X-7.217 Y-6.359 E172.7483
G1 X-10.612 Y-6.359 E181.2149
G1 X-11.276 Y-5.695 E183.5590
; layer 13, Z = 32.5
#LayerChange
; infill
G1 X-9.044 Y-2.256 F4800
G1 Z32.500 F1000
G92 E0
G1 X-11.276 Y-4.488 E7.8725 F600
G1 X-11.276 Y-7.882 E16.3392
G1 X-5.650 Y-2.256 E36.1853
G1 X-2.256 Y-2.256 E44.6520
G1 X-8.081 Y-8.081 E65.2005
G1 X-4.687 Y-8.081 E73.6672
G1 X-1.224 Y-4.618 E85.8834
G1 X-1.224 Y-8.012 E94.3500
G1 X-1.293 Y-8.081 E94.5926
; infill
G1 X-4.532 Y2.256 F4800
G92 E0
G1 X-1.224 Y5.564 E11.6699 F600
G1 X-1.224 Y8.081 E17.9480
G1 X-2.101 Y8.081 E20.1366
G1 X-7.926 Y2.256 E40.6851
G1 X-11.276 Y2.256 E49.0414
G1 X-11.276 Y2.300 E49.1517
G1 X-5.495 Y8.081 E69.5442
G1 X-8.890 Y8.081 E78.0108
G1 X-11.276 Y5.695 E86.4296
; layer 14, Z = 35
#LayerChange
; infill
G1 X-11.276 Y7.882 F4800
G1 Z35.000 F1000
G92 E0
G1 X-8.149 Y4.755 E11.0308 F600
G1 X-4.755 Y4.755 E19.4975
G1 X-9.803 Y9.803 E37.3054
G1 X-6.409 Y9.803 E45.7720
G1 X-1.361 Y4.755 E63.5799
G1 X-1.224 Y4.755 E63.9215
G1 X-1.224 Y8.012 E72.0466
G1 X-3.015 Y9.803 E78.3638
; infill
G1 X-1.224 Y-5.564 F4800
G92 E0
G1 X-2.033 Y-4.755 E2.8544 F600
G1 X-5.427 Y-4.755 E11.3211
G1 X-1.224 Y-8.958 E26.1492
G1 X-1.224 Y-9.803 E28.2562
G1 X-3.773 Y-9.803 E34.6158
G1 X-8.821 Y-4.755 E52.4237
G1 X-11.276 Y-4.755 E58.5468
G1 X-11.276 Y-5.695 E60.8904
G1 X-7.168 Y-9.803 E75.3840
G1 X-10.562 Y-9.803 E83.8507
G1 X-11.276 Y-9.089 E86.3707
; layer 15, Z = 37.5
#LayerChange
; infill
G1 X-10.648 Y-7.254 F4800
G1 Z37.500 F1000
G92 E0
G1 X-11.276 Y-7.882 E2.2153 F600
G1 X-11.276 Y-11.276 E10.6820
G1 X-7.254 Y-7.254 E24.8710
G1 X-3.860 Y-7.254 E33.3376
G1 X-8.131 Y-11.525 E48.4049
G1 X-4.737 Y-11.525 E56.8715
G1 X-1.224 Y-8.012 E69.2637
G1 X-1.224 Y-11.406 E77.7303
G1 X-1.343 Y-11.525 E78.1488
; infill
G1 X-2.928 Y7.254 F4800
G92 E0
G1 X-1.224 Y8.958 E6.0127 F600
G1 X-1.224 Y11.525 E12.4153
G1 X-2.051 Y11.525 E14.4794
G1 X-6.323 Y7.254 E29.5466
G1 X-9.717 Y7.254 E38.0133
G1 X-5.446 Y11.525 E53.0806
G1 X-8.840 Y11.525 E61.5472
G1 X-11.276 Y9.089 E70.1420
; layer 16, Z = 40
#LayerChange
; infill
G1 X-11.276 Y11.276 F4800
G1 Z40.000 F1000
G92 E0
G1 X-9.753 Y9.753 E5.3736 F600
G1 X-6.359 Y9.753 E13.8403
G1 X-9.853 Y13.247 E26.1669
G1 X-6.459 Y13.247 E34.6335
G1 X-2.965 Y9.753 E46.9602
G1 X-1.224 Y9.753 E51.3020
G1 X-1.224 Y11.406 E55.4268
G1 X-3.065 Y13.247 E61.9200
; infill
G1 X-3.824 Y-9.753 F4800
G92 E0
G1 X-1.224 Y-12.352 E9.1708 F600
G1 X-1.224 Y-13.247 E11.4023
G1 X-3.724 Y-13.247 E17.6375
G1 X-7.218 Y-9.753 E29.9641
G1 X-10.612 Y-9.753 E38.4308
G1 X-7.118 Y-13.247 E50.7574
G1 X-10.512 Y-13.247 E59.2240
G1 X-11.276 Y-12.483 E61.9200
; layer 17, Z = 42.5
#LayerChange
; infill
G1 X-11.276 Y-14.670 F4800
G1 Z42.500 F1000
G92 E0
G1 X-8.858 Y-12.252 E8.5318 F600
G1 X-5.463 Y-12.252 E16.9984
G1 X-8.181 Y-14.969 E26.5844
G1 X-4.787 Y-14.969 E35.0511
G1 X-2.069 Y-12.252 E44.6371
G1 X-1.224 Y-12.252 E46.7457
G1 X-1.224 Y-14.800 E53.1037
G1 X-1.393 Y-14.969 E53.6982
; infill
G1 X-1.325 Y12.252 F4800
G92 E0
G1 X-1.224 Y12.352 E0.3555 F600
G1 X-1.224 Y14.969 E6.8825
G1 X-2.002 Y14.969 E8.8221
G1 X-4.719 Y12.252 E18.4081
G1 X-8.113 Y12.252 E26.8748
G1 X-5.396 Y14.969 E36.4608
G1 X-8.790 Y14.969 E44.9275
G1 X-11.276 Y12.483 E53.6982
; layer 18, Z = 45
#LayerChange
; infill
G1 X-9.903 Y16.691 F4800
G1 Z45.000 F1000
G92 E0
G1 X-7.962 Y14.751 E6.8454 F600
G1 X-4.568 Y14.751 E15.3121
G1 X-6.509 Y16.691 E22.1575
G1 X-3.114 Y16.691 E30.6241
G1 X-1.224 Y14.800 E37.2933
; infill
G1 X-2.220 Y-14.751 F4800
G92 E0
G1 X-1.224 Y-15.747 E3.5137 F600
G1 X-1.224 Y-16.691 E5.8696
G1 X-3.674 Y-16.691 E11.9803
G1 X-5.614 Y-14.751 E18.8257
G1 X-9.008 Y-14.751 E27.2924
G1 X-7.068 Y-16.691 E34.1378
G1 X-10.462 Y-16.691 E42.6045
G1 X-11.276 Y-15.877 E45.4764
; layer end
##End
; Build Summary
;   Build time: 0 hours 1 minute
;   Filament length: 2750.6 mm (2.75 m)
;   Plastic volume: 6615.92 mm^3 (6.62 cc)
;   Plastic weight: 8.27 g (0.02 lb)
;   Material cost: 0.38
