; G-Code generated by Simplify3D(R) Version 3.1.1
; Apr 29, 2019 at 2:21:22 PM
; Settings Summary
;   processName,Gutroff_Olli
;   applyToModels,test_hase
;   profileName,Default (modified)
;   profileVersion,2015-05-01 08:00:00
;   baseProfile,
;   printMaterial,PLA
;   printQuality,High
;   printExtruders,
;   extruderName,Primary Extruder
;   extruderToolheadNumber,0
;   extruderDiameter,1
;   extruderAutoWidth,0
;   extruderWidth,2.4
;   extrusionMultiplier,1
;   extruderUseRetract,0
;   extruderRetractionDistance,0
;   extruderExtraRestartDistance,0
;   extruderRetractionZLift,5
;   extruderRetractionSpeed,1800
;   extruderUseCoasting,0
;   extruderCoastingDistance,0.2
;   extruderUseWipe,0
;   extruderWipeDistance,5
;   primaryExtruder,0
;   layerHeight,2.5
;   topSolidLayers,0
;   bottomSolidLayers,0
;   perimeterOutlines,1
;   printPerimetersInsideOut,0
;   startPointOption,1
;   startPointOriginX,0
;   startPointOriginY,0
;   startPointOriginZ,300
;   sequentialIslands,0
;   spiralVaseMode,0
;   firstLayerHeightPercentage,100
;   firstLayerWidthPercentage,100
;   firstLayerUnderspeed,1
;   useRaft,0
;   raftExtruder,0
;   raftLayers,3
;   raftOffset,3
;   raftSeparationDistance,0.14
;   raftInfill,85
;   disableRaftBaseLayers,0
;   useSkirt,0
;   skirtExtruder,0
;   skirtLayers,2
;   skirtOutlines,2
;   skirtOffset,4
;   usePrimePillar,0
;   primePillarExtruder,999
;   primePillarWidth,12
;   primePillarLocation,7
;   primePillarSpeedMultiplier,1
;   useOozeShield,0
;   oozeShieldExtruder,999
;   oozeShieldOffset,2
;   oozeShieldOutlines,1
;   oozeShieldSidewallShape,1
;   oozeShieldSidewallAngle,30
;   oozeShieldSpeedMultiplier,1
;   infillExtruder,0
;   internalInfillPattern,Rectilinear
;   externalInfillPattern,Rectilinear
;   infillPercentage,100
;   outlineOverlapPercentage,20
;   infillExtrusionWidthPercentage,100
;   minInfillLength,4
;   infillLayerInterval,1
;   infillAngles,45,-45
;   overlapInfillAngles,0
;   generateSupport,0
;   supportExtruder,0
;   supportInfillPercentage,40
;   supportExtraInflation,0
;   denseSupportLayers,0
;   denseSupportInfillPercentage,70
;   supportLayerInterval,1
;   supportHorizontalPartOffset,0.3
;   supportUpperSeparationLayers,1
;   supportLowerSeparationLayers,1
;   supportType,0
;   supportGridSpacing,4
;   maxOverhangAngle,45
;   supportAngles,0
;   temperatureName,Primary Extruder
;   temperatureNumber,0
;   temperatureSetpointCount,1
;   temperatureSetpointLayers,1
;   temperatureSetpointTemperatures,0
;   temperatureStabilizeAtStartup,1
;   temperatureHeatedBed,0
;   temperatureRelayBetweenLayers,0
;   temperatureRelayBetweenLoops,0
;   fanLayers,1,2
;   fanSpeeds,0,100
;   blipFanToFullPower,0
;   adjustSpeedForCooling,0
;   minSpeedLayerTime,15
;   minCoolingSpeedSlowdown,20
;   increaseFanForCooling,0
;   minFanLayerTime,45
;   maxCoolingFanSpeed,100
;   increaseFanForBridging,0
;   bridgingFanSpeed,100
;   use5D,1
;   relativeEdistances,0
;   allowEaxisZeroing,1
;   independentExtruderAxes,0
;   includeM10123,0
;   stickySupport,1
;   applyToolheadOffsets,0
;   gcodeXoffset,0
;   gcodeYoffset,0
;   gcodeZoffset,0
;   overrideMachineDefinition,0
;   machineTypeOverride,0
;   strokeXoverride,200
;   strokeYoverride,200
;   strokeZoverride,200
;   originOffsetXoverride,0
;   originOffsetYoverride,0
;   originOffsetZoverride,0
;   homeXdirOverride,-1
;   homeYdirOverride,-1
;   homeZdirOverride,-1
;   flipXoverride,1
;   flipYoverride,-1
;   flipZoverride,1
;   toolheadOffsets,0,0|0,0|0,0|0,0|0,0|0,0
;   overrideFirmwareConfiguration,0
;   firmwareTypeOverride,RepRap (Marlin/Repetier/Sprinter)
;   GPXconfigOverride,r2
;   baudRateOverride,115200
;   overridePrinterModels,0
;   printerModelsOverride
;   startingGcode,##Start
;   layerChangeGcode,#LayerChange
;   retractionGcode,#Retraction
;   toolChangeGcode,
;   endingGcode,##End
;   exportFileFormat,gcode
;   celebration,0
;   celebrationSong,Random Song
;   postProcessing,
;   defaultSpeed,600
;   outlineUnderspeed,1
;   solidInfillUnderspeed,0.8
;   supportUnderspeed,0.8
;   rapidXYspeed,4800
;   rapidZspeed,1000
;   minBridgingArea,40
;   bridgingExtraInflation,1
;   bridgingExtrusionMultiplier,1
;   bridgingSpeedMultiplier,1
;   filamentDiameter,1.75
;   filamentPricePerKg,46
;   filamentDensity,1.25
;   useMinPrintHeight,0
;   minPrintHeight,0
;   useMaxPrintHeight,0
;   maxPrintHeight,0
;   useDiaphragm,0
;   diaphragmLayerInterval,3
;   robustSlicing,0
;   mergeAllIntoSolid,0
;   onlyRetractWhenCrossingOutline,1
;   retractBetweenLayers,0
;   useRetractionMinTravel,0
;   retractionMinTravel,3
;   retractWhileWiping,0
;   onlyWipeOutlines,1
;   avoidCrossingOutline,0
;   maxMovementDetourFactor,3
;   toolChangeRetractionDistance,0
;   toolChangeExtraRestartDistance,0
;   toolChangeRetractionSpeed,600
;   allowThinWallGapFill,1
;   thinWallAllowedOverlapPercentage,50
;   horizontalSizeCompensation,0
G90
M82
M106 S0
M104 S0 T0
##Start
G92 E0
#Retraction
G1 E0.0000 F1800
G1 Z7.500 F1000
; layer 1, Z = 2.5
#LayerChange
T0
; tool H2.500 W2.400
; outer perimeter
G1 X11.300 Y-3.800 F4800
G1 Z2.500 F1000
G1 E0.0000 F540
G92 E0
G1 X11.300 Y3.800 E18.9583 F600
G1 X-11.300 Y3.800 E75.3342
G1 X-11.300 Y-3.800 E94.2925
G1 X11.300 Y-3.800 E150.6684
; infill
G1 X8.302 Y-1.880 F4800
G92 E0
G1 X9.380 Y-0.802 E3.8017 F600
G1 X9.380 Y1.880 E10.4929
G1 X8.668 Y1.880 E12.2683
G1 X4.908 Y-1.880 E25.5328
G1 X1.514 Y-1.880 E33.9994
G1 X5.274 Y1.880 E47.2638
G1 X1.880 Y1.880 E55.7305
G1 X-1.880 Y-1.880 E68.9949
G1 X-5.274 Y-1.880 E77.4615
G1 X-1.514 Y1.880 E90.7260
G1 X-4.908 Y1.880 E99.1926
G1 X-8.668 Y-1.880 E112.4570
G1 X-9.380 Y-1.880 E114.2326
G1 X-9.380 Y0.802 E120.9237
G1 X-8.302 Y1.880 E124.7255
; layer 2, Z = 5
M106 S255
#LayerChange
; outer perimeter
G1 X11.300 Y3.800 F4800
G1 Z5.000 F1000
G92 E0
G1 X-11.300 Y3.800 E56.3759 F600
G1 X-11.300 Y-3.800 E75.3342
G1 X11.300 Y-3.800 E131.7101
G1 X11.300 Y3.800 E150.6684
; infill
G1 X9.380 Y0.802 F4800
G92 E0
G1 X8.302 Y1.880 E3.8016 F600
G1 X4.908 Y1.880 E12.2683
G1 X8.668 Y-1.880 E25.5327
G1 X5.274 Y-1.880 E33.9993
G1 X1.514 Y1.880 E47.2638
G1 X-1.880 Y1.880 E55.7304
G1 X1.880 Y-1.880 E68.9948
G1 X-1.514 Y-1.880 E77.4615
G1 X-5.274 Y1.880 E90.7259
G1 X-8.668 Y1.880 E99.1925
G1 X-4.908 Y-1.880 E112.4569
G1 X-8.302 Y-1.880 E120.9236
G1 X-9.380 Y-0.802 E124.7255
; layer 3, Z = 7.5
#LayerChange
; outer perimeter
G1 X-5.090 Y3.800 F4800
G1 Z7.500 F1000
G92 E0
G1 X-11.300 Y3.800 E15.4903 F600
G1 X-11.300 Y-3.800 E34.4486
G1 X-5.090 Y-3.800 E49.9389
G1 X-5.090 Y3.800 E68.8972
; infill
G1 X-9.380 Y0.802 F4800
G92 E0
G1 X-8.302 Y1.880 E3.8018 F600
G1 X-7.010 Y1.880 E7.0249
G1 X-7.010 Y-0.222 E12.2684
G1 X-8.668 Y-1.880 E18.1174
; outer perimeter
G1 X5.090 Y-3.800 F4800
G92 E0
G1 X11.300 Y-3.800 E15.4903 F600
G1 X11.300 Y3.800 E34.4486
G1 X5.090 Y3.800 E49.9389
G1 X5.090 Y-3.800 E68.8972
; infill
G1 X8.302 Y-1.880 F4800
G92 E0
G1 X9.380 Y-0.802 E3.8017 F600
G1 X9.380 Y1.880 E10.4929
G1 X8.668 Y1.880 E12.2683
G1 X7.010 Y0.222 E18.1174
; layer 4, Z = 10
#LayerChange
; outer perimeter
G1 X11.300 Y3.800 F4800
G1 Z10.000 F1000
G92 E0
G1 X7.510 Y3.800 E9.4549 F600
G1 X7.510 Y-3.800 E28.4131
G1 X11.300 Y-3.800 E37.8680
G1 X11.300 Y3.800 E56.8263
; outer perimeter
G1 X-11.300 Y3.800 F4800
G92 E0
G1 X-11.300 Y-3.800 E18.9583 F600
G1 X-7.510 Y-3.800 E28.4131
G1 X-7.510 Y3.800 E47.3714
G1 X-11.300 Y3.800 E56.8263
; layer 5, Z = 12.5
#LayerChange
; outer perimeter
G1 X-8.512 Y-3.800 F4800
G1 Z12.500 F1000
G92 E0
G1 X-8.512 Y3.800 E18.9583 F600
G1 X-11.300 Y3.800 E25.9133
G1 X-11.300 Y-3.800 E44.8715
G1 X-8.512 Y-3.800 E51.8265
; outer perimeter
G1 X11.300 Y-3.800 F4800
G92 E0
G1 X11.300 Y3.800 E18.9583 F600
G1 X8.512 Y3.800 E25.9133
G1 X8.512 Y-3.800 E44.8715
G1 X11.300 Y-3.800 E51.8265
; layer 6, Z = 15
#LayerChange
; outer perimeter
G1 X8.512 Y-3.800 F4800
G1 Z15.000 F1000
G92 E0
G1 X11.300 Y-3.800 E6.9550 F600
G1 X11.300 Y3.800 E25.9133
G1 X8.512 Y3.800 E32.8683
G1 X8.512 Y-3.800 E51.8265
; outer perimeter
G1 X-8.512 Y3.800 F4800
G92 E0
G1 X-11.300 Y3.800 E6.9550 F600
G1 X-11.300 Y-3.800 E25.9133
G1 X-8.512 Y-3.800 E32.8683
G1 X-8.512 Y3.800 E51.8265
; layer 7, Z = 17.5
#LayerChange
; outer perimeter
G1 X-7.510 Y3.800 F4800
G1 Z17.500 F1000
G92 E0
G1 X-11.300 Y3.800 E9.4549 F600
G1 X-11.300 Y-3.800 E28.4131
G1 X-7.510 Y-3.800 E37.8680
G1 X-7.510 Y3.800 E56.8263
; outer perimeter
G1 X7.510 Y3.800 F4800
G92 E0
G1 X7.510 Y-3.800 E18.9583 F600
G1 X11.300 Y-3.800 E28.4131
G1 X11.300 Y3.800 E47.3714
G1 X7.510 Y3.800 E56.8263
; layer 8, Z = 20
#LayerChange
; outer perimeter
G1 X5.090 Y-3.800 F4800
G1 Z20.000 F1000
G92 E0
G1 X11.300 Y-3.800 E15.4903 F600
G1 X11.300 Y3.800 E34.4486
G1 X5.090 Y3.800 E49.9389
G1 X5.090 Y-3.800 E68.8972
; infill
G1 X7.010 Y-0.222 F4800
G92 E0
G1 X8.668 Y-1.880 E5.8491 F600
G1 X9.380 Y-1.880 E7.6246
G1 X9.380 Y0.802 E14.3158
G1 X8.302 Y1.880 E18.1174
; outer perimeter
G1 X-5.090 Y3.800 F4800
G92 E0
G1 X-11.300 Y3.800 E15.4903 F600
G1 X-11.300 Y-3.800 E34.4486
G1 X-5.090 Y-3.800 E49.9389
G1 X-5.090 Y3.800 E68.8972
; infill
G1 X-8.668 Y1.880 F4800
G92 E0
G1 X-7.010 Y0.222 E5.8489 F600
G1 X-7.010 Y-1.880 E11.0925
G1 X-8.302 Y-1.880 E14.3155
G1 X-9.380 Y-0.802 E18.1174
; layer 9, Z = 22.5
#LayerChange
; outer perimeter
G1 X11.300 Y-3.800 F4800
G1 Z22.500 F1000
G92 E0
G1 X11.300 Y3.800 E18.9583 F600
G1 X-11.300 Y3.800 E75.3342
G1 X-11.300 Y-3.800 E94.2925
G1 X11.300 Y-3.800 E150.6684
; infill
G1 X8.302 Y-1.880 F4800
G92 E0
G1 X9.380 Y-0.802 E3.8017 F600
G1 X9.380 Y1.880 E10.4929
G1 X8.668 Y1.880 E12.2683
G1 X4.908 Y-1.880 E25.5328
G1 X1.514 Y-1.880 E33.9994
G1 X5.274 Y1.880 E47.2638
G1 X1.880 Y1.880 E55.7305
G1 X-1.880 Y-1.880 E68.9949
G1 X-5.274 Y-1.880 E77.4615
G1 X-1.514 Y1.880 E90.7260
G1 X-4.908 Y1.880 E99.1926
G1 X-8.668 Y-1.880 E112.4570
G1 X-9.380 Y-1.880 E114.2326
G1 X-9.380 Y0.802 E120.9237
G1 X-8.302 Y1.880 E124.7255
; layer 10, Z = 25
#LayerChange
; outer perimeter
G1 X-11.300 Y-3.800 F4800
G1 Z25.000 F1000
G92 E0
G1 X11.300 Y-3.800 E56.3759 F600
G1 X11.300 Y3.800 E75.3342
G1 X-11.300 Y3.800 E131.7101
G1 X-11.300 Y-3.800 E150.6684
; infill
G1 X-9.380 Y-0.802 F4800
G92 E0
G1 X-8.302 Y-1.880 E3.8019 F600
G1 X-4.908 Y-1.880 E12.2685
G1 X-8.668 Y1.880 E25.5329
G1 X-5.274 Y1.880 E33.9996
G1 X-1.514 Y-1.880 E47.2640
G1 X1.880 Y-1.880 E55.7306
G1 X-1.880 Y1.880 E68.9951
G1 X1.514 Y1.880 E77.4617
G1 X5.274 Y-1.880 E90.7261
G1 X8.668 Y-1.880 E99.1928
G1 X4.908 Y1.880 E112.4572
G1 X8.302 Y1.880 E120.9238
G1 X9.380 Y0.802 E124.7255
; layer 11, Z = 27.5
#LayerChange
; outer perimeter
G1 X-11.300 Y-4.661 F4800
G1 Z27.500 F1000
G92 E0
G1 X-1.200 Y-4.661 E25.1946 F600
G1 X-1.200 Y4.661 E48.4483
G1 X-11.300 Y4.661 E73.6429
G1 X-11.300 Y-4.661 E96.8967
; infill
G1 X-6.135 Y-2.741 F4800
G92 E0
G1 X-3.120 Y0.274 E10.6365 F600
G1 X-3.120 Y2.741 E16.7902
G1 X-4.047 Y2.741 E19.1032
G1 X-9.380 Y-2.592 E37.9160
G1 X-9.380 Y0.802 E46.3827
G1 X-7.441 Y2.741 E53.2218
; layer 12, Z = 30
#LayerChange
; outer perimeter
G1 X-1.200 Y6.383 F4800
G1 Z30.000 F1000
G92 E0
G1 X-11.300 Y6.383 E25.1946 F600
G1 X-11.300 Y-6.383 E57.0394
G1 X-1.200 Y-6.383 E82.2340
G1 X-1.200 Y6.383 E114.0788
; infill
G1 X-3.120 Y3.120 F4800
G92 E0
G1 X-4.463 Y4.463 E4.7376 F600
G1 X-7.857 Y4.463 E13.2043
G1 X-3.120 Y-0.274 E29.9156
G1 X-3.120 Y-3.668 E38.3822
G1 X-9.380 Y2.592 E60.4661
G1 X-9.380 Y-0.802 E68.9327
G1 X-5.719 Y-4.463 E81.8468
G1 X-9.113 Y-4.463 E90.3134
G1 X-9.380 Y-4.196 E91.2538
; layer 13, Z = 32.5
#LayerChange
; outer perimeter
G1 X-1.200 Y-8.105 F4800
G1 Z32.500 F1000
G92 E0
G1 X-1.200 Y-2.232 E14.6497 F600
G1 X-11.300 Y-2.232 E39.8443
G1 X-11.300 Y-8.105 E54.4940
G1 X-1.200 Y-8.105 E79.6886
; infill
G1 X-6.185 Y-6.185 F4800
G92 E0
G1 X-4.152 Y-4.152 E7.1712 F600
G1 X-7.546 Y-4.152 E15.6379
G1 X-9.380 Y-5.986 E22.1067
; outer perimeter
G1 X-11.300 Y2.232 F4800
G92 E0
G1 X-1.200 Y2.232 E25.1946 F600
G1 X-1.200 Y8.105 E39.8443
G1 X-11.300 Y8.105 E65.0388
G1 X-11.300 Y2.232 E79.6886
; infill
G1 X-9.380 Y4.196 F4800
G92 E0
G1 X-7.391 Y6.185 E7.0152 F600
G1 X-3.997 Y6.185 E15.4818
G1 X-6.030 Y4.152 E22.6530
; layer 14, Z = 35
#LayerChange
; outer perimeter
G1 X-1.200 Y4.731 F4800
G1 Z35.000 F1000
G92 E0
G1 X-1.200 Y9.827 E12.7118 F600
G1 X-11.300 Y9.827 E37.9064
G1 X-11.300 Y4.731 E50.6182
G1 X-1.200 Y4.731 E75.8128
; infill
G1 X-4.513 Y7.907 F4800
G92 E0
G1 X-3.257 Y6.651 E4.4306 F600
G1 X-6.651 Y6.651 E12.8972
G1 X-7.907 Y7.907 E17.3278
; outer perimeter
G1 X-11.300 Y-4.731 F4800
G92 E0
G1 X-11.300 Y-9.827 E12.7118 F600
G1 X-1.200 Y-9.827 E37.9064
G1 X-1.200 Y-4.731 E50.6182
G1 X-11.300 Y-4.731 E75.8128
; infill
G1 X-9.380 Y-7.591 F4800
G92 E0
G1 X-9.064 Y-7.907 E1.1164 F600
G1 X-5.669 Y-7.907 E9.5830
G1 X-6.925 Y-6.651 E14.0136
G1 X-3.531 Y-6.651 E22.4803
G1 X-3.120 Y-7.062 E23.9310
; layer 15, Z = 37.5
#LayerChange
; outer perimeter
G1 X-1.200 Y-7.230 F4800
G1 Z37.500 F1000
G92 E0
G1 X-11.300 Y-7.230 E25.1946 F600
G1 X-11.300 Y-11.549 E35.9685
G1 X-1.200 Y-11.549 E61.1630
G1 X-1.200 Y-7.230 E71.9369
; infill
G1 X-6.235 Y-9.629 F4800
G92 E0
G1 X-5.756 Y-9.150 E1.6900 F600
G1 X-9.150 Y-9.150 E10.1566
G1 X-9.380 Y-9.380 E10.9683
; outer perimeter
G1 X-1.200 Y7.230 F4800
G92 E0
G1 X-1.200 Y11.549 E10.7739 F600
G1 X-11.300 Y11.549 E35.9685
G1 X-11.300 Y7.230 E46.7424
G1 X-1.200 Y7.230 E71.9369
; infill
G1 X-4.427 Y9.150 F4800
G92 E0
G1 X-3.947 Y9.629 E1.6900 F600
G1 X-7.342 Y9.629 E10.1566
G1 X-7.821 Y9.150 E11.8466
; layer 16, Z = 40
#LayerChange
; outer perimeter
G1 X-1.200 Y13.271 F4800
G1 Z40.000 F1000
G92 E0
G1 X-11.300 Y13.271 E25.1946 F600
G1 X-11.300 Y9.729 E34.0305
G1 X-1.200 Y9.729 E59.2251
G1 X-1.200 Y13.271 E68.0611
; outer perimeter
G1 X-1.200 Y-9.729 F4800
G92 E0
G1 X-11.300 Y-9.729 E25.1946 F600
G1 X-11.300 Y-13.271 E34.0305
G1 X-1.200 Y-13.271 E59.2251
G1 X-1.200 Y-9.729 E68.0611
; layer 17, Z = 42.5
#LayerChange
; outer perimeter
G1 X-11.300 Y-12.228 F4800
G1 Z42.500 F1000
G92 E0
G1 X-11.300 Y-14.993 E6.8981 F600
G1 X-1.200 Y-14.993 E32.0926
G1 X-1.200 Y-12.228 E38.9907
G1 X-11.300 Y-12.228 E64.1852
; outer perimeter
G1 X-1.200 Y12.228 F4800
G92 E0
G1 X-1.200 Y14.993 E6.8981 F600
G1 X-11.300 Y14.993 E32.0926
G1 X-11.300 Y12.228 E38.9907
G1 X-1.200 Y12.228 E64.1852
; layer 18, Z = 45
#LayerChange
; outer perimeter
G1 X-11.300 Y16.715 F4800
G1 Z45.000 F1000
G92 E0
G1 X-11.300 Y14.727 E4.9602 F600
G1 X-1.200 Y14.727 E30.1547
G1 X-1.200 Y16.715 E35.1149
G1 X-11.300 Y16.715 E60.3095
; outer perimeter
G1 X-11.300 Y-16.715 F4800
G92 E0
G1 X-1.200 Y-16.715 E25.1946 F600
G1 X-1.200 Y-14.727 E30.1547
G1 X-11.300 Y-14.727 E55.3493
G1 X-11.300 Y-16.715 E60.3095
; layer end
##End
; Build Summary
;   Build time: 0 hours 2 minutes
;   Filament length: 3188.5 mm (3.19 m)
;   Plastic volume: 7669.28 mm^3 (7.67 cc)
;   Plastic weight: 9.59 g (0.02 lb)
;   Material cost: 0.44
