; G-Code generated by Simplify3D(R) Version 3.1.1
; Apr 29, 2019 at 3:54:47 PM
; Settings Summary
;   processName,Gutroff_Olli
;   applyToModels,test_vase2
;   profileName,Default (modified)
;   profileVersion,2015-05-01 08:00:00
;   baseProfile,
;   printMaterial,PLA
;   printQuality,High
;   printExtruders,
;   extruderName,Primary Extruder
;   extruderToolheadNumber,0
;   extruderDiameter,1
;   extruderAutoWidth,0
;   extruderWidth,2.4
;   extrusionMultiplier,1
;   extruderUseRetract,0
;   extruderRetractionDistance,0
;   extruderExtraRestartDistance,0
;   extruderRetractionZLift,5
;   extruderRetractionSpeed,1800
;   extruderUseCoasting,0
;   extruderCoastingDistance,0.2
;   extruderUseWipe,0
;   extruderWipeDistance,5
;   primaryExtruder,0
;   layerHeight,2.5
;   topSolidLayers,0
;   bottomSolidLayers,0
;   perimeterOutlines,1
;   printPerimetersInsideOut,0
;   startPointOption,1
;   startPointOriginX,0
;   startPointOriginY,0
;   startPointOriginZ,300
;   sequentialIslands,0
;   spiralVaseMode,0
;   firstLayerHeightPercentage,100
;   firstLayerWidthPercentage,100
;   firstLayerUnderspeed,1
;   useRaft,0
;   raftExtruder,0
;   raftLayers,3
;   raftOffset,3
;   raftSeparationDistance,0.14
;   raftInfill,85
;   disableRaftBaseLayers,0
;   useSkirt,0
;   skirtExtruder,0
;   skirtLayers,2
;   skirtOutlines,2
;   skirtOffset,4
;   usePrimePillar,0
;   primePillarExtruder,999
;   primePillarWidth,12
;   primePillarLocation,7
;   primePillarSpeedMultiplier,1
;   useOozeShield,0
;   oozeShieldExtruder,999
;   oozeShieldOffset,2
;   oozeShieldOutlines,1
;   oozeShieldSidewallShape,1
;   oozeShieldSidewallAngle,30
;   oozeShieldSpeedMultiplier,1
;   infillExtruder,0
;   internalInfillPattern,Rectilinear
;   externalInfillPattern,Rectilinear
;   infillPercentage,0
;   outlineOverlapPercentage,99
;   infillExtrusionWidthPercentage,100
;   minInfillLength,4
;   infillLayerInterval,1
;   infillAngles,45,-45
;   overlapInfillAngles,0
;   generateSupport,0
;   supportExtruder,0
;   supportInfillPercentage,40
;   supportExtraInflation,0
;   denseSupportLayers,0
;   denseSupportInfillPercentage,70
;   supportLayerInterval,1
;   supportHorizontalPartOffset,0.3
;   supportUpperSeparationLayers,1
;   supportLowerSeparationLayers,1
;   supportType,0
;   supportGridSpacing,4
;   maxOverhangAngle,45
;   supportAngles,0
;   temperatureName,Primary Extruder
;   temperatureNumber,0
;   temperatureSetpointCount,1
;   temperatureSetpointLayers,1
;   temperatureSetpointTemperatures,0
;   temperatureStabilizeAtStartup,1
;   temperatureHeatedBed,0
;   temperatureRelayBetweenLayers,0
;   temperatureRelayBetweenLoops,0
;   fanLayers,1,2
;   fanSpeeds,0,100
;   blipFanToFullPower,0
;   adjustSpeedForCooling,0
;   minSpeedLayerTime,15
;   minCoolingSpeedSlowdown,20
;   increaseFanForCooling,0
;   minFanLayerTime,45
;   maxCoolingFanSpeed,100
;   increaseFanForBridging,0
;   bridgingFanSpeed,100
;   use5D,1
;   relativeEdistances,0
;   allowEaxisZeroing,1
;   independentExtruderAxes,0
;   includeM10123,0
;   stickySupport,1
;   applyToolheadOffsets,0
;   gcodeXoffset,0
;   gcodeYoffset,0
;   gcodeZoffset,0
;   overrideMachineDefinition,0
;   machineTypeOverride,0
;   strokeXoverride,200
;   strokeYoverride,200
;   strokeZoverride,200
;   originOffsetXoverride,0
;   originOffsetYoverride,0
;   originOffsetZoverride,0
;   homeXdirOverride,-1
;   homeYdirOverride,-1
;   homeZdirOverride,-1
;   flipXoverride,1
;   flipYoverride,-1
;   flipZoverride,1
;   toolheadOffsets,0,0|0,0|0,0|0,0|0,0|0,0
;   overrideFirmwareConfiguration,0
;   firmwareTypeOverride,RepRap (Marlin/Repetier/Sprinter)
;   GPXconfigOverride,r2
;   baudRateOverride,115200
;   overridePrinterModels,0
;   printerModelsOverride
;   startingGcode,##Start
;   layerChangeGcode,#LayerChange
;   retractionGcode,#Retraction
;   toolChangeGcode,
;   endingGcode,##End
;   exportFileFormat,gcode
;   celebration,0
;   celebrationSong,Random Song
;   postProcessing,
;   defaultSpeed,600
;   outlineUnderspeed,1
;   solidInfillUnderspeed,0.8
;   supportUnderspeed,0.8
;   rapidXYspeed,4800
;   rapidZspeed,1000
;   minBridgingArea,40
;   bridgingExtraInflation,1
;   bridgingExtrusionMultiplier,1
;   bridgingSpeedMultiplier,1
;   filamentDiameter,1.75
;   filamentPricePerKg,46
;   filamentDensity,1.25
;   useMinPrintHeight,0
;   minPrintHeight,0
;   useMaxPrintHeight,0
;   maxPrintHeight,0
;   useDiaphragm,0
;   diaphragmLayerInterval,3
;   robustSlicing,0
;   mergeAllIntoSolid,0
;   onlyRetractWhenCrossingOutline,1
;   retractBetweenLayers,0
;   useRetractionMinTravel,0
;   retractionMinTravel,3
;   retractWhileWiping,0
;   onlyWipeOutlines,1
;   avoidCrossingOutline,0
;   maxMovementDetourFactor,3
;   toolChangeRetractionDistance,0
;   toolChangeExtraRestartDistance,0
;   toolChangeRetractionSpeed,600
;   allowThinWallGapFill,1
;   thinWallAllowedOverlapPercentage,50
;   horizontalSizeCompensation,0
G90
M82
M106 S0
M104 S0 T0
##Start
G92 E0
#Retraction
G1 E0.0000 F1800
G1 Z7.500 F1000
; layer 1, Z = 2.5
#LayerChange
T0
; tool H2.500 W2.400
; outer perimeter
G1 X-18.425 Y8.672 F4800
G1 Z2.500 F1000
G1 E0.0000 F540
G92 E0
G1 X-18.425 Y8.503 E0.4220 F600
G1 X-17.872 Y1.972 E16.7718
G1 X-17.847 Y1.851 E17.0785
G1 X-14.961 Y-4.031 E33.4236
G1 X-14.862 Y-4.254 E34.0308
G1 X-14.804 Y-4.335 E34.2801
G1 X-9.816 Y-8.915 E51.1719
G1 X-9.709 Y-8.977 E51.4799
G1 X-3.603 Y-11.357 E67.8282
G1 X-3.426 Y-11.415 E68.2926
G1 X-3.269 Y-11.431 E68.6860
G1 X3.286 Y-11.432 E85.0371
G1 X3.408 Y-11.419 E85.3435
G1 X9.514 Y-9.040 E101.6899
G1 X9.756 Y-8.962 E102.3257
G1 X9.833 Y-8.917 E102.5476
G1 X14.822 Y-4.339 E119.4393
G1 X14.895 Y-4.239 E119.7461
G1 X17.782 Y1.644 E136.0922
G1 X17.862 Y1.824 E136.5854
G1 X17.892 Y1.967 E136.9503
G1 X18.447 Y8.498 E153.3007
G1 X18.446 Y8.621 E153.6068
G1 X16.592 Y14.907 E169.9542
G1 X16.536 Y15.167 E170.6187
G1 X16.504 Y15.238 E170.8130
G1 X12.368 Y20.600 E187.7060
G1 X12.341 Y20.625 E187.7969
G1 X-12.319 Y20.624 E249.3114
G1 X-12.347 Y20.600 E249.4043
G1 X-16.355 Y15.419 E265.7432
G1 X-16.475 Y15.255 E266.2499
G1 X-16.532 Y15.127 E266.6005
G1 X-18.388 Y8.843 E282.9456
G1 X-18.425 Y8.672 E283.3816
; layer 2, Z = 5
M106 S255
#LayerChange
; outer perimeter
G1 X12.671 Y19.049 F4800
G1 Z5.000 F1000
G92 E0
G1 X12.122 Y19.802 E2.3236 F600
G1 X11.480 Y20.378 E4.4739
G1 X11.152 Y20.625 E5.4979
G1 X-11.131 Y20.624 E61.0838
G1 X-11.459 Y20.378 E62.1071
G1 X-12.113 Y19.791 E64.3009
G1 X-15.205 Y15.795 E76.9032
G1 X-15.734 Y15.070 E79.1410
G1 X-16.074 Y14.309 E81.2218
G1 X-17.505 Y9.461 E93.8301
G1 X-17.687 Y8.612 E95.9960
G1 X-17.688 Y7.749 E98.1484
G1 X-17.262 Y2.712 E110.7599
G1 X-17.093 Y1.912 E112.7972
G1 X-14.867 Y-2.625 E125.4048
G1 X-14.487 Y-3.482 E127.7425
G1 X-14.021 Y-4.124 E129.7204
G1 X-9.621 Y-8.154 E144.6061
G1 X-8.913 Y-8.564 E146.6463
G1 X-4.203 Y-10.400 E159.2565
G1 X-3.366 Y-10.672 E161.4516
G1 X-2.519 Y-10.761 E163.5753
G1 X2.537 Y-10.762 E176.1879
G1 X3.349 Y-10.676 E178.2249
G1 X8.059 Y-8.842 E190.8335
G1 X8.961 Y-8.548 E193.1998
G1 X9.639 Y-8.157 E195.1535
G1 X14.040 Y-4.127 E210.0393
G1 X14.519 Y-3.466 E212.0747
G1 X16.746 Y1.071 E224.6835
G1 X17.108 Y1.886 E226.9070
G1 X17.282 Y2.708 E229.0021
G1 X17.710 Y7.746 E241.6144
G1 X17.709 Y8.562 E243.6508
G1 X16.278 Y13.410 E256.2601
G1 X16.077 Y14.349 E258.6550
G1 X15.763 Y15.053 E260.5773
G1 X12.671 Y19.049 E273.1832
; layer 3, Z = 7.5
#LayerChange
; outer perimeter
G1 X12.061 Y-4.992 F4800
G1 Z7.500 F1000
G92 E0
G1 X13.260 Y-3.911 E4.0253 F600
G1 X14.144 Y-2.693 E7.7792
G1 X15.711 Y0.499 E16.6507
G1 X16.354 Y1.948 E20.6045
G1 X16.672 Y3.448 E24.4300
G1 X16.973 Y6.993 E33.3039
G1 X16.971 Y8.503 E37.0707
G1 X15.965 Y11.914 E45.9418
G1 X15.619 Y13.531 E50.0671
G1 X15.021 Y14.868 E53.7197
G1 X12.846 Y17.680 E62.5888
G1 X11.889 Y18.993 E66.6426
G1 X10.731 Y20.032 E70.5235
G1 X9.942 Y20.624 E72.9830
G1 X-9.921 Y20.624 E122.5334
G1 X-10.709 Y20.032 E124.9918
G1 X-11.880 Y18.982 E128.9158
G1 X-14.055 Y16.170 E137.7830
G1 X-14.992 Y14.885 E141.7505
G1 X-15.615 Y13.490 E145.5614
G1 X-16.623 Y10.080 E154.4329
G1 X-16.949 Y8.552 E158.3288
G1 X-16.951 Y6.996 E162.2116
G1 X-16.651 Y3.451 E171.0851
G1 X-16.339 Y1.974 E174.8528
G1 X-14.773 Y-1.219 E183.7230
G1 X-14.111 Y-2.709 E187.7910
G1 X-13.237 Y-3.914 E191.5018
G1 X-10.620 Y-6.319 E200.3698
G1 X-9.429 Y-7.392 E204.3673
G1 X-8.116 Y-8.151 E208.1501
G1 X-4.803 Y-9.443 E217.0224
G1 X-3.306 Y-9.930 E220.9479
G1 X-1.770 Y-10.091 E224.8020
G1 X1.788 Y-10.092 E233.6764
G1 X3.290 Y-9.934 E237.4435
G1 X6.603 Y-8.643 E246.3144
G1 X8.165 Y-8.135 E250.4110
G1 X9.443 Y-7.397 E254.0929
G1 X12.061 Y-4.992 E262.9613
; layer 4, Z = 10
#LayerChange
; outer perimeter
G1 X3.231 Y-9.191 F4800
G1 Z10.000 F1000
G92 E0
G1 X5.148 Y-8.444 E5.1330 F600
G1 X7.370 Y-7.722 E10.9599
G1 X9.248 Y-6.636 E16.3723
G1 X10.763 Y-5.245 E21.5042
G1 X12.477 Y-3.700 E27.2599
G1 X13.768 Y-1.921 E32.7441
G1 X14.675 Y-0.073 E37.8783
G1 X15.600 Y2.010 E43.5625
G1 X16.062 Y4.188 E49.1183
G1 X16.236 Y6.240 E54.2539
G1 X16.233 Y8.444 E59.7510
G1 X15.651 Y10.417 E64.8840
G1 X15.160 Y12.713 E70.7396
G1 X14.280 Y14.683 E76.1226
G1 X13.021 Y16.310 E81.2549
G1 X11.655 Y18.184 E87.0392
G1 X9.981 Y19.686 E92.6501
G1 X9.213 Y20.264 E95.0466
G1 X8.585 Y20.624 E96.8531
G1 X-8.563 Y20.624 E139.6300
G1 X-9.194 Y20.262 E141.4455
G1 X-9.959 Y19.687 E143.8332
G1 X-11.646 Y18.173 E149.4871
G1 X-12.905 Y16.546 E154.6194
G1 X-14.251 Y14.700 E160.3165
G1 X-15.157 Y12.672 E165.8576
G1 X-15.740 Y10.698 E170.9918
G1 X-16.212 Y8.492 E176.6184
G1 X-16.214 Y6.242 E182.2314
G1 X-16.041 Y4.191 E187.3668
G1 X-15.585 Y2.035 E192.8648
G1 X-14.678 Y0.187 E197.9977
G1 X-13.735 Y-1.937 E203.7960
G1 X-12.454 Y-3.703 E209.2373
G1 X-10.939 Y-5.095 E214.3689
G1 X-9.234 Y-6.632 E220.0967
G1 X-7.320 Y-7.738 E225.6099
G1 X-5.402 Y-8.486 E230.7446
G1 X-3.246 Y-9.187 E236.4003
G1 X-1.020 Y-9.421 E241.9848
G1 X1.039 Y-9.421 E247.1209
G1 X3.231 Y-9.191 E252.6184
; layer 5, Z = 12.5
#LayerChange
; outer perimeter
G1 X-13.509 Y14.515 F4800
G1 Z12.500 F1000
G92 E0
G1 X-14.698 Y11.854 E7.2713 F600
G1 X-14.857 Y11.317 E8.6682
G1 X-15.474 Y8.433 E16.0252
G1 X-15.477 Y5.489 E23.3684
G1 X-15.430 Y4.931 E24.7659
G1 X-14.830 Y2.096 E31.9943
G1 X-14.584 Y1.593 E33.3898
G1 X-13.359 Y-1.165 E40.9185
G1 X-11.674 Y-3.488 E48.0780
G1 X-9.037 Y-5.873 E56.9458
G1 X-6.524 Y-7.325 E64.1867
G1 X-6.002 Y-7.529 E65.5837
G1 X-3.187 Y-8.444 E72.9697
G1 X-0.270 Y-8.751 E80.2846
G1 X0.290 Y-8.751 E81.6824
G1 X3.172 Y-8.448 E88.9102
G1 X3.693 Y-8.245 E90.3055
G1 X6.574 Y-7.309 E97.8627
G1 X9.057 Y-5.874 E105.0172
G1 X11.694 Y-3.489 E113.8847
G1 X13.393 Y-1.148 E121.1019
G1 X13.640 Y-0.645 E122.4986
G1 X14.847 Y2.071 E129.9133
G1 X15.451 Y4.929 E137.1993
G1 X15.499 Y5.487 E138.5968
G1 X15.496 Y8.384 E145.8242
G1 X15.337 Y8.921 E147.2190
G1 X14.702 Y11.895 E154.8050
G1 X13.538 Y14.498 E161.9183
G1 X13.196 Y14.940 E163.3137
G1 X11.422 Y17.375 E170.8283
G1 X9.231 Y19.341 E178.1695
G1 X9.059 Y19.470 E178.7067
G1 X7.051 Y20.624 E184.4845
G1 X-7.030 Y20.624 E219.6094
G1 X-9.038 Y19.470 E225.3890
G1 X-9.209 Y19.341 E225.9233
G1 X-11.413 Y17.364 E233.3076
G1 X-11.755 Y16.921 E234.7038
G1 X-13.509 Y14.515 E242.1316
; layer 6, Z = 15
#LayerChange
; outer perimeter
G1 X-7.074 Y-7.899 F4800
G1 Z15.000 F1000
G92 E0
G1 X-6.303 Y-8.278 E2.1429 F600
G1 X-3.797 Y-9.093 E8.7182
G1 X-1.059 Y-9.381 E15.5853
G1 X0.043 Y-9.556 E18.3694
G1 X2.565 Y-9.291 E24.6933
G1 X3.791 Y-9.102 E27.7893
G1 X6.326 Y-8.277 E34.4386
G1 X7.095 Y-7.900 E36.5744
G1 X9.623 Y-6.439 E43.8598
G1 X9.885 Y-6.219 E44.7128
G1 X12.094 Y-4.228 E52.1301
G1 X12.293 Y-3.999 E52.8877
G1 X14.039 Y-1.593 E60.3029
G1 X14.225 Y-1.296 E61.1783
G1 X15.560 Y1.721 E69.4076
G1 X15.650 Y2.073 E70.3127
G1 X16.265 Y4.982 E77.7302
G1 X16.292 Y5.264 E78.4374
G1 X16.289 Y8.237 E85.8527
G1 X16.265 Y8.608 E86.7803
G1 X15.644 Y11.516 E94.1981
G1 X15.579 Y11.810 E94.9501
G1 X15.438 Y12.169 E95.9119
G1 X14.225 Y14.884 E103.3301
G1 X14.092 Y15.112 E103.9875
G1 X12.360 Y17.488 E111.3210
G1 X11.752 Y18.155 E113.5736
G1 X10.094 Y19.644 E119.1318
G1 X8.388 Y20.625 E124.0411
G1 X-8.365 Y20.624 E165.8320
G1 X-10.073 Y19.643 E170.7462
G1 X-11.733 Y18.153 E176.3088
G1 X-12.338 Y17.489 E178.5517
G1 X-14.071 Y15.112 E185.8879
G1 X-14.198 Y14.895 E186.5162
G1 X-15.412 Y12.180 E193.9340
G1 X-15.556 Y11.813 E194.9165
G1 X-16.242 Y8.619 E203.0661
G1 X-16.267 Y8.237 E204.0216
G1 X-16.270 Y5.265 E211.4367
G1 X-16.246 Y4.994 E212.1146
G1 X-15.630 Y2.085 E219.5326
G1 X-15.539 Y1.721 E220.4670
G1 X-14.209 Y-1.285 E228.6669
G1 X-14.017 Y-1.593 E229.5715
G1 X-12.272 Y-3.999 E236.9867
G1 X-12.081 Y-4.219 E237.7147
G1 X-9.872 Y-6.210 E245.1322
G1 X-9.602 Y-6.439 E246.0147
G1 X-7.074 Y-7.899 E253.2964
; layer 7, Z = 17.5
#LayerChange
; outer perimeter
G1 X-16.141 Y15.650 F4800
G1 Z17.500 F1000
G92 E0
G1 X-17.073 Y13.563 E5.7030 F600
G1 X-17.570 Y12.304 E9.0792
G1 X-18.268 Y9.083 E17.2988
G1 X-18.353 Y7.764 E20.5961
G1 X-18.356 Y5.479 E26.2974
G1 X-18.263 Y4.478 E28.8052
G1 X-17.790 Y2.240 E34.5098
G1 X-17.474 Y0.985 E37.7393
G1 X-16.546 Y-1.104 E43.4403
G1 X-16.124 Y-2.093 E46.1236
G1 X-15.458 Y-3.160 E49.2606
G1 X-14.116 Y-5.010 E54.9619
G1 X-13.420 Y-5.813 E57.6121
G1 X-11.721 Y-7.344 E63.3162
G1 X-10.776 Y-8.143 E66.4045
G1 X-8.843 Y-9.260 E71.9725
G1 X-6.441 Y-10.439 E78.6472
G1 X-4.972 Y-10.916 E82.5001
G1 X-3.320 Y-11.090 E86.6447
G1 X0.046 Y-11.625 E95.1466
G1 X1.253 Y-11.498 E98.1752
G1 X4.972 Y-10.923 E107.5606
G1 X6.469 Y-10.436 E111.4893
G1 X8.864 Y-9.260 E118.1445
G1 X10.798 Y-8.143 E123.7155
G1 X11.719 Y-7.367 E126.7210
G1 X13.418 Y-5.836 E132.4246
G1 X14.137 Y-5.010 E135.1579
G1 X15.480 Y-3.160 E140.8593
G1 X16.135 Y-2.115 E143.9357
G1 X17.063 Y-0.026 E149.6385
G1 X17.493 Y0.977 E152.3618
G1 X17.806 Y2.208 E155.5281
G1 X18.279 Y4.445 E161.2319
G1 X18.377 Y5.479 E163.8233
G1 X18.374 Y7.765 E169.5248
G1 X18.294 Y9.052 E172.7425
G1 X17.816 Y11.288 E178.4456
G1 X17.592 Y12.302 E181.0364
G1 X17.110 Y13.533 E184.3345
G1 X16.177 Y15.621 E190.0387
G1 X15.682 Y16.469 E192.4882
G1 X14.355 Y18.289 E198.1081
G1 X12.468 Y20.359 E205.0939
G1 X12.216 Y20.585 E205.9390
G1 X12.148 Y20.625 E206.1352
G1 X-12.124 Y20.624 E266.6829
G1 X-12.198 Y20.582 E266.8947
G1 X-12.455 Y20.352 E267.7551
G1 X-14.333 Y18.290 E274.7126
G1 X-15.661 Y16.468 E280.3357
G1 X-16.141 Y15.650 E282.7019
; layer 8, Z = 20
#LayerChange
; outer perimeter
G1 X16.349 Y19.091 F4800
G1 Z20.000 F1000
G92 E0
G1 X14.951 Y20.625 E5.1771 F600
G1 X-14.931 Y20.624 E79.7180
G1 X-16.328 Y19.091 E84.8922
G1 X-17.251 Y17.825 E88.8014
G1 X-18.083 Y16.406 E92.9053
G1 X-18.736 Y14.945 E96.8954
G1 X-19.584 Y12.794 E102.6637
G1 X-20.293 Y9.547 E110.9535
G1 X-20.439 Y7.291 E116.5926
G1 X-20.441 Y5.693 E120.5800
G1 X-20.281 Y3.961 E124.9177
G1 X-19.950 Y2.396 E128.9081
G1 X-19.409 Y0.247 E134.4364
G1 X-18.760 Y-1.213 E138.4234
G1 X-18.043 Y-2.894 E142.9826
G1 X-16.899 Y-4.727 E148.3720
G1 X-15.960 Y-6.021 E152.3593
G1 X-14.759 Y-7.406 E156.9318
G1 X-13.571 Y-8.477 E160.9213
G1 X-11.950 Y-9.847 E166.2164
G1 X-10.612 Y-10.620 E170.0705
G1 X-6.579 Y-12.599 E181.2772
G1 X-6.148 Y-12.740 E182.4076
G1 X-5.581 Y-12.799 E183.8298
G1 X0.019 Y-13.690 E197.9761
G1 X6.152 Y-12.745 E213.4552
G1 X6.613 Y-12.595 E214.6626
G1 X10.633 Y-10.620 E225.8367
G1 X11.972 Y-9.847 E229.6939
G1 X13.554 Y-8.515 E234.8517
G1 X14.742 Y-7.445 E238.8413
G1 X15.982 Y-6.021 E243.5510
G1 X16.921 Y-4.727 E247.5385
G1 X18.044 Y-2.935 E252.8129
G1 X18.693 Y-1.474 E256.8016
G1 X19.428 Y0.240 E261.4554
G1 X19.962 Y2.342 E266.8658
G1 X20.294 Y3.907 E270.8558
G1 X20.462 Y5.694 E275.3312
G1 X20.460 Y7.292 E279.3188
G1 X20.323 Y9.496 E284.8269
G1 X19.988 Y11.060 E288.8161
G1 X19.606 Y12.793 E293.2449
G1 X18.781 Y14.896 E298.8797
G1 X18.129 Y16.357 E302.8694
G1 X17.272 Y17.825 E307.1110
G1 X16.349 Y19.091 E311.0170
; layer 9, Z = 22.5
#LayerChange
; outer perimeter
G1 X21.619 Y13.285 F4800
G1 Z22.500 F1000
G92 E0
G1 X20.453 Y16.260 E7.9706 F600
G1 X20.081 Y17.093 E10.2471
G1 X18.861 Y19.182 E16.2805
G1 X18.344 Y19.892 E18.4727
G1 X17.676 Y20.625 E20.9449
G1 X-17.655 Y20.624 E109.0793
