; G-Code generated by Simplify3D(R) Version 3.1.1
; Apr 29, 2019 at 1:46:11 PM
; Settings Summary
;   processName,Gutroff_Olli
;   applyToModels,IMPELLER_KOMPLEX
;   profileName,Default (modified)
;   profileVersion,2015-05-01 08:00:00
;   baseProfile,
;   printMaterial,PLA
;   printQuality,High
;   printExtruders,
;   extruderName,Primary Extruder
;   extruderToolheadNumber,0
;   extruderDiameter,1
;   extruderAutoWidth,0
;   extruderWidth,1
;   extrusionMultiplier,1
;   extruderUseRetract,0
;   extruderRetractionDistance,0
;   extruderExtraRestartDistance,0
;   extruderRetractionZLift,5
;   extruderRetractionSpeed,1800
;   extruderUseCoasting,0
;   extruderCoastingDistance,0.2
;   extruderUseWipe,0
;   extruderWipeDistance,5
;   primaryExtruder,0
;   layerHeight,2.5
;   topSolidLayers,0
;   bottomSolidLayers,0
;   perimeterOutlines,1
;   printPerimetersInsideOut,0
;   startPointOption,1
;   startPointOriginX,0
;   startPointOriginY,0
;   startPointOriginZ,300
;   sequentialIslands,0
;   spiralVaseMode,0
;   firstLayerHeightPercentage,100
;   firstLayerWidthPercentage,100
;   firstLayerUnderspeed,1
;   useRaft,0
;   raftExtruder,0
;   raftLayers,3
;   raftOffset,3
;   raftSeparationDistance,0.14
;   raftInfill,85
;   disableRaftBaseLayers,0
;   useSkirt,0
;   skirtExtruder,0
;   skirtLayers,2
;   skirtOutlines,2
;   skirtOffset,4
;   usePrimePillar,0
;   primePillarExtruder,999
;   primePillarWidth,12
;   primePillarLocation,7
;   primePillarSpeedMultiplier,1
;   useOozeShield,0
;   oozeShieldExtruder,999
;   oozeShieldOffset,2
;   oozeShieldOutlines,1
;   oozeShieldSidewallShape,1
;   oozeShieldSidewallAngle,30
;   oozeShieldSpeedMultiplier,1
;   infillExtruder,0
;   internalInfillPattern,Rectilinear
;   externalInfillPattern,Rectilinear
;   infillPercentage,0
;   outlineOverlapPercentage,20
;   infillExtrusionWidthPercentage,100
;   minInfillLength,4
;   infillLayerInterval,1
;   infillAngles,45,-45
;   overlapInfillAngles,0
;   generateSupport,0
;   supportExtruder,0
;   supportInfillPercentage,40
;   supportExtraInflation,0
;   denseSupportLayers,0
;   denseSupportInfillPercentage,70
;   supportLayerInterval,1
;   supportHorizontalPartOffset,0.3
;   supportUpperSeparationLayers,1
;   supportLowerSeparationLayers,1
;   supportType,0
;   supportGridSpacing,4
;   maxOverhangAngle,45
;   supportAngles,0
;   temperatureName,Primary Extruder
;   temperatureNumber,0
;   temperatureSetpointCount,1
;   temperatureSetpointLayers,1
;   temperatureSetpointTemperatures,0
;   temperatureStabilizeAtStartup,1
;   temperatureHeatedBed,0
;   temperatureRelayBetweenLayers,0
;   temperatureRelayBetweenLoops,0
;   fanLayers,1,2
;   fanSpeeds,0,100
;   blipFanToFullPower,0
;   adjustSpeedForCooling,0
;   minSpeedLayerTime,15
;   minCoolingSpeedSlowdown,20
;   increaseFanForCooling,0
;   minFanLayerTime,45
;   maxCoolingFanSpeed,100
;   increaseFanForBridging,0
;   bridgingFanSpeed,100
;   use5D,1
;   relativeEdistances,0
;   allowEaxisZeroing,1
;   independentExtruderAxes,0
;   includeM10123,0
;   stickySupport,1
;   applyToolheadOffsets,0
;   gcodeXoffset,0
;   gcodeYoffset,0
;   gcodeZoffset,0
;   overrideMachineDefinition,0
;   machineTypeOverride,0
;   strokeXoverride,200
;   strokeYoverride,200
;   strokeZoverride,200
;   originOffsetXoverride,0
;   originOffsetYoverride,0
;   originOffsetZoverride,0
;   homeXdirOverride,-1
;   homeYdirOverride,-1
;   homeZdirOverride,-1
;   flipXoverride,1
;   flipYoverride,-1
;   flipZoverride,1
;   toolheadOffsets,0,0|0,0|0,0|0,0|0,0|0,0
;   overrideFirmwareConfiguration,0
;   firmwareTypeOverride,RepRap (Marlin/Repetier/Sprinter)
;   GPXconfigOverride,r2
;   baudRateOverride,115200
;   overridePrinterModels,0
;   printerModelsOverride
;   startingGcode,##Start
;   layerChangeGcode,#LayerChange
;   retractionGcode,#Retraction
;   toolChangeGcode,
;   endingGcode,##End
;   exportFileFormat,gcode
;   celebration,0
;   celebrationSong,Random Song
;   postProcessing,
;   defaultSpeed,600
;   outlineUnderspeed,1
;   solidInfillUnderspeed,0.8
;   supportUnderspeed,0.8
;   rapidXYspeed,4800
;   rapidZspeed,1000
;   minBridgingArea,40
;   bridgingExtraInflation,1
;   bridgingExtrusionMultiplier,1
;   bridgingSpeedMultiplier,1
;   filamentDiameter,1.75
;   filamentPricePerKg,46
;   filamentDensity,1.25
;   useMinPrintHeight,0
;   minPrintHeight,0
;   useMaxPrintHeight,0
;   maxPrintHeight,0
;   useDiaphragm,0
;   diaphragmLayerInterval,3
;   robustSlicing,0
;   mergeAllIntoSolid,0
;   onlyRetractWhenCrossingOutline,1
;   retractBetweenLayers,0
;   useRetractionMinTravel,0
;   retractionMinTravel,3
;   retractWhileWiping,0
;   onlyWipeOutlines,1
;   avoidCrossingOutline,0
;   maxMovementDetourFactor,3
;   toolChangeRetractionDistance,0
;   toolChangeExtraRestartDistance,0
;   toolChangeRetractionSpeed,600
;   allowThinWallGapFill,1
;   thinWallAllowedOverlapPercentage,50
;   horizontalSizeCompensation,0
G90
M82
M106 S0
M104 S0 T0
##Start
G92 E0
#Retraction
G1 E0.0000 F1800
G1 Z7.500 F1000
; layer 1, Z = 2.5
#LayerChange
T0
; tool H2.500 W1.000
; outer perimeter
G1 X-3.379 Y-39.142 F4800
G1 Z2.500 F1000
G1 E0.0000 F540
G92 E0
G1 X-0.351 Y-39.494 E3.1677 F600
G1 X2.703 Y-39.273 E6.3502
G1 X8.713 Y-38.482 E12.6508
G1 X9.382 Y-38.355 E13.3592
G1 X12.314 Y-37.437 E16.5526
G1 X17.899 Y-35.124 E22.8357
G1 X20.596 Y-33.682 E26.0143
G1 X25.405 Y-29.992 E32.3148
G1 X25.987 Y-29.588 E33.0503
G1 X28.273 Y-27.575 E36.2164
G1 X31.952 Y-22.780 E42.4982
G1 X33.852 Y-20.336 E45.7165
G1 X34.193 Y-19.774 E46.3999
G1 X36.514 Y-14.172 E52.7017
G1 X37.799 Y-11.367 E55.9091
G1 X38.530 Y-8.407 E59.0781
G1 X39.370 Y-2.047 E65.7458
G1 X39.478 Y-0.843 E67.0016
G1 X39.499 Y-0.026 E67.8513
G1 X38.707 Y5.989 E74.1575
G1 X38.556 Y8.220 E76.4814
G1 X38.118 Y10.348 E78.7394
G1 X35.795 Y15.955 E85.0479
G1 X35.587 Y16.645 E85.7971
G1 X34.378 Y19.443 E88.9649
G1 X32.660 Y21.978 E92.1474
G1 X28.970 Y26.787 E98.4481
G1 X28.525 Y27.303 E99.1564
G1 X26.264 Y29.384 E102.3497
G1 X21.469 Y33.063 E108.6316
G1 X18.872 Y34.677 E111.8102
G1 X13.271 Y36.998 E118.1120
G1 X12.631 Y37.299 E118.8475
G1 X9.744 Y38.272 E122.0136
G1 X3.752 Y39.061 E128.2954
G1 X0.685 Y39.485 E131.5137
G1 X0.027 Y39.499 E132.1970
G1 X-5.983 Y38.708 E138.4976
G1 X-9.055 Y38.419 E141.7050
G1 X-11.984 Y37.572 E144.8740
G1 X-17.919 Y35.116 E151.5497
G1 X-18.223 Y34.984 E151.8950
G1 X-20.892 Y33.482 E155.0775
G1 X-25.687 Y29.803 E161.3595
G1 X-28.025 Y27.832 E164.5378
G1 X-31.715 Y23.023 E170.8383
G1 X-32.211 Y22.495 E171.5907
G1 X-33.822 Y20.383 E174.3522
G1 X-34.018 Y20.070 E174.7358
G1 X-35.363 Y17.297 E177.9396
G1 X-37.683 Y11.695 E184.2415
G1 X-37.912 Y11.038 E184.9648
G1 X-38.231 Y9.920 E186.1734
G1 X-39.024 Y3.901 E192.4835
G1 X-39.299 Y2.538 E193.9283
G1 X-39.497 Y0.013 E196.5607
G1 X-38.706 Y-5.998 E202.8627
G1 X-38.674 Y-7.030 E203.9360
G1 X-38.618 Y-7.711 E204.6454
G1 X-38.017 Y-10.697 E207.8114
G1 X-35.704 Y-16.282 E214.0944
G1 X-34.537 Y-19.150 E217.3128
G1 X-34.221 Y-19.726 E217.9961
G1 X-30.531 Y-24.535 E224.2967
G1 X-28.744 Y-27.052 E227.5041
G1 X-26.546 Y-29.165 E230.6731
G1 X-21.453 Y-33.075 E237.3472
G1 X-21.186 Y-33.274 E237.6928
G1 X-18.551 Y-34.833 E240.8754
G1 X-12.966 Y-37.147 E247.1584
G1 X-10.090 Y-38.186 E250.3370
G1 X-4.080 Y-38.977 E256.6374
G1 X-3.379 Y-39.142 E257.3866
; outer perimeter
G1 X-1.214 Y-3.733 F4800
G92 E0
G1 X-3.176 Y-2.308 E2.5205 F600
G1 X-3.926 Y0.000 E5.0425
G1 X-3.176 Y2.308 E7.5646
G1 X-1.214 Y3.733 E10.0851
G1 X1.214 Y3.733 E12.6084
G1 X3.176 Y2.308 E15.1289
G1 X3.926 Y0.000 E17.6510
G1 X3.176 Y-2.308 E20.1731
G1 X1.214 Y-3.733 E22.6935
G1 X-1.214 Y-3.733 E25.2168
; layer 2, Z = 5
M106 S255
#LayerChange
; outer perimeter
G1 X27.443 Y-17.269 F4800
G1 Z5.000 F1000
G92 E0
G1 X28.827 Y-17.492 E1.4576 F600
G1 X30.092 Y-15.136 E4.2360
G1 X30.897 Y-15.212 E5.0766
G1 X31.025 Y-15.246 E5.2147
G1 X32.449 Y-12.139 E8.7664
G1 X33.216 Y-9.907 E11.2195
G1 X32.398 Y-7.953 E13.4220
G1 X31.918 Y-5.818 E15.6962
G1 X32.640 Y-5.636 E16.4696
G1 X33.777 Y-5.645 E17.6521
G1 X35.880 Y-5.802 E19.8435
G1 X38.749 Y-5.836 E22.8255
G1 X38.719 Y-5.689 E22.9813
G1 X38.959 Y-5.536 E23.2770
G1 X38.971 Y-5.451 E23.3665
G1 X33.371 Y-5.497 E29.1871
G1 X32.196 Y-5.480 E30.4091
G1 X32.089 Y-4.615 E31.3151
G1 X33.644 Y-4.203 E32.9861
G1 X34.413 Y-3.303 E34.2165
G1 X34.436 Y-2.398 E35.1575
G1 X34.651 Y0.423 E38.0974
G1 X34.465 Y3.162 E40.9510
G1 X34.259 Y5.496 E43.3864
G1 X32.856 Y6.312 E45.0732
G1 X31.445 Y7.604 E47.0623
G1 X32.110 Y8.127 E47.9417
G1 X33.153 Y8.582 E49.1245
G1 X35.138 Y9.294 E51.3160
G1 X37.772 Y10.429 E54.2976
G1 X37.685 Y10.552 E54.4534
G1 X37.843 Y10.789 E54.7490
G1 X37.819 Y10.871 E54.8385
G1 X32.843 Y8.603 E60.5218
G1 X31.643 Y8.091 E61.8780
G1 X31.195 Y8.838 E62.7838
G1 X32.288 Y9.719 E64.2437
G1 X31.383 Y12.236 E67.0246
G1 X31.978 Y12.784 E67.8652
G1 X32.089 Y12.857 E68.0034
G1 X30.733 Y15.994 E71.5550
G1 X29.588 Y18.054 E74.0051
G1 X27.693 Y18.710 E76.0893
G1 X25.683 Y19.832 E78.4825
G1 X26.027 Y20.482 E79.2469
G1 X26.787 Y21.314 E80.4182
G1 X28.617 Y23.091 E83.0694
G1 X30.277 Y24.885 E85.6095
G1 X30.136 Y24.969 E85.7800
G1 X30.183 Y25.248 E86.0739
G1 X30.128 Y25.314 E86.1633
G1 X26.504 Y21.218 E91.8469
G1 X25.617 Y20.262 E93.2029
G1 X24.903 Y20.762 E94.1087
G1 X25.544 Y22.011 E95.5680
G1 X23.691 Y23.944 E98.3504
G1 X24.012 Y24.686 E99.1910
G1 X24.084 Y24.798 E99.3292
G1 X21.570 Y27.112 E102.8809
G1 X19.687 Y28.529 E105.3299
G1 X17.574 Y28.355 E107.5329
G1 X15.396 Y28.558 E109.8065
G1 X15.447 Y29.300 E110.5800
G1 X15.806 Y30.378 E111.7608
G1 X16.758 Y32.753 E114.4197
G1 X17.538 Y35.048 E116.9393
G1 X17.377 Y35.068 E117.1080
G1 X17.303 Y35.346 E117.4069
G1 X17.240 Y35.376 E117.4801
G1 X15.669 Y30.435 E122.8693
G1 X15.163 Y28.927 E124.5222
G1 X14.305 Y29.092 E125.4308
G1 X14.383 Y30.498 E126.8948
G1 X11.907 Y31.509 E129.6736
G1 X11.899 Y32.318 E130.5143
G1 X11.919 Y32.449 E130.6524
G1 X8.680 Y33.540 E134.2040
G1 X6.381 Y34.070 E136.6567
G1 X4.522 Y33.052 E138.8592
G1 X2.450 Y32.351 E141.1330
G1 X2.194 Y33.050 E141.9064
G1 X2.082 Y34.193 E143.1001
G1 X2.092 Y34.985 E143.9232
G1 X1.660 Y39.050 E148.1724
G1 X1.425 Y39.334 E148.5557
G1 X1.420 Y39.336 E148.5608
G1 X1.233 Y39.340 E148.7558
G1 X2.021 Y33.382 E155.0024
G1 X2.066 Y32.591 E155.8260
G1 X1.227 Y32.412 E156.7175
G1 X0.734 Y33.710 E158.1607
G1 X-1.947 Y33.627 E160.9489
G1 X-2.284 Y34.360 E161.7880
G1 X-2.320 Y34.490 E161.9279
G1 X-5.722 Y34.170 E165.4797
G1 X-8.028 Y33.719 E167.9218
G1 X-9.249 Y32.106 E170.0248
G1 X-10.925 Y30.553 E172.3990
G1 X-11.437 Y31.082 E173.1646
G1 X-11.995 Y32.064 E174.3380
G1 X-12.906 Y33.956 E176.5211
G1 X-14.321 Y36.475 E179.5235
G1 X-14.431 Y36.377 E179.6770
G1 X-14.689 Y36.510 E179.9778
G1 X-14.749 Y36.485 E180.0457
G1 X-13.484 Y34.365 E182.6120
G1 X-11.823 Y31.359 E186.1815
G1 X-11.741 Y31.194 E186.3730
G1 X-11.390 Y30.836 E186.8944
G1 X-11.979 Y30.140 E187.8422
G1 X-12.172 Y30.275 E188.0872
G1 X-12.212 Y30.247 E188.1386
G1 X-12.390 Y30.428 E188.4026
G1 X-12.525 Y30.522 E188.5730
G1 X-12.567 Y30.608 E188.6728
G1 X-13.045 Y31.095 E189.3825
G1 X-15.429 Y29.944 E192.1341
G1 X-16.035 Y30.480 E192.9748
G1 X-16.119 Y30.583 E193.1122
G1 X-19.097 Y28.906 E196.6637
G1 X-21.048 Y27.539 E199.1408
G1 X-21.506 Y25.574 E201.2376
G1 X-22.408 Y23.469 E203.6181
G1 X-23.091 Y23.743 E204.3833
G1 X-23.999 Y24.413 E205.5565
G1 X-25.602 Y25.771 E207.7395
G1 X-27.918 Y27.497 E210.7423
G1 X-27.981 Y27.361 E210.8978
G1 X-28.265 Y27.379 E211.1935
G1 X-28.325 Y27.316 E211.2836
G1 X-23.638 Y23.967 E217.2708
G1 X-22.761 Y23.311 E218.4090
G1 X-23.255 Y22.680 E219.2417
G1 X-26.881 Y19.298 E224.3963
G1 X-27.407 Y19.372 E224.9479
G1 X-28.311 Y18.188 E226.4965
G1 X-29.922 Y14.540 E230.6413
G1 X-30.042 Y12.335 E232.9369
G1 X-30.175 Y12.327 E233.0756
G1 X-31.071 Y9.355 E236.3020
G1 X-31.680 Y7.685 E238.1499
G1 X-31.666 Y6.886 E238.9808
G1 X-32.634 Y-1.038 E247.2780
G1 X-33.170 Y-1.314 E247.9047
G1 X-34.254 Y-1.511 E249.0496
G1 X-36.804 Y-1.875 E251.7269
G1 X-39.121 Y-2.336 E254.1829
G1 X-39.058 Y-2.485 E254.3516
G1 X-39.262 Y-2.688 E254.6506
G1 X-39.257 Y-2.756 E254.7223
G1 X-35.252 Y-1.869 E258.9864
G1 X-33.189 Y-1.465 E261.1711
G1 X-32.799 Y-1.269 E261.6249
G1 X-32.732 Y-1.376 E261.7564
G1 X-32.694 Y-1.368 E261.7970
G1 X-32.641 Y-1.520 E261.9638
G1 X-32.315 Y-2.041 E262.6027
G1 X-32.432 Y-2.131 E262.7559
G1 X-32.411 Y-2.193 E262.8245
G1 X-32.714 Y-2.346 E263.1775
G1 X-32.794 Y-2.407 E263.2822
G1 X-32.862 Y-2.420 E263.3535
G1 X-33.608 Y-2.796 E264.2219
G1 X-33.237 Y-5.456 E267.0132
G1 X-33.933 Y-5.870 E267.8547
G1 X-34.057 Y-5.918 E267.9932
G1 X-33.383 Y-9.268 E271.5451
G1 X-32.695 Y-11.509 E273.9813
G1 X-30.886 Y-12.609 E276.1825
G1 X-29.242 Y-14.054 E278.4573
G1 X-29.719 Y-14.625 E279.2304
G1 X-30.643 Y-15.286 E280.4119
G1 X-32.460 Y-16.411 E282.6333
G1 X-34.779 Y-18.054 E285.5871
G1 X-34.698 Y-18.129 E285.7017
G1 X-34.772 Y-18.405 E285.9994
G1 X-34.720 Y-18.504 E286.1158
G1 X-30.164 Y-15.118 E292.0156
G1 X-29.267 Y-14.494 E293.1512
G1 X-28.676 Y-15.131 E294.0544
G1 X-29.562 Y-16.220 E295.5130
G1 X-28.153 Y-18.494 E298.2936
G1 X-28.621 Y-19.153 E299.1343
G1 X-28.715 Y-19.248 E299.2724
G1 X-26.736 Y-22.034 E302.8241
G1 X-25.188 Y-23.812 E305.2742
G1 X-23.185 Y-24.061 E307.3723
G1 X-20.998 Y-24.738 E309.7521
G1 X-21.199 Y-25.446 E310.5174
G1 X-21.771 Y-26.419 E311.6906
G1 X-22.953 Y-28.155 E313.8734
G1 X-24.428 Y-30.639 E316.8762
G1 X-24.286 Y-30.687 E317.0319
G1 X-24.274 Y-30.972 E317.3275
G1 X-24.206 Y-31.024 E317.4169
G1 X-21.535 Y-26.301 E323.0568
G1 X-20.844 Y-25.146 E324.4556
G1 X-20.042 Y-25.487 E325.3614
G1 X-20.409 Y-26.841 E326.8196
G1 X-18.195 Y-28.347 E329.6027
G1 X-18.354 Y-29.140 E330.4433
G1 X-18.401 Y-29.264 E330.5815
G1 X-15.461 Y-31.005 E334.1331
G1 X-13.325 Y-31.998 E336.5808
G1 X-11.404 Y-31.414 E338.6687
G1 X-9.121 Y-31.140 E341.0584
G1 X-9.017 Y-31.869 E341.8230
G1 X-9.143 Y-32.990 E342.9961
G1 X-9.517 Y-35.057 E345.1790
G1 X-9.854 Y-37.926 E348.1820
G1 X-9.705 Y-37.912 E348.3376
G1 X-9.578 Y-38.167 E348.6333
G1 X-9.494 Y-38.188 E348.7232
G1 X-8.940 Y-32.482 E354.6814
G1 X-8.815 Y-31.444 E355.7686
G1 X-7.944 Y-31.429 E356.6745
G1 X-7.727 Y-32.822 E358.1407
G1 X-5.097 Y-33.296 E360.9184
G1 X-4.920 Y-34.085 E361.7591
G1 X-4.913 Y-34.218 E361.8971
G1 X-1.518 Y-34.612 E365.4488
G1 X0.842 Y-34.652 E367.9022
G1 X2.449 Y-33.269 E370.1057
G1 X4.330 Y-32.154 E372.3787
G1 X4.726 Y-32.784 E373.1522
G1 X5.061 Y-33.843 E374.3070
G1 X6.502 Y-37.829 E378.7121
G1 X6.637 Y-38.648 E379.5749
G1 X6.775 Y-38.763 E379.7616
G1 X6.859 Y-38.748 E379.8503
G1 X5.046 Y-33.318 E385.8007
G1 X4.736 Y-32.311 E386.8955
G1 X5.525 Y-31.943 E387.8014
G1 X6.290 Y-33.127 E389.2668
G1 X8.887 Y-32.491 E392.0454
G1 X9.369 Y-33.140 E392.8860
G1 X9.430 Y-33.258 E393.0241
G1 X12.691 Y-32.237 E396.5756
G1 X14.864 Y-31.312 E399.0300
G1 X15.730 Y-29.466 E401.1494
G1 X17.038 Y-27.614 E403.5057
G1 X17.650 Y-28.025 E404.2725
G1 X18.399 Y-28.869 E405.4451
G1 X19.975 Y-30.875 E408.0966
G1 X21.584 Y-32.712 E410.6346
G1 X21.681 Y-32.582 E410.8031
G1 X21.959 Y-32.658 E411.1021
G1 X22.017 Y-32.619 E411.1750
G1 X18.647 Y-28.926 E416.3708
G1 X17.472 Y-27.598 E418.2141
G1 X18.044 Y-26.936 E419.1225
G1 X19.221 Y-27.705 E420.5838
G1 X21.335 Y-26.066 E423.3643
G1 X22.040 Y-26.462 E424.2050
G1 X22.144 Y-26.545 E424.3431
G1 X24.708 Y-24.287 E427.8948
G1 X26.314 Y-22.561 E430.3454
G1 X26.353 Y-20.544 E432.4421
G1 X26.797 Y-18.297 E434.8226
G1 X27.523 Y-18.423 E435.5877
G1 X28.550 Y-18.890 E436.7610
G1 X30.416 Y-19.892 E438.9624
G1 X33.025 Y-21.092 E441.9469
G1 X33.056 Y-20.952 E442.0961
G1 X33.351 Y-20.903 E442.4065
G1 X33.358 Y-20.896 E442.4164
G1 X33.455 Y-20.739 E442.6084
G1 X27.741 Y-18.367 E449.0390
G1 X27.179 Y-18.084 E449.6929
G1 X27.443 Y-17.269 E450.5839
G1 X-30.250 Y12.323 F4800
G92 E0
G1 X-30.826 Y12.290 E0.6000 F600
G1 X-31.869 Y12.545 E1.7166
G1 X-34.325 Y13.242 E4.3698
G1 X-36.689 Y13.778 E6.8893
G1 X-36.692 Y13.614 E7.0600
G1 X-36.957 Y13.515 E7.3539
G1 X-36.986 Y13.436 E7.4419
G1 X-32.386 Y12.510 E12.3188
G1 X-30.943 Y12.165 E13.8608
G1 X-30.250 Y12.323 E14.5998
; outer perimeter
