; G-Code generated by Simplify3D(R) Version 3.1.1
; Apr 29, 2019 at 1:55:45 PM
; Settings Summary
;   processName,Gutroff_Olli
;   applyToModels,schwung
;   profileName,Default (modified)
;   profileVersion,2015-05-01 08:00:00
;   baseProfile,
;   printMaterial,PLA
;   printQuality,High
;   printExtruders,
;   extruderName,Primary Extruder
;   extruderToolheadNumber,0
;   extruderDiameter,1
;   extruderAutoWidth,0
;   extruderWidth,2
;   extrusionMultiplier,1
;   extruderUseRetract,0
;   extruderRetractionDistance,0
;   extruderExtraRestartDistance,0
;   extruderRetractionZLift,5
;   extruderRetractionSpeed,1800
;   extruderUseCoasting,0
;   extruderCoastingDistance,0.2
;   extruderUseWipe,0
;   extruderWipeDistance,5
;   primaryExtruder,0
;   layerHeight,2.5
;   topSolidLayers,0
;   bottomSolidLayers,0
;   perimeterOutlines,1
;   printPerimetersInsideOut,0
;   startPointOption,1
;   startPointOriginX,0
;   startPointOriginY,0
;   startPointOriginZ,300
;   sequentialIslands,0
;   spiralVaseMode,0
;   firstLayerHeightPercentage,100
;   firstLayerWidthPercentage,100
;   firstLayerUnderspeed,1
;   useRaft,0
;   raftExtruder,0
;   raftLayers,3
;   raftOffset,3
;   raftSeparationDistance,0.14
;   raftInfill,85
;   disableRaftBaseLayers,0
;   useSkirt,0
;   skirtExtruder,0
;   skirtLayers,2
;   skirtOutlines,2
;   skirtOffset,4
;   usePrimePillar,0
;   primePillarExtruder,999
;   primePillarWidth,12
;   primePillarLocation,7
;   primePillarSpeedMultiplier,1
;   useOozeShield,0
;   oozeShieldExtruder,999
;   oozeShieldOffset,2
;   oozeShieldOutlines,1
;   oozeShieldSidewallShape,1
;   oozeShieldSidewallAngle,30
;   oozeShieldSpeedMultiplier,1
;   infillExtruder,0
;   internalInfillPattern,Rectilinear
;   externalInfillPattern,Rectilinear
;   infillPercentage,0
;   outlineOverlapPercentage,20
;   infillExtrusionWidthPercentage,100
;   minInfillLength,4
;   infillLayerInterval,1
;   infillAngles,45,-45
;   overlapInfillAngles,0
;   generateSupport,0
;   supportExtruder,0
;   supportInfillPercentage,40
;   supportExtraInflation,0
;   denseSupportLayers,0
;   denseSupportInfillPercentage,70
;   supportLayerInterval,1
;   supportHorizontalPartOffset,0.3
;   supportUpperSeparationLayers,1
;   supportLowerSeparationLayers,1
;   supportType,0
;   supportGridSpacing,4
;   maxOverhangAngle,45
;   supportAngles,0
;   temperatureName,Primary Extruder
;   temperatureNumber,0
;   temperatureSetpointCount,1
;   temperatureSetpointLayers,1
;   temperatureSetpointTemperatures,0
;   temperatureStabilizeAtStartup,1
;   temperatureHeatedBed,0
;   temperatureRelayBetweenLayers,0
;   temperatureRelayBetweenLoops,0
;   fanLayers,1,2
;   fanSpeeds,0,100
;   blipFanToFullPower,0
;   adjustSpeedForCooling,0
;   minSpeedLayerTime,15
;   minCoolingSpeedSlowdown,20
;   increaseFanForCooling,0
;   minFanLayerTime,45
;   maxCoolingFanSpeed,100
;   increaseFanForBridging,0
;   bridgingFanSpeed,100
;   use5D,1
;   relativeEdistances,0
;   allowEaxisZeroing,1
;   independentExtruderAxes,0
;   includeM10123,0
;   stickySupport,1
;   applyToolheadOffsets,0
;   gcodeXoffset,0
;   gcodeYoffset,0
;   gcodeZoffset,0
;   overrideMachineDefinition,0
;   machineTypeOverride,0
;   strokeXoverride,200
;   strokeYoverride,200
;   strokeZoverride,200
;   originOffsetXoverride,0
;   originOffsetYoverride,0
;   originOffsetZoverride,0
;   homeXdirOverride,-1
;   homeYdirOverride,-1
;   homeZdirOverride,-1
;   flipXoverride,1
;   flipYoverride,-1
;   flipZoverride,1
;   toolheadOffsets,0,0|0,0|0,0|0,0|0,0|0,0
;   overrideFirmwareConfiguration,0
;   firmwareTypeOverride,RepRap (Marlin/Repetier/Sprinter)
;   GPXconfigOverride,r2
;   baudRateOverride,115200
;   overridePrinterModels,0
;   printerModelsOverride
;   startingGcode,##Start
;   layerChangeGcode,#LayerChange
;   retractionGcode,#Retraction
;   toolChangeGcode,
;   endingGcode,##End
;   exportFileFormat,gcode
;   celebration,0
;   celebrationSong,Random Song
;   postProcessing,
;   defaultSpeed,600
;   outlineUnderspeed,1
;   solidInfillUnderspeed,0.8
;   supportUnderspeed,0.8
;   rapidXYspeed,4800
;   rapidZspeed,1000
;   minBridgingArea,40
;   bridgingExtraInflation,1
;   bridgingExtrusionMultiplier,1
;   bridgingSpeedMultiplier,1
;   filamentDiameter,1.75
;   filamentPricePerKg,46
;   filamentDensity,1.25
;   useMinPrintHeight,0
;   minPrintHeight,0
;   useMaxPrintHeight,0
;   maxPrintHeight,0
;   useDiaphragm,0
;   diaphragmLayerInterval,3
;   robustSlicing,0
;   mergeAllIntoSolid,0
;   onlyRetractWhenCrossingOutline,1
;   retractBetweenLayers,0
;   useRetractionMinTravel,0
;   retractionMinTravel,3
;   retractWhileWiping,0
;   onlyWipeOutlines,1
;   avoidCrossingOutline,0
;   maxMovementDetourFactor,3
;   toolChangeRetractionDistance,0
;   toolChangeExtraRestartDistance,0
;   toolChangeRetractionSpeed,600
;   allowThinWallGapFill,1
;   thinWallAllowedOverlapPercentage,50
;   horizontalSizeCompensation,0
G90
M82
M106 S0
M104 S0 T0
##Start
G92 E0
#Retraction
G1 E0.0000 F1800
G1 Z7.500 F1000
; layer 1, Z = 2.5
#LayerChange
T0
; tool H2.500 W2.000
; outer perimeter
G1 X1.159 Y1.055 F4800
G1 Z2.500 F1000
G1 E0.0000 F540
G92 E0
G1 X1.159 Y39.055 E78.9928 F600
G1 X0.759 Y39.055 E79.8238
G1 X0.759 Y1.055 E158.8166
G1 X1.159 Y1.055 E159.6476
; layer 2, Z = 5
M106 S255
#LayerChange
; outer perimeter
G1 X2.665 Y39.055 F4800
G1 Z5.000 F1000
G92 E0
G1 X2.354 Y39.055 E0.6469 F600
G1 X2.354 Y1.055 E79.6397
G1 X2.665 Y1.055 E80.2866
G1 X2.665 Y39.055 E159.2795
; layer 3, Z = 7.5
#LayerChange
; outer perimeter
G1 X3.929 Y39.055 F4800
G1 Z7.500 F1000
G92 E0
G1 X3.729 Y39.055 E0.4168 F600
G1 X3.729 Y1.055 E79.4096
G1 X3.929 Y1.055 E79.8264
G1 X3.929 Y39.055 E158.8192
; layer 4, Z = 10
#LayerChange
; outer perimeter
G1 X4.792 Y1.055 F4800
G1 Z10.000 F1000
G92 E0
G1 X4.894 Y1.055 E0.2132 F600
G1 X4.894 Y39.055 E79.2060
G1 X4.792 Y39.055 E79.4191
G1 X4.792 Y1.055 E158.4120
; layer 5, Z = 12.5
#LayerChange
; outer perimeter
G1 X5.491 Y39.055 F4800
G1 Z12.500 F1000
G92 E0
G1 X5.466 Y39.055 E0.0525 F600
G1 X5.466 Y1.055 E79.0454
G1 X5.491 Y1.055 E79.0979
G1 X5.491 Y39.055 E158.0907
; layer 6, Z = 15
#LayerChange
; layer 7, Z = 17.5
#LayerChange
; outer perimeter
G1 X5.380 Y39.055 F4800
G1 Z17.500 F1000
G92 E0
G1 X5.380 Y1.055 E78.9928 F600
G1 X5.385 Y1.055 E79.0027
G1 X5.385 Y39.055 E157.9956
G1 X5.380 Y39.055 E158.0055
; layer 8, Z = 20
#LayerChange
; outer perimeter
G1 X4.660 Y1.055 F4800
G1 Z20.000 F1000
G92 E0
G1 X4.660 Y39.055 E78.9928 F600
G1 X4.472 Y39.055 E79.3829
G1 X4.472 Y1.055 E158.3757
G1 X4.660 Y1.055 E158.7658
; layer 9, Z = 22.5
#LayerChange
; outer perimeter
G1 X3.302 Y1.055 F4800
G1 Z22.500 F1000
G92 E0
G1 X3.302 Y39.055 E78.9928 F600
G1 X2.771 Y39.055 E80.0980
G1 X2.771 Y1.055 E159.0908
G1 X3.302 Y1.055 E160.1959
; layer 10, Z = 25
#LayerChange
; outer perimeter
G1 X0.413 Y1.055 F4800
G1 Z25.000 F1000
G92 E0
G1 X1.170 Y1.055 E1.5738 F600
G1 X1.170 Y39.055 E80.5666
G1 X0.413 Y39.055 E82.1405
G1 X0.413 Y1.055 E161.1333
; layer 11, Z = 27.5
#LayerChange
; outer perimeter
G1 X-1.046 Y39.055 F4800
G1 Z27.500 F1000
G92 E0
G1 X-1.391 Y39.055 E0.7161 F600
G1 X-1.391 Y1.055 E79.7089
G1 X-1.046 Y1.055 E80.4250
G1 X-1.046 Y39.055 E159.4178
; layer 12, Z = 30
#LayerChange
; outer perimeter
G1 X-1.536 Y39.055 F4800
G1 Z30.000 F1000
G92 E0
G1 X-1.680 Y39.055 E0.2995 F600
G1 X-1.680 Y1.055 E79.2924
G1 X-1.536 Y1.055 E79.5919
G1 X-1.536 Y39.055 E158.5847
; layer 13, Z = 32.5
#LayerChange
; outer perimeter
G1 X-0.001 Y39.055 F4800
G1 Z32.500 F1000
G92 E0
G1 X-0.001 Y1.055 E78.9928 F600
G1 X10.218 Y1.055 E100.2354
G1 X10.218 Y39.055 E179.2283
G1 X-0.001 Y39.055 E200.4708
; layer end
##End
; Build Summary
;   Build time: 0 hours 1 minute
;   Filament length: 1950.8 mm (1.95 m)
;   Plastic volume: 4692.28 mm^3 (4.69 cc)
;   Plastic weight: 5.87 g (0.01 lb)
;   Material cost: 0.27
