; G-Code generated by Simplify3D(R) Version 3.1.1
; Apr 30, 2019 at 8:42:29 AM
; Settings Summary
;   processName,Gutroff_Olli
;   applyToModels,test_o_lp(2)
;   profileName,Default (modified)
;   profileVersion,2015-05-01 08:00:00
;   baseProfile,
;   printMaterial,PLA
;   printQuality,High
;   printExtruders,
;   extruderName,Primary Extruder
;   extruderToolheadNumber,0
;   extruderDiameter,1
;   extruderAutoWidth,0
;   extruderWidth,2.4
;   extrusionMultiplier,1
;   extruderUseRetract,0
;   extruderRetractionDistance,0
;   extruderExtraRestartDistance,0
;   extruderRetractionZLift,5
;   extruderRetractionSpeed,1800
;   extruderUseCoasting,0
;   extruderCoastingDistance,0.2
;   extruderUseWipe,0
;   extruderWipeDistance,5
;   primaryExtruder,0
;   layerHeight,2.5
;   topSolidLayers,0
;   bottomSolidLayers,0
;   perimeterOutlines,1
;   printPerimetersInsideOut,0
;   startPointOption,1
;   startPointOriginX,0
;   startPointOriginY,0
;   startPointOriginZ,300
;   sequentialIslands,0
;   spiralVaseMode,0
;   firstLayerHeightPercentage,100
;   firstLayerWidthPercentage,100
;   firstLayerUnderspeed,1
;   useRaft,0
;   raftExtruder,0
;   raftLayers,3
;   raftOffset,3
;   raftSeparationDistance,0.14
;   raftInfill,85
;   disableRaftBaseLayers,0
;   useSkirt,0
;   skirtExtruder,0
;   skirtLayers,2
;   skirtOutlines,2
;   skirtOffset,4
;   usePrimePillar,0
;   primePillarExtruder,999
;   primePillarWidth,12
;   primePillarLocation,7
;   primePillarSpeedMultiplier,1
;   useOozeShield,0
;   oozeShieldExtruder,999
;   oozeShieldOffset,2
;   oozeShieldOutlines,1
;   oozeShieldSidewallShape,1
;   oozeShieldSidewallAngle,30
;   oozeShieldSpeedMultiplier,1
;   infillExtruder,0
;   internalInfillPattern,Rectilinear
;   externalInfillPattern,Rectilinear
;   infillPercentage,0
;   outlineOverlapPercentage,99
;   infillExtrusionWidthPercentage,100
;   minInfillLength,4
;   infillLayerInterval,1
;   infillAngles,45,-45
;   overlapInfillAngles,0
;   generateSupport,0
;   supportExtruder,0
;   supportInfillPercentage,40
;   supportExtraInflation,0
;   denseSupportLayers,0
;   denseSupportInfillPercentage,70
;   supportLayerInterval,1
;   supportHorizontalPartOffset,0.3
;   supportUpperSeparationLayers,1
;   supportLowerSeparationLayers,1
;   supportType,0
;   supportGridSpacing,4
;   maxOverhangAngle,45
;   supportAngles,0
;   temperatureName,Primary Extruder
;   temperatureNumber,0
;   temperatureSetpointCount,1
;   temperatureSetpointLayers,1
;   temperatureSetpointTemperatures,0
;   temperatureStabilizeAtStartup,1
;   temperatureHeatedBed,0
;   temperatureRelayBetweenLayers,0
;   temperatureRelayBetweenLoops,0
;   fanLayers,1,2
;   fanSpeeds,0,100
;   blipFanToFullPower,0
;   adjustSpeedForCooling,0
;   minSpeedLayerTime,15
;   minCoolingSpeedSlowdown,20
;   increaseFanForCooling,0
;   minFanLayerTime,45
;   maxCoolingFanSpeed,100
;   increaseFanForBridging,0
;   bridgingFanSpeed,100
;   use5D,1
;   relativeEdistances,0
;   allowEaxisZeroing,1
;   independentExtruderAxes,0
;   includeM10123,0
;   stickySupport,1
;   applyToolheadOffsets,0
;   gcodeXoffset,0
;   gcodeYoffset,0
;   gcodeZoffset,0
;   overrideMachineDefinition,0
;   machineTypeOverride,0
;   strokeXoverride,200
;   strokeYoverride,200
;   strokeZoverride,200
;   originOffsetXoverride,0
;   originOffsetYoverride,0
;   originOffsetZoverride,0
;   homeXdirOverride,-1
;   homeYdirOverride,-1
;   homeZdirOverride,-1
;   flipXoverride,1
;   flipYoverride,-1
;   flipZoverride,1
;   toolheadOffsets,0,0|0,0|0,0|0,0|0,0|0,0
;   overrideFirmwareConfiguration,0
;   firmwareTypeOverride,RepRap (Marlin/Repetier/Sprinter)
;   GPXconfigOverride,r2
;   baudRateOverride,115200
;   overridePrinterModels,0
;   printerModelsOverride
;   startingGcode,##Start
;   layerChangeGcode,#LayerChange
;   retractionGcode,#Retraction
;   toolChangeGcode,
;   endingGcode,##End
;   exportFileFormat,gcode
;   celebration,0
;   celebrationSong,Random Song
;   postProcessing,
;   defaultSpeed,600
;   outlineUnderspeed,1
;   solidInfillUnderspeed,0.8
;   supportUnderspeed,0.8
;   rapidXYspeed,4800
;   rapidZspeed,1000
;   minBridgingArea,40
;   bridgingExtraInflation,1
;   bridgingExtrusionMultiplier,1
;   bridgingSpeedMultiplier,1
;   filamentDiameter,1.75
;   filamentPricePerKg,46
;   filamentDensity,1.25
;   useMinPrintHeight,0
;   minPrintHeight,0
;   useMaxPrintHeight,0
;   maxPrintHeight,0
;   useDiaphragm,0
;   diaphragmLayerInterval,3
;   robustSlicing,0
;   mergeAllIntoSolid,0
;   onlyRetractWhenCrossingOutline,1
;   retractBetweenLayers,0
;   useRetractionMinTravel,0
;   retractionMinTravel,3
;   retractWhileWiping,0
;   onlyWipeOutlines,1
;   avoidCrossingOutline,0
;   maxMovementDetourFactor,3
;   toolChangeRetractionDistance,0
;   toolChangeExtraRestartDistance,0
;   toolChangeRetractionSpeed,600
;   allowThinWallGapFill,1
;   thinWallAllowedOverlapPercentage,50
;   horizontalSizeCompensation,0
G90
M82
M106 S0
M104 S0 T0
##Start
G92 E0
#Retraction
G1 E0.0000 F1800
G1 Z7.500 F1000
; layer 1, Z = 2.5
#LayerChange
T0
; tool H2.500 W2.400
; outer perimeter
G1 X-0.821 Y29.363 F4800
G1 Z2.500 F1000
G1 E0.0000 F540
G92 E0
G1 X-21.529 Y20.785 E55.9113 F600
G1 X-30.105 Y0.079 E111.8186
G1 X-21.529 Y-20.627 E167.7260
G1 X-0.821 Y-29.205 E223.6373
G1 X19.886 Y-20.627 E279.5485
G1 X28.463 Y0.079 E335.4559
G1 X19.886 Y20.785 E391.3633
G1 X-0.821 Y29.363 E447.2745
; layer 2, Z = 5
M106 S255
#LayerChange
; outer perimeter
G1 X-22.353 Y21.610 F4800
G1 Z5.000 F1000
G92 E0
G1 X-31.271 Y0.079 E58.1333 F600
G1 X-22.353 Y-21.452 E116.2667
G1 X-0.821 Y-30.371 E174.4034
G1 X20.711 Y-21.452 E232.5402
G1 X29.629 Y0.079 E290.6735
G1 X20.711 Y21.610 E348.8069
G1 X-0.821 Y30.529 E406.9436
G1 X-22.353 Y21.610 E465.0804
; layer 3, Z = 7.5
#LayerChange
; outer perimeter
G1 X-23.177 Y22.434 F4800
G1 Z7.500 F1000
G92 E0
G1 X-32.437 Y0.079 E60.3593 F600
G1 X-23.177 Y-22.276 E120.7186
G1 X-0.821 Y-31.536 E181.0808
G1 X21.535 Y-22.276 E241.4430
G1 X30.794 Y0.079 E301.8024
G1 X21.535 Y22.434 E362.1617
G1 X-0.821 Y31.694 E422.5239
G1 X-23.177 Y22.434 E482.8861
; layer 4, Z = 10
#LayerChange
; outer perimeter
G1 X-24.001 Y-23.100 F4800
G1 Z10.000 F1000
G92 E0
G1 X-0.821 Y-32.702 E62.5877 F600
G1 X22.359 Y-23.100 E125.1754
G1 X31.960 Y0.079 E187.7607
G1 X22.359 Y23.258 E250.3459
G1 X-0.821 Y32.860 E312.9336
G1 X-24.001 Y23.258 E375.5213
G1 X-33.602 Y0.079 E438.1066
G1 X-24.001 Y-23.100 E500.6919
; layer 5, Z = 12.5
#LayerChange
; outer perimeter
G1 X23.183 Y-23.925 F4800
G1 Z12.500 F1000
G92 E0
G1 X33.126 Y0.079 E64.8113 F600
G1 X23.183 Y24.083 E129.6225
G1 X-0.821 Y34.026 E194.4357
G1 X-24.826 Y24.083 E259.2489
G1 X-34.768 Y0.079 E324.0601
G1 X-24.826 Y-23.925 E388.8714
G1 X-0.821 Y-33.868 E453.6845
G1 X23.183 Y-23.925 E518.4977
; layer 6, Z = 15
#LayerChange
; outer perimeter
G1 X34.292 Y0.079 F4800
G1 Z15.000 F1000
G92 E0
G1 X24.008 Y24.907 E67.0372 F600
G1 X-0.821 Y35.192 E134.0759
G1 X-25.650 Y24.907 E201.1145
G1 X-35.934 Y0.079 E268.1517
G1 X-25.650 Y-24.749 E335.1890
G1 X-0.821 Y-35.034 E402.2276
G1 X24.008 Y-24.749 E469.2663
G1 X34.292 Y0.079 E536.3035
; layer 7, Z = 17.5
#LayerChange
; outer perimeter
G1 X-0.821 Y36.358 F4800
G1 Z17.500 F1000
G92 E0
G1 X-26.474 Y25.732 E69.2642 F600
G1 X-37.100 Y0.079 E138.5273
G1 X-26.474 Y-25.574 E207.7905
G1 X-0.821 Y-36.200 E277.0547
G1 X24.832 Y-25.574 E346.3188
G1 X35.458 Y0.079 E415.5820
G1 X24.832 Y25.732 E484.8452
G1 X-0.821 Y36.358 E554.1093
; layer 8, Z = 20
#LayerChange
; outer perimeter
G1 X-0.821 Y37.523 F4800
G1 Z20.000 F1000
G92 E0
G1 X-27.298 Y26.556 E71.4896 F600
G1 X-38.265 Y0.079 E142.9787
G1 X-27.298 Y-26.398 E214.4679
G1 X-0.821 Y-37.365 E285.9576
G1 X25.656 Y-26.398 E357.4472
G1 X36.623 Y0.079 E428.9364
G1 X25.656 Y26.556 E500.4255
G1 X-0.821 Y37.523 E571.9151
; layer 9, Z = 22.5
#LayerChange
; outer perimeter
G1 X-28.123 Y-27.223 F4800
G1 Z22.500 F1000
G92 E0
G1 X-0.821 Y-38.531 E73.7151 F600
G1 X26.480 Y-27.223 E147.4302
G1 X37.789 Y0.079 E221.1454
G1 X26.480 Y27.380 E294.8604
G1 X-0.821 Y38.689 E368.5755
G1 X-28.123 Y27.380 E442.2907
G1 X-39.431 Y0.079 E516.0057
G1 X-28.123 Y-27.223 E589.7209
; layer 10, Z = 25
#LayerChange
; outer perimeter
G1 X-27.427 Y26.685 F4800
G1 Z25.000 F1000
G92 E0
G1 X-38.447 Y0.079 E71.8365 F600
G1 X-27.427 Y-26.527 E143.6730
G1 X-0.821 Y-37.547 E215.5100
G1 X25.785 Y-26.527 E287.3468
G1 X36.805 Y0.079 E359.1834
G1 X25.785 Y26.685 E431.0199
G1 X-0.821 Y37.705 E502.8568
G1 X-27.427 Y26.685 E574.6938
; layer 11, Z = 27.5
#LayerChange
; outer perimeter
G1 X-26.603 Y25.860 F4800
G1 Z27.500 F1000
G92 E0
G1 X-37.282 Y0.079 E69.6105 F600
G1 X-26.603 Y-25.702 E139.2211
G1 X-0.821 Y-36.382 E208.8325
G1 X24.961 Y-25.702 E278.4440
G1 X35.639 Y0.079 E348.0546
G1 X24.961 Y25.860 E417.6651
G1 X-0.821 Y36.540 E487.2765
G1 X-26.603 Y25.860 E556.8880
; layer 12, Z = 30
#LayerChange
; outer perimeter
G1 X34.474 Y0.079 F4800
G1 Z30.000 F1000
G92 E0
G1 X24.136 Y25.036 E67.3845 F600
G1 X-0.821 Y35.374 E134.7705
G1 X-25.778 Y25.036 E202.1565
G1 X-36.116 Y0.079 E269.5410
G1 X-25.778 Y-24.878 E336.9256
G1 X-0.821 Y-35.216 E404.3116
G1 X24.136 Y-24.878 E471.6976
G1 X34.474 Y0.079 E539.0822
; layer 13, Z = 32.5
#LayerChange
; outer perimeter
G1 X-24.954 Y-24.054 F4800
G1 Z32.500 F1000
G92 E0
G1 X-0.821 Y-34.050 E65.1605 F600
G1 X23.312 Y-24.054 E130.3209
G1 X33.308 Y0.079 E195.4796
G1 X23.312 Y24.212 E260.6382
G1 X-0.821 Y34.208 E325.7986
G1 X-24.954 Y24.212 E390.9591
G1 X-34.950 Y0.079 E456.1177
G1 X-24.954 Y-24.054 E521.2764
; layer 14, Z = 35
#LayerChange
; outer perimeter
G1 X-24.130 Y23.387 F4800
G1 Z35.000 F1000
G92 E0
G1 X-33.784 Y0.079 E62.9326 F600
G1 X-24.130 Y-23.229 E125.8653
G1 X-0.821 Y-32.884 E188.8003
G1 X22.488 Y-23.229 E251.7353
G1 X32.142 Y0.079 E314.6680
G1 X22.488 Y23.387 E377.6006
G1 X-0.821 Y33.042 E440.5356
G1 X-24.130 Y23.387 E503.4706
; layer 15, Z = 37.5
#LayerChange
; outer perimeter
G1 X-0.821 Y-31.718 F4800
G1 Z37.500 F1000
G92 E0
G1 X21.664 Y-22.405 E60.7095 F600
G1 X30.976 Y0.079 E121.4162
G1 X21.664 Y22.563 E182.1229
G1 X-0.821 Y31.876 E242.8324
G1 X-23.306 Y22.563 E303.5419
G1 X-32.619 Y0.079 E364.2486
G1 X-23.306 Y-22.405 E424.9553
G1 X-0.821 Y-31.718 E485.6648
; layer 16, Z = 40
#LayerChange
; outer perimeter
G1 X-22.481 Y-21.580 F4800
G1 Z40.000 F1000
G92 E0
G1 X-0.821 Y-30.553 E58.4840 F600
G1 X20.839 Y-21.580 E116.9680
G1 X29.811 Y0.079 E175.4488
G1 X20.839 Y21.738 E233.9295
G1 X-0.821 Y30.711 E292.4135
G1 X-22.481 Y21.738 E350.8975
G1 X-31.453 Y0.079 E409.3783
G1 X-22.481 Y-21.580 E467.8590
; layer 17, Z = 42.5
#LayerChange
; outer perimeter
G1 X20.015 Y20.914 F4800
G1 Z42.500 F1000
G92 E0
G1 X-0.821 Y29.545 E56.2585 F600
G1 X-21.657 Y20.914 E112.5170
G1 X-30.287 Y0.079 E168.7718
G1 X-21.657 Y-20.756 E225.0265
G1 X-0.821 Y-29.387 E281.2851
G1 X20.015 Y-20.756 E337.5436
G1 X28.645 Y0.079 E393.7984
G1 X20.015 Y20.914 E450.0531
; layer end
##End
; Build Summary
;   Build time: 0 hours 6 minutes
;   Filament length: 8765.5 mm (8.77 m)
;   Plastic volume: 21083.42 mm^3 (21.08 cc)
;   Plastic weight: 26.35 g (0.06 lb)
;   Material cost: 1.21
