; generated by Slic3r 1.2.9 on 2018-04-26 at 14:20:39

; external perimeters extrusion width = 1.50mm
; perimeters extrusion width = 1.84mm
; infill extrusion width = 1.84mm
; solid infill extrusion width = 1.84mm
; top infill extrusion width = 1.84mm

M107
M104 S205 ; set temperature
G28 ; home all axes
G1 Z5 F5000 ; lift nozzle

M109 S205 ; wait for temperature to be reached
G21 ; set units to millimeters
G90 ; use absolute coordinates
M82 ; use absolute distances for extrusion
G92 E0
G1 Z1.100 F7800.000
G1 E-2.00000 F2400.00000
G92 E0
G1 X66.187 Y95.575 F7800.000
G1 E2.00000 F2400.00000
G1 X66.474 Y95.418 E2.04408 F1800.000
G1 X70.960 Y93.429 E2.70370
G1 X71.269 Y93.321 E2.74780
G1 X71.593 Y93.266 E2.79188
G1 X76.480 Y92.836 E3.45147
G1 X76.808 Y92.834 E3.49557
G1 X77.131 Y92.886 E3.53965
G1 X81.895 Y94.061 E4.19922 F1800.000
G1 X82.206 Y94.166 E4.24331
G1 X82.495 Y94.320 E4.28739
G1 X86.622 Y96.972 E4.94695
G1 X86.882 Y97.172 E4.99105
G1 X87.106 Y97.411 E5.03513
G1 X90.152 Y101.257 E5.69468
G1 X90.334 Y101.530 E5.73878
G1 X90.469 Y101.829 E5.78287
G1 X92.106 Y106.449 E6.44195
G1 X92.212 Y106.850 E6.49770
G1 X92.738 Y108.065 E6.67563
G1 X93.820 Y108.972 E6.86543
G1 X95.130 Y109.282 E7.04654
G1 X95.876 Y109.282 E7.14680
G1 X97.187 Y108.972 E7.32791
G1 X98.269 Y108.065 E7.51770
G1 X98.785 Y106.871 E7.69258
G1 X100.454 Y102.162 E8.36427
G1 X100.515 Y101.905 E8.39978
G1 X100.658 Y101.557 E8.45039
G1 X103.714 Y97.699 E9.11200
G1 X103.854 Y97.476 E9.14751
G1 X104.103 Y97.193 E9.19812
G1 X108.242 Y94.532 E9.85965
G1 X108.447 Y94.366 E9.89516
G1 X108.773 Y94.178 E9.94578
G1 X113.550 Y93.000 E10.60727
G1 X113.798 Y92.909 E10.64278
G1 X114.168 Y92.838 E10.69340
G1 X119.069 Y93.268 E11.35490
G1 X119.333 Y93.262 E11.39041
G1 X119.706 Y93.314 E11.44103
G1 X124.205 Y95.308 E12.10259
G1 X124.457 Y95.388 E12.13809
G1 X124.793 Y95.558 E12.18871
G1 X128.405 Y98.900 E12.85036
G1 X128.617 Y99.057 E12.88587
G1 X128.880 Y99.327 E12.93649
G1 X131.217 Y103.659 E13.59827
G1 X131.367 Y103.877 E13.63378
G1 X131.463 Y104.056 E13.66116
G1 X131.528 Y104.217 E13.68446
G1 X132.336 Y109.074 E14.34643
G1 X132.408 Y109.328 E14.38194
G1 X132.451 Y109.702 E14.43254
G1 X131.645 Y114.547 E15.09287
G1 X131.601 Y114.983 E15.15184
G1 X131.494 Y115.333 E15.20108
G1 X128.906 Y120.108 E15.93120
G1 X128.731 Y120.305 E15.96668
G1 X125.130 Y123.637 E16.62632
G1 X124.831 Y123.879 E16.67800
G1 X120.354 Y125.863 E17.33627
G1 X119.957 Y126.071 E17.39652
G1 X119.728 Y126.146 E17.42906
G1 X119.632 Y126.168 E17.44223
G1 X114.207 Y126.632 E18.17419
G1 X113.944 Y126.594 E18.21001
G1 X109.181 Y125.419 E18.86950
G1 X108.819 Y125.303 E18.92062
G1 X104.697 Y122.654 E19.57940
G1 X104.305 Y122.437 E19.63962
G1 X104.117 Y122.288 E19.67186
G1 X104.045 Y122.218 E19.68536
G1 X100.676 Y117.944 E20.41709
G1 X100.562 Y117.700 E20.45325
G1 X98.924 Y113.080 E21.11227
G1 X98.793 Y112.610 E21.17781
G1 X98.269 Y111.400 E21.35518
G1 X97.187 Y110.493 E21.54498
G1 X95.876 Y110.182 E21.72608
G1 X95.130 Y110.182 E21.82635
G1 X93.820 Y110.493 E22.00745
G1 X92.738 Y111.400 E22.19725
G1 X92.221 Y112.593 E22.37213
G1 X90.555 Y117.296 E23.04285
G1 X90.459 Y117.657 E23.09303
G1 X90.344 Y117.914 E23.13099
G1 X87.298 Y121.759 E23.79051
G1 X87.091 Y122.070 E23.84068
G1 X86.898 Y122.276 E23.87864
G1 X82.771 Y124.929 E24.53816
G1 X82.475 Y125.156 E24.58833
G1 X82.226 Y125.288 E24.62630
G1 X77.463 Y126.463 E25.28582
G1 X77.109 Y126.582 E25.33600
G1 X76.830 Y126.627 E25.37396
G1 X71.943 Y126.197 E26.03351
G1 X71.570 Y126.195 E26.08368
G1 X71.292 Y126.147 E26.12164
G1 X66.807 Y124.159 E26.78122
G1 X66.454 Y124.036 E26.83140
G1 X66.207 Y123.901 E26.86936
G1 X62.606 Y120.568 E27.52898
G1 X62.312 Y120.338 E27.57916
G1 X62.122 Y120.130 E27.61712
G1 X59.793 Y115.811 E28.27679
G1 X59.590 Y115.498 E28.32697
G1 X59.477 Y115.239 E28.36493
G1 X58.672 Y110.398 E29.02466
G1 X58.580 Y110.036 E29.07485
G1 X58.557 Y109.755 E29.11280
G1 X59.362 Y104.914 E29.77254
G1 X59.393 Y104.542 E29.82272
G1 X59.468 Y104.246 E29.86375
G1 X59.599 Y103.946 E29.90783
G1 X61.927 Y99.627 E30.56755
G1 X62.106 Y99.352 E30.61165
G1 X62.328 Y99.110 E30.65573
G1 X66.009 Y95.713 E31.32919
G1 X82.618 Y95.182 F7800.000
G1 X90.139 Y102.704 E32.77347 F1800.000
G1 X90.817 Y104.615 F7800.000
G1 X80.522 Y94.320 E34.75021 F1800.000
G1 X78.884 Y93.916 E34.97926
G1 X91.494 Y106.526 E37.40052
G1 X92.265 Y108.531 F7800.000
G1 X77.246 Y93.512 E40.28439 F1800.000
G1 X75.904 Y93.404 E40.46715
G1 X93.046 Y110.546 E43.75859
G1 X92.375 Y111.109 E43.87751
G1 X74.770 Y93.504 E47.25783
G1 X73.636 Y93.604 E47.41242
G1 X91.983 Y111.951 E50.93535
G1 X91.628 Y112.829 E51.06402
G1 X72.502 Y93.704 E54.73647
G1 X71.377 Y93.813 E54.88988
G1 X91.305 Y113.741 E58.71629
G1 X90.982 Y114.652 E58.84752
G1 X70.486 Y94.156 E62.78301
G1 X69.632 Y94.535 E62.90998
G1 X90.659 Y115.563 E66.94763
G1 X90.336 Y116.474 E67.07886
G1 X68.777 Y94.914 E71.21869
G1 X67.922 Y95.293 E71.34566
G1 X90.022 Y117.393 E75.58925
G1 X89.561 Y118.166 E75.71145
G1 X67.067 Y95.672 E80.03070
G1 X66.259 Y96.098 E80.15468
G1 X89.016 Y118.855 E84.52425
G1 X88.470 Y119.543 E84.64351
G1 X65.615 Y96.688 E89.03211
G1 X64.974 Y97.281 E89.15066
G1 X87.925 Y120.232 E93.55758
G1 X87.380 Y120.920 E93.67684
G1 X64.333 Y97.874 E98.10207
G1 X63.693 Y98.467 E98.22062
G1 X86.841 Y121.615 E102.66542
G1 X86.181 Y122.189 E102.78417
G1 X63.052 Y99.060 E107.22526
G1 X62.441 Y99.683 E107.34373
G1 X85.429 Y122.672 E111.75796
G1 X84.678 Y123.155 E111.87919
G1 X61.999 Y100.475 E116.23394
G1 X61.567 Y101.277 E116.35761
G1 X83.927 Y123.637 E120.65113
G1 X83.176 Y124.120 E120.77236
G1 X61.135 Y102.079 E125.00466
G1 X60.703 Y102.880 E125.12832
G1 X82.434 Y124.611 E129.30097
G1 X81.539 Y124.950 E129.43089
G1 X60.270 Y103.682 E133.51472
G1 X59.910 Y104.556 E133.64301
G1 X80.549 Y125.194 E137.60599
G1 X79.559 Y125.439 E137.74440
G1 X59.753 Y105.632 E141.54747
G1 X59.577 Y106.690 E141.69309
G1 X78.569 Y125.683 E145.33990
G1 X77.580 Y125.927 E145.47831
G1 X59.401 Y107.748 E148.96886
G1 X59.225 Y108.806 E149.11448
G1 X76.463 Y126.044 E152.42444
G1 X75.110 Y125.925 E152.60883
G1 X59.166 Y109.981 E155.67042
G1 X59.421 Y111.470 E155.87555
G1 X73.758 Y125.806 E158.62837
G1 X72.405 Y125.687 E158.81276
G1 X59.667 Y112.950 E161.25853
G1 X59.913 Y114.430 E161.46225
G1 X70.679 Y125.196 E163.52949
G1 X68.463 Y124.214 F7800.000
G1 X61.058 Y116.809 E164.95131 F1800.000
G1 X62.502 Y119.486 F7800.000
G1 X63.113 Y120.098 E165.06874 F1800.000
G1 X92.512 Y108.778 F7800.000
G1 X93.738 Y110.005 E165.30426 F1800.000
G1 X86.813 Y98.144 F7800.000
G1 X86.097 Y97.427 E165.44190 F1800.000
G1 X84.204 Y109.736 F7800.000
G1 X93.530 Y109.732 F7800.000
G1 X95.929 Y109.732 F7800.000
G1 X95.929 Y109.732 F7800.000
G1 X97.477 Y109.732 F7800.000
G1 X97.394 Y109.385 F7800.000
G1 X97.263 Y109.461 F7800.000
G1 X113.751 Y125.948 E168.60769 F1800.000
G1 X115.076 Y126.039 E168.78802
G1 X97.957 Y108.921 E172.07498
G1 X98.629 Y108.358 E172.19390
G1 X116.212 Y125.942 E175.57022
G1 X117.349 Y125.845 E175.72512
G1 X99.022 Y107.517 E179.24426
G1 X99.377 Y106.639 E179.37290
G1 X118.486 Y125.748 E183.04199
G1 X119.622 Y125.651 E183.19688
G1 X99.700 Y105.728 E187.02224
G1 X100.023 Y104.817 E187.15348
G1 X120.491 Y125.285 E191.08366
G1 X121.346 Y124.907 E191.21063
G1 X100.346 Y103.906 E195.24300
G1 X100.669 Y102.995 E195.37423
G1 X122.201 Y124.528 E199.50879
G1 X123.056 Y124.149 E199.63576
G1 X100.982 Y102.075 E203.87428
G1 X101.443 Y101.302 E203.99648
G1 X123.911 Y123.770 E208.31068
G1 X124.740 Y123.365 E208.43595
G1 X101.988 Y100.613 E212.80463
G1 X102.534 Y99.925 E212.92389
G1 X125.387 Y122.779 E217.31211
G1 X126.028 Y122.185 E217.43066
G1 X103.079 Y99.236 E221.83722
G1 X103.625 Y98.548 E221.95648
G1 X126.669 Y121.592 E226.38137
G1 X127.310 Y120.999 E226.49992
G1 X104.163 Y97.852 E230.94449
G1 X104.823 Y97.278 E231.06324
G1 X127.951 Y120.406 E235.50420
G1 X128.555 Y119.777 E235.62269
G1 X105.574 Y96.795 E240.03548
G1 X106.325 Y96.312 E240.15671
G1 X128.989 Y118.977 E244.50858
G1 X129.423 Y118.177 E244.63215
G1 X107.076 Y95.830 E248.92311
G1 X107.827 Y95.347 E249.04434
G1 X129.857 Y117.377 E253.27438
G1 X130.290 Y116.577 E253.39795
G1 X108.569 Y94.855 E257.56885
G1 X109.463 Y94.516 E257.69877
G1 X130.724 Y115.776 E261.78116
G1 X131.092 Y114.911 E261.90890
G1 X110.453 Y94.271 E265.87191
G1 X111.443 Y94.027 E266.01032
G1 X131.252 Y113.837 E269.81405
G1 X131.428 Y112.779 E269.95965
G1 X112.432 Y93.783 E273.60714
G1 X113.422 Y93.539 E273.74555
G1 X131.604 Y111.721 E277.23678
G1 X131.780 Y110.663 E277.38239
G1 X114.537 Y93.420 E280.69334
G1 X115.890 Y93.539 E280.87771
G1 X131.844 Y109.493 E283.94110
G1 X131.587 Y108.002 E284.14656
G1 X117.243 Y93.658 E286.90081
G1 X118.595 Y93.777 E287.08518
G1 X131.340 Y106.522 E289.53239
G1 X131.094 Y105.041 E289.73612
G1 X120.317 Y94.264 E291.80547
G1 X122.533 Y95.246 F7800.000
G1 X129.955 Y102.669 E293.23070 F1800.000
G1 X128.511 Y99.991 F7800.000
G1 X127.854 Y99.334 E293.35687 F1800.000
G1 X99.518 Y112.949 F7800.000
G1 X112.113 Y125.544 E295.77530 F1800.000
G1 X110.475 Y125.140 E296.00435
G1 X100.195 Y114.860 E297.97826
G1 X100.872 Y116.771 F7800.000
G1 X108.264 Y124.163 E299.39759 F1800.000
G1 X104.896 Y122.029 F7800.000
G1 X104.288 Y121.421 E299.51437 F1800.000
M104 S200 ; set temperature
G1 Z2.200 F7800.000
G1 X103.875 Y121.749 F7800.000
G1 X101.044 Y118.170 E300.41182 F1800.000
G1 X100.853 Y117.851 E300.48493
G1 X100.473 Y117.040 E300.66109
G1 X99.368 Y113.922 E301.31173
G1 X98.982 Y112.543 E301.59337
G1 X98.434 Y111.277 E301.86484
G1 X97.279 Y110.309 E302.16117
G1 X95.900 Y109.982 E302.43999
G1 X95.107 Y109.982 E302.59587
G1 X93.728 Y110.309 E302.87469
G1 X92.573 Y111.277 E303.17103
G1 X92.035 Y112.520 E303.43753
G1 X90.890 Y115.750 E304.11148
G1 X90.595 Y116.868 E304.33904
G1 X90.171 Y117.810 E304.54223
G1 X88.115 Y120.405 E305.19333
G1 X87.474 Y121.368 E305.42089
G1 X86.768 Y122.122 E305.62408
G1 X83.983 Y123.912 E306.27518
G1 X83.065 Y124.615 E306.50273
G1 X82.153 Y125.100 E306.70593
G1 X78.939 Y125.893 E307.35704
G1 X77.842 Y126.261 E307.58460
G1 X76.822 Y126.425 E307.78779
G1 X73.524 Y126.135 E308.43892
G1 X72.367 Y126.129 E308.66648
G1 X71.349 Y125.954 E308.86967
G1 X68.323 Y124.612 E309.52084
G1 X67.230 Y124.232 E309.74839
G1 X66.323 Y123.737 E309.95158
G1 X63.894 Y121.488 E310.60279
G1 X62.983 Y120.774 E310.83035
G1 X62.285 Y120.012 E311.03353
G1 X60.714 Y117.098 E311.68480
G1 X60.083 Y116.128 E311.91236
G1 X59.670 Y115.181 E312.11554
G1 X59.126 Y111.915 E312.76686
G1 X58.843 Y110.793 E312.99443
G1 X58.758 Y109.763 E313.19760
G1 X59.302 Y106.497 E313.84892
G1 X59.397 Y105.344 E314.07650
G1 X59.657 Y104.312 E314.28582
G1 X60.096 Y103.308 E314.50122
G1 X61.667 Y100.393 E315.15257
G1 X62.264 Y99.475 E315.36799
G1 X63.004 Y98.668 E315.58339
G1 X65.434 Y96.418 E316.23468
G1 X66.296 Y95.743 E316.45011
G1 X67.257 Y95.218 E316.66551
G1 X70.284 Y93.876 E317.31676
G1 X71.318 Y93.516 E317.53219
G1 X72.398 Y93.330 E317.74759
G1 X75.696 Y93.040 E318.39881
G1 X76.791 Y93.034 E318.61424
G1 X77.872 Y93.208 E318.82964
G1 X81.087 Y94.001 E319.48083 F1800.000
G1 X82.125 Y94.349 E319.69627
G1 X83.092 Y94.864 E319.91166
G1 X85.877 Y96.654 E320.56285
G1 X86.746 Y97.320 E320.77828
G1 X87.495 Y98.119 E320.99368
G1 X89.551 Y100.714 E321.64486
G1 X90.158 Y101.626 E321.86029
G1 X90.608 Y102.624 E322.07570
G1 X91.713 Y105.743 E322.72641
G1 X92.023 Y106.916 E322.96511
G1 X92.573 Y108.188 E323.23769
G1 X93.728 Y109.155 E323.53403
G1 X95.107 Y109.482 E323.81285
G1 X95.900 Y109.482 E323.96873
G1 X97.279 Y109.155 E324.24755
G1 X98.434 Y108.188 E324.54389
G1 X98.972 Y106.944 E324.81039
G1 X100.119 Y103.705 E325.48630
G1 X100.301 Y102.934 E325.64217
G1 X100.538 Y102.265 E325.78183
G1 X100.829 Y101.663 E325.91336
G1 X102.898 Y99.051 E326.56858
G1 X103.319 Y98.380 E326.72445
G1 X103.760 Y97.824 E326.86411
G1 X104.230 Y97.348 E326.99563
G1 X107.032 Y95.547 E327.65078
G1 X107.648 Y95.048 E327.80664
G1 X108.245 Y94.664 E327.94630
G1 X108.844 Y94.367 E328.07783
G1 X112.078 Y93.569 E328.73295
G1 X112.822 Y93.296 E328.88880
G1 X113.511 Y93.126 E329.02847
G1 X114.174 Y93.039 E329.15999
G1 X117.492 Y93.330 E329.81512
G1 X118.284 Y93.313 E329.97098
G1 X118.991 Y93.375 E330.11064
G1 X119.647 Y93.507 E330.24217
G1 X122.692 Y94.856 E330.89735
G1 X123.448 Y95.096 E331.05321
G1 X124.097 Y95.384 E331.19287
G1 X124.675 Y95.720 E331.32439
G1 X127.120 Y97.983 E331.97967
G1 X127.757 Y98.454 E332.13553
G1 X128.278 Y98.937 E332.27519
G1 X128.716 Y99.442 E332.40671
G1 X130.297 Y102.375 E333.06212
G1 X130.747 Y103.027 E333.21798
G1 X131.084 Y103.652 E333.35764
G1 X131.335 Y104.272 E333.48915
G1 X131.882 Y107.560 E334.14474
G1 X132.097 Y108.323 E334.30061
G1 X132.213 Y109.023 E334.44027
G1 X132.250 Y109.691 E334.57176
G1 X131.706 Y112.962 E335.22410
G1 X131.569 Y114.343 E335.49706
G1 X131.347 Y115.166 E335.66459
G1 X131.208 Y115.531 E335.74138
G1 X128.977 Y119.668 E336.66601
G1 X128.751 Y119.981 E336.74197
G1 X128.166 Y120.640 E336.91523
G1 X125.736 Y122.889 E337.56648
G1 X124.724 Y123.708 E337.82260
G1 X121.709 Y125.044 E338.47124
G1 X120.478 Y125.689 E338.74446
G1 X119.676 Y125.953 E338.91061
G1 X119.288 Y126.040 E338.98882
G1 X114.606 Y126.449 E339.91318
G1 X114.228 Y126.433 E339.98772
G1 X113.349 Y126.306 E340.16242
G1 X110.135 Y125.513 E340.81354
G1 X108.898 Y125.119 E341.06874
G1 X106.121 Y123.333 E341.71824
G1 X104.907 Y122.659 E341.99142
G1 X104.250 Y122.138 E342.15620
G1 X104.023 Y121.917 E342.21859
G1 E340.21859 F2400.00000
G92 E0
G1 X101.250 Y118.029 F7800.000
G1 X101.854 Y109.732 F7800.000
G1 X93.322 Y109.732 F7800.000
G1 X81.621 Y109.683 F7800.000
G1 X75.545 Y109.635 F7800.000
G1 X75.504 Y109.732 F7800.000
G1 X78.403 Y111.336 F7800.000
G1 X90.651 Y115.676 F7800.000
G1 X90.170 Y114.592 F7800.000
G1 E2.00000 F2400.00000
G1 X80.246 Y124.516 E5.54018 F1200.000
G1 X77.091 Y125.379 E6.36515
G1 X91.521 Y110.949 E11.51261
G1 X91.770 Y108.408 E12.15661
G1 X74.835 Y125.344 E18.19787
G1 X72.685 Y125.201 E18.74120
G1 X91.102 Y106.784 E25.31094
G1 X90.569 Y105.024 E25.77467
G1 X70.789 Y124.805 E32.83096
G1 X69.200 Y124.101 E33.26919
G1 X89.970 Y103.332 E40.67812
G1 X89.271 Y101.738 E41.11707
G1 X67.553 Y123.456 E48.86450
G1 X66.186 Y122.531 E49.28091
G1 X88.301 Y100.415 E57.17008
G1 X87.288 Y99.136 E57.58168
G1 X64.995 Y121.429 E65.53407
G1 X63.759 Y120.373 E65.94419
G1 X86.204 Y97.928 E73.95091
G1 X84.876 Y96.964 E74.36489
G1 X62.724 Y119.116 E82.26721
G1 X61.921 Y117.627 E82.69401
G1 X83.481 Y96.067 E90.38501
G1 X82.034 Y95.221 E90.80767
G1 X61.074 Y116.181 E98.28481
G1 X60.451 Y114.512 E98.73428
G1 X80.276 Y94.687 E105.80629
G1 X78.437 Y94.233 E106.28401
G1 X60.124 Y112.546 E112.81670
G1 X59.739 Y110.639 E113.30743
G1 X76.408 Y93.970 E119.25367
G1 X73.923 Y94.163 E119.88241
G1 X60.052 Y108.034 E124.83035
G1 X60.456 Y105.337 E125.51812
G1 X71.058 Y94.736 E129.29992
G1 E127.29992 F2400.00000
G92 E0
G1 X64.628 Y98.873 F7800.000
G1 E2.00000 F2400.00000
G1 X63.259 Y100.242 E2.48853 F1200.000
G1 E0.48853 F2400.00000
G92 E0
G1 X85.526 Y121.529 F7800.000
G1 E2.00000 F2400.00000
G1 X86.705 Y120.350 E2.42056 F1200.000
G1 E0.42056 F2400.00000
G92 E0
G1 X91.201 Y109.732 F7800.000
G1 X95.929 Y109.732 F7800.000
G1 X97.685 Y109.732 F7800.000
G1 X99.805 Y109.732 F7800.000
G1 X99.805 Y109.732 F7800.000
G1 X98.640 Y108.341 F7800.000
G1 X99.491 Y108.503 F7800.000
G1 E2.00000 F2400.00000
G1 X113.912 Y94.082 E7.14632 F1200.000
G1 X116.166 Y94.121 E7.71518
G1 X99.235 Y111.052 E13.75712
G1 X99.904 Y112.676 E14.20027
G1 X118.328 Y94.251 E20.77489
G1 X120.215 Y94.658 E21.26178
G1 X100.439 Y114.434 E28.31879
G1 X101.039 Y116.127 E28.77205
G1 X121.804 Y95.362 E36.18199
G1 X123.458 Y96.001 E36.62950
G1 X101.723 Y117.736 E44.38575
G1 X102.730 Y119.022 E44.79790
G1 X124.820 Y96.933 E52.68055
G1 X126.011 Y98.035 E53.09000
G1 X103.743 Y120.303 E61.03621
G1 X104.795 Y121.543 E61.44674
G1 X127.261 Y99.078 E69.46354
G1 X128.283 Y100.349 E69.87508
G1 X106.187 Y122.444 E77.75991
G1 X107.596 Y123.329 E78.17963
G1 X129.086 Y101.838 E85.84836
G1 X129.946 Y103.272 E86.27014
G1 X108.992 Y124.226 E93.74748
