; G-Code generated by Simplify3D(R) Version 3.1.1
; Apr 30, 2019 at 7:41:46 AM
; Settings Summary
;   processName,Gutroff_Olli
;   applyToModels,test_o
;   profileName,Default (modified)
;   profileVersion,2015-05-01 08:00:00
;   baseProfile,
;   printMaterial,PLA
;   printQuality,High
;   printExtruders,
;   extruderName,Primary Extruder
;   extruderToolheadNumber,0
;   extruderDiameter,1
;   extruderAutoWidth,0
;   extruderWidth,2.4
;   extrusionMultiplier,1
;   extruderUseRetract,0
;   extruderRetractionDistance,0
;   extruderExtraRestartDistance,0
;   extruderRetractionZLift,5
;   extruderRetractionSpeed,1800
;   extruderUseCoasting,0
;   extruderCoastingDistance,0.2
;   extruderUseWipe,0
;   extruderWipeDistance,5
;   primaryExtruder,0
;   layerHeight,2.5
;   topSolidLayers,0
;   bottomSolidLayers,0
;   perimeterOutlines,1
;   printPerimetersInsideOut,0
;   startPointOption,1
;   startPointOriginX,0
;   startPointOriginY,0
;   startPointOriginZ,300
;   sequentialIslands,0
;   spiralVaseMode,0
;   firstLayerHeightPercentage,100
;   firstLayerWidthPercentage,100
;   firstLayerUnderspeed,1
;   useRaft,0
;   raftExtruder,0
;   raftLayers,3
;   raftOffset,3
;   raftSeparationDistance,0.14
;   raftInfill,85
;   disableRaftBaseLayers,0
;   useSkirt,0
;   skirtExtruder,0
;   skirtLayers,2
;   skirtOutlines,2
;   skirtOffset,4
;   usePrimePillar,0
;   primePillarExtruder,999
;   primePillarWidth,12
;   primePillarLocation,7
;   primePillarSpeedMultiplier,1
;   useOozeShield,0
;   oozeShieldExtruder,999
;   oozeShieldOffset,2
;   oozeShieldOutlines,1
;   oozeShieldSidewallShape,1
;   oozeShieldSidewallAngle,30
;   oozeShieldSpeedMultiplier,1
;   infillExtruder,0
;   internalInfillPattern,Rectilinear
;   externalInfillPattern,Rectilinear
;   infillPercentage,0
;   outlineOverlapPercentage,99
;   infillExtrusionWidthPercentage,100
;   minInfillLength,4
;   infillLayerInterval,1
;   infillAngles,45,-45
;   overlapInfillAngles,0
;   generateSupport,0
;   supportExtruder,0
;   supportInfillPercentage,40
;   supportExtraInflation,0
;   denseSupportLayers,0
;   denseSupportInfillPercentage,70
;   supportLayerInterval,1
;   supportHorizontalPartOffset,0.3
;   supportUpperSeparationLayers,1
;   supportLowerSeparationLayers,1
;   supportType,0
;   supportGridSpacing,4
;   maxOverhangAngle,45
;   supportAngles,0
;   temperatureName,Primary Extruder
;   temperatureNumber,0
;   temperatureSetpointCount,1
;   temperatureSetpointLayers,1
;   temperatureSetpointTemperatures,0
;   temperatureStabilizeAtStartup,1
;   temperatureHeatedBed,0
;   temperatureRelayBetweenLayers,0
;   temperatureRelayBetweenLoops,0
;   fanLayers,1,2
;   fanSpeeds,0,100
;   blipFanToFullPower,0
;   adjustSpeedForCooling,0
;   minSpeedLayerTime,15
;   minCoolingSpeedSlowdown,20
;   increaseFanForCooling,0
;   minFanLayerTime,45
;   maxCoolingFanSpeed,100
;   increaseFanForBridging,0
;   bridgingFanSpeed,100
;   use5D,1
;   relativeEdistances,0
;   allowEaxisZeroing,1
;   independentExtruderAxes,0
;   includeM10123,0
;   stickySupport,1
;   applyToolheadOffsets,0
;   gcodeXoffset,0
;   gcodeYoffset,0
;   gcodeZoffset,0
;   overrideMachineDefinition,0
;   machineTypeOverride,0
;   strokeXoverride,200
;   strokeYoverride,200
;   strokeZoverride,200
;   originOffsetXoverride,0
;   originOffsetYoverride,0
;   originOffsetZoverride,0
;   homeXdirOverride,-1
;   homeYdirOverride,-1
;   homeZdirOverride,-1
;   flipXoverride,1
;   flipYoverride,-1
;   flipZoverride,1
;   toolheadOffsets,0,0|0,0|0,0|0,0|0,0|0,0
;   overrideFirmwareConfiguration,0
;   firmwareTypeOverride,RepRap (Marlin/Repetier/Sprinter)
;   GPXconfigOverride,r2
;   baudRateOverride,115200
;   overridePrinterModels,0
;   printerModelsOverride
;   startingGcode,##Start
;   layerChangeGcode,#LayerChange
;   retractionGcode,#Retraction
;   toolChangeGcode,
;   endingGcode,##End
;   exportFileFormat,gcode
;   celebration,0
;   celebrationSong,Random Song
;   postProcessing,
;   defaultSpeed,600
;   outlineUnderspeed,1
;   solidInfillUnderspeed,0.8
;   supportUnderspeed,0.8
;   rapidXYspeed,4800
;   rapidZspeed,1000
;   minBridgingArea,40
;   bridgingExtraInflation,1
;   bridgingExtrusionMultiplier,1
;   bridgingSpeedMultiplier,1
;   filamentDiameter,1.75
;   filamentPricePerKg,46
;   filamentDensity,1.25
;   useMinPrintHeight,0
;   minPrintHeight,0
;   useMaxPrintHeight,0
;   maxPrintHeight,0
;   useDiaphragm,0
;   diaphragmLayerInterval,3
;   robustSlicing,0
;   mergeAllIntoSolid,0
;   onlyRetractWhenCrossingOutline,1
;   retractBetweenLayers,0
;   useRetractionMinTravel,0
;   retractionMinTravel,3
;   retractWhileWiping,0
;   onlyWipeOutlines,1
;   avoidCrossingOutline,0
;   maxMovementDetourFactor,3
;   toolChangeRetractionDistance,0
;   toolChangeExtraRestartDistance,0
;   toolChangeRetractionSpeed,600
;   allowThinWallGapFill,1
;   thinWallAllowedOverlapPercentage,50
;   horizontalSizeCompensation,0
G90
M82
M106 S0
M104 S0 T0
##Start
G92 E0
#Retraction
G1 E0.0000 F1800
G1 Z7.500 F1000
; layer 1, Z = 2.5
#LayerChange
T0
; tool H2.500 W2.400
; outer perimeter
G1 X0.948 Y-29.729 F4800
G1 Z2.500 F1000
G1 E0.0000 F540
G92 E0
G1 X5.812 Y-29.303 E12.1779 F600
G1 X10.566 Y-28.030 E24.4563
G1 X10.958 Y-27.914 E25.4760
G1 X15.351 Y-25.866 E37.5654
G1 X19.413 Y-23.022 E49.9369
G1 X19.757 Y-22.801 E50.9555
G1 X23.198 Y-19.360 E63.0952
G1 X23.466 Y-19.051 E64.1148
G1 X26.261 Y-15.059 E76.2715
G1 X28.516 Y-10.212 E89.6061
G1 X29.767 Y-5.545 E101.6596
G1 X30.200 Y-0.596 E114.0514
G1 X30.258 Y-0.192 E115.0698
G1 X29.834 Y4.657 E127.2112
G1 X29.776 Y5.061 E128.2307
G1 X28.516 Y9.761 E140.3679
G1 X26.261 Y14.607 E153.7025
G1 X23.466 Y18.599 E165.8589
G1 X23.198 Y18.908 E166.8784
G1 X19.740 Y22.366 E179.0783
G1 X15.716 Y25.184 E191.3309
G1 X15.372 Y25.405 E192.3507
G1 X10.971 Y27.457 E204.4639
G1 X6.189 Y28.738 E216.8138
G1 X5.797 Y28.853 E217.8327
G1 X0.948 Y29.278 E229.9747
G1 X0.539 Y29.278 E230.9944
G1 X-4.324 Y28.852 E243.1723
G1 X-9.078 Y27.578 E255.4510
G1 X-9.470 Y27.463 E256.4704
G1 X-13.863 Y25.415 E268.5598
G1 X-17.925 Y22.570 E280.9313
G1 X-18.269 Y22.349 E281.9499
G1 X-21.710 Y18.908 E294.0899
G1 X-21.978 Y18.599 E295.1093
G1 X-24.773 Y14.607 E307.2659
G1 X-27.029 Y9.761 E320.6004
G1 X-28.279 Y5.094 E332.6540
G1 X-28.712 Y0.145 E345.0458
G1 X-28.770 Y-0.259 E346.0641
G1 X-28.346 Y-5.108 E358.2056
G1 X-28.288 Y-5.513 E359.2251
G1 X-27.029 Y-10.212 E371.3623
G1 X-24.773 Y-15.059 E384.6969
G1 X-21.978 Y-19.051 E396.8534
G1 X-21.710 Y-19.360 E397.8731
G1 X-18.252 Y-22.818 E410.0727
G1 X-14.228 Y-25.635 E422.3255
G1 X-13.885 Y-25.856 E423.3450
G1 X-9.483 Y-27.908 E435.4584
G1 X-4.701 Y-29.190 E447.8083
G1 X-4.309 Y-29.305 E448.8271
G1 X0.539 Y-29.729 E460.9690
G1 X0.948 Y-29.729 E461.9888
; layer 2, Z = 5
M106 S255
#LayerChange
; outer perimeter
G1 X-29.822 Y-4.732 F4800
G1 Z5.000 F1000
G92 E0
G1 X-29.618 Y-6.153 E3.5815 F600
G1 X-28.456 Y-10.489 E14.7788
G1 X-25.933 Y-15.928 E29.7339
G1 X-23.355 Y-19.610 E40.9470
G1 X-22.415 Y-20.695 E44.5288
G1 X-19.223 Y-23.886 E55.7874
G1 X-15.509 Y-26.487 E67.0991
G1 X-14.301 Y-27.263 E70.6802
G1 X-10.242 Y-29.156 E81.8519
G1 X-5.824 Y-30.340 E93.2603
G1 X-4.447 Y-30.744 E96.8412
G1 X0.026 Y-31.136 E108.0419
G1 X1.462 Y-31.136 E111.6237
G1 X5.949 Y-30.743 E122.8604
G1 X10.339 Y-29.567 E134.1976
G1 X11.717 Y-29.162 E137.7789
G1 X15.767 Y-27.274 E148.9268
G1 X19.520 Y-24.645 E160.3568
G1 X20.728 Y-23.869 E163.9374
G1 X23.902 Y-20.695 E175.1364
G1 X24.843 Y-19.610 E178.7179
G1 X27.421 Y-15.928 E189.9310
G1 X29.944 Y-10.489 E204.8861
G1 X31.097 Y-6.186 E215.9998
G1 X31.497 Y-1.613 E227.4505
G1 X31.701 Y-0.192 E231.0310
G1 X31.310 Y4.281 E242.2309
G1 X31.106 Y5.702 E245.8129
G1 X29.944 Y10.038 E257.0102
G1 X27.421 Y15.476 E271.9652
G1 X24.843 Y19.158 E283.1782
G1 X23.902 Y20.244 E286.7598
G1 X20.711 Y23.435 E298.0188
G1 X16.997 Y26.036 E309.3298
G1 X15.789 Y26.812 E312.9115
G1 X11.730 Y28.705 E324.0831
G1 X7.312 Y29.888 E335.4915
G1 X5.935 Y30.293 E339.0724
G1 X1.462 Y30.684 E350.2732
G1 X0.026 Y30.684 E353.8549
G1 X-4.461 Y30.292 E365.0917
G1 X-8.851 Y29.115 E376.4288
G1 X-10.229 Y28.711 E380.0103
G1 X-14.279 Y26.822 E391.1580
G1 X-18.033 Y24.194 E402.5881
G1 X-19.240 Y23.418 E406.1686
G1 X-22.415 Y20.243 E417.3677
G1 X-23.355 Y19.158 E420.9491
G1 X-25.933 Y15.476 E432.1624
G1 X-28.456 Y10.038 E447.1173
G1 X-29.609 Y5.734 E458.2311
G1 X-30.009 Y1.161 E469.6817
G1 X-30.214 Y-0.259 E473.2621
G1 X-29.822 Y-4.732 E484.4625
; layer 3, Z = 7.5
#LayerChange
; outer perimeter
G1 X24.607 Y-22.030 F4800
G1 Z7.500 F1000
G92 E0
G1 X26.220 Y-20.169 E6.1441 F600
G1 X28.582 Y-16.795 E16.4189
G1 X30.348 Y-13.009 E26.8397
G1 X31.371 Y-10.769 E32.9824
G1 X32.427 Y-6.826 E43.1636
G1 X32.794 Y-2.629 E53.6731
G1 X33.145 Y-0.192 E59.8156
G1 X32.786 Y3.905 E70.0743
G1 X32.436 Y6.343 E76.2184
G1 X31.372 Y10.313 E86.4711
G1 X29.603 Y14.107 E96.9151
G1 X28.580 Y16.347 E103.0583
G1 X26.220 Y19.718 E113.3210
G1 X24.607 Y21.579 E119.4646
G1 X21.682 Y24.504 E129.7826
G1 X18.277 Y26.888 E140.1518
G1 X16.205 Y28.220 E146.2960
G1 X12.488 Y29.953 E156.5259
G1 X8.435 Y31.039 E166.9927
G1 X6.073 Y31.732 E173.1356
G1 X1.975 Y32.091 E183.3952
G1 X-0.488 Y32.091 E189.5390
G1 X-4.599 Y31.731 E199.8345
G1 X-8.625 Y30.653 E210.2301
G1 X-10.988 Y29.959 E216.3735
G1 X-14.696 Y28.230 E226.5797
G1 X-18.140 Y25.818 E237.0683
G1 X-20.211 Y24.487 E243.2108
G1 X-23.119 Y21.579 E253.4689
G1 X-24.732 Y19.718 E259.6124
G1 X-27.095 Y16.344 E269.8873
G1 X-28.860 Y12.557 E280.3079
G1 X-29.883 Y10.317 E286.4507
G1 X-30.939 Y6.375 E296.6320
G1 X-31.307 Y2.178 E307.1415
G1 X-31.657 Y-0.259 E313.2838
G1 X-31.299 Y-4.356 E323.5427
G1 X-30.948 Y-6.794 E329.6867
G1 X-29.884 Y-10.764 E339.9395
G1 X-28.115 Y-14.559 E350.3835
G1 X-27.092 Y-16.799 E356.5266
G1 X-24.732 Y-20.169 E366.7894
G1 X-23.119 Y-22.030 E372.9332
G1 X-20.195 Y-24.955 E383.2508
G1 X-16.789 Y-27.339 E393.6211
G1 X-14.717 Y-28.671 E399.7642
G1 X-11.001 Y-30.404 E409.9943
G1 X-6.948 Y-31.490 E420.4610
G1 X-4.585 Y-32.184 E426.6040
G1 X-0.488 Y-32.542 E436.8635
G1 X1.975 Y-32.542 E443.0074
G1 X6.087 Y-32.183 E453.3029
G1 X10.112 Y-31.104 E463.6985
G1 X12.475 Y-30.410 E469.8419
G1 X16.183 Y-28.681 E480.0480
G1 X19.628 Y-26.269 E490.5367
G1 X21.699 Y-24.938 E496.6794
G1 X24.607 Y-22.030 E506.9367
; layer 4, Z = 10
#LayerChange
; outer perimeter
G1 X32.799 Y-11.045 F4800
G1 Z10.000 F1000
G92 E0
G1 X33.757 Y-7.467 E9.2396 F600
G1 X34.092 Y-3.646 E18.8079
G1 X34.588 Y-0.192 E27.5124
G1 X34.263 Y3.529 E36.8300
G1 X33.766 Y6.984 E45.5362
G1 X32.800 Y10.589 E54.8472
G1 X31.190 Y14.041 E64.3496
G1 X29.740 Y17.216 E73.0548
G1 X27.597 Y20.277 E82.3761
G1 X25.312 Y22.914 E91.0816
G1 X22.654 Y25.572 E100.4585
G1 X19.557 Y27.740 E109.8874
G1 X16.622 Y29.627 E118.5925
G1 X13.247 Y31.201 E127.8809
G1 X9.559 Y32.189 E137.4061
G1 X6.210 Y33.172 E146.1110
G1 X2.489 Y33.498 E155.4295
G1 X-1.001 Y33.498 E164.1353
G1 X-4.737 Y33.171 E173.4897
G1 X-8.398 Y32.190 E182.9437
G1 X-11.746 Y31.207 E191.6492
G1 X-15.112 Y29.637 E200.9136
G1 X-18.247 Y27.442 E210.4608
G1 X-21.183 Y25.555 E219.1655
G1 X-23.824 Y22.914 E228.4825
G1 X-26.109 Y20.277 E237.1881
G1 X-28.255 Y17.212 E246.5213
G1 X-29.861 Y13.768 E256.0004
G1 X-31.311 Y10.594 E264.7052
G1 X-32.269 Y7.016 E273.9449
G1 X-32.604 Y3.195 E283.5132
G1 X-33.100 Y-0.259 E292.2176
G1 X-32.775 Y-3.980 E301.5353
G1 X-32.278 Y-7.435 E310.2415
G1 X-31.312 Y-11.040 E319.5526
G1 X-29.702 Y-14.493 E329.0549
G1 X-28.253 Y-17.667 E337.7601
G1 X-26.109 Y-20.728 E347.0814
G1 X-23.824 Y-23.366 E355.7873
G1 X-21.166 Y-26.024 E365.1638
G1 X-18.070 Y-28.192 E374.5927
G1 X-15.134 Y-30.078 E383.2978
G1 X-11.759 Y-31.652 E392.5863
G1 X-8.071 Y-32.640 E402.1114
G1 X-4.722 Y-33.623 E410.8164
G1 X-1.001 Y-33.949 E420.1348
G1 X2.489 Y-33.949 E428.8407
G1 X6.225 Y-33.622 E438.1951
G1 X9.885 Y-32.641 E447.6488
G1 X13.234 Y-31.658 E456.3545
G1 X16.600 Y-30.088 E465.6189
G1 X19.735 Y-27.893 E475.1661
G1 X22.671 Y-26.007 E483.8710
G1 X25.312 Y-23.366 E493.1875
G1 X27.597 Y-20.728 E501.8932
G1 X29.743 Y-17.663 E511.2267
G1 X31.349 Y-14.219 E520.7058
G1 X32.799 Y-11.045 E529.4106
; layer 5, Z = 12.5
#LayerChange
; outer perimeter
G1 X-31.290 Y-14.427 F4800
G1 Z12.500 F1000
G92 E0
G1 X-29.413 Y-18.535 E11.2672 F600
G1 X-27.486 Y-21.287 E19.6471
G1 X-24.528 Y-24.701 E30.9150
G1 X-22.137 Y-27.092 E39.3506
G1 X-19.350 Y-29.044 E47.8371
G1 X-15.550 Y-31.486 E59.1052
G1 X-12.518 Y-32.900 E67.4520
G1 X-9.194 Y-33.790 E76.0355
G1 X-4.860 Y-35.063 E87.3025
G1 X-1.515 Y-35.356 E95.6798
G1 X3.002 Y-35.356 E106.9477
G1 X6.362 Y-35.062 E115.3609
G1 X9.658 Y-34.178 E123.8730
G1 X13.992 Y-32.906 E135.1407
G1 X17.016 Y-31.496 E143.4637
G1 X19.842 Y-29.517 E152.0693
G1 X23.642 Y-27.075 E163.3361
G1 X26.016 Y-24.701 E171.7117
G1 X28.974 Y-21.287 E182.9794
G1 X30.904 Y-18.531 E191.3716
G1 X32.350 Y-15.430 E199.9077
G1 X34.226 Y-11.321 E211.1758
G1 X35.087 Y-8.108 E219.4738
G1 X35.389 Y-4.663 E228.1010
G1 X36.032 Y-0.192 E239.3675
G1 X35.739 Y3.153 E247.7439
G1 X35.096 Y7.624 E259.0121
G1 X34.228 Y10.865 E267.3816
G1 X32.777 Y13.975 E275.9423
G1 X30.901 Y18.084 E287.2094
G1 X28.974 Y20.836 E295.5896
G1 X26.016 Y24.250 E306.8570
G1 X23.625 Y26.641 E315.2930
G1 X20.838 Y28.592 E323.7794
G1 X17.038 Y31.034 E335.0476
G1 X14.005 Y32.448 E343.3942
G1 X10.682 Y33.339 E351.9778
G1 X6.348 Y34.611 E363.2448
G1 X3.002 Y34.904 E371.6221
G1 X-1.515 Y34.904 E382.8899
G1 X-4.875 Y34.610 E391.3031
G1 X-8.171 Y33.727 E399.8155
G1 X-12.505 Y32.454 E411.0830
G1 X-15.528 Y31.044 E419.4059
G1 X-18.354 Y29.066 E428.0116
G1 X-22.154 Y26.624 E439.2783
G1 X-24.528 Y24.250 E447.6542
G1 X-27.486 Y20.836 E458.9219
G1 X-29.416 Y18.080 E467.3138
G1 X-30.862 Y14.979 E475.8498
G1 X-32.739 Y10.870 E487.1180
G1 X-33.600 Y7.657 E495.4161
G1 X-33.901 Y4.211 E504.0432
G1 X-34.544 Y-0.259 E515.3097
G1 X-34.251 Y-3.604 E523.6862
G1 X-33.608 Y-8.076 E534.9544
G1 X-32.740 Y-11.316 E543.3239
G1 X-31.290 Y-14.427 E551.8845
; layer 6, Z = 15
#LayerChange
; outer perimeter
G1 X36.426 Y8.265 F4800
G1 Z15.000 F1000
G92 E0
G1 X35.655 Y11.141 E7.4279 F600
G1 X34.365 Y13.909 E15.0469
G1 X32.062 Y18.952 E28.8762
G1 X30.351 Y21.395 E36.3146
G1 X26.721 Y25.585 E50.1443
G1 X24.596 Y27.709 E57.6391
G1 X22.118 Y29.444 E65.1846
G1 X17.454 Y32.442 E79.0145
G1 X14.764 Y33.696 E86.4194
G1 X11.805 Y34.489 E94.0614
G1 X6.486 Y36.051 E107.8904
G1 X3.516 Y36.311 E115.3265
G1 X-2.028 Y36.311 E129.1564
G1 X-5.012 Y36.050 E136.6285
G1 X-7.944 Y35.264 E144.1993
G1 X-13.263 Y33.702 E158.0288
G1 X-15.945 Y32.452 E165.4099
G1 X-18.462 Y30.690 E173.0743
G1 X-23.125 Y27.692 E186.9031
G1 X-25.233 Y25.585 E194.3380
G1 X-28.863 Y21.395 E208.1676
G1 X-30.577 Y18.948 E215.6181
G1 X-31.863 Y16.189 E223.2125
G1 X-34.166 Y11.146 E237.0427
G1 X-34.930 Y8.297 E244.3992
G1 X-35.198 Y5.228 E252.0852
G1 X-35.987 Y-0.259 E265.9136
G1 X-35.727 Y-3.229 E273.3490
G1 X-34.938 Y-8.716 E287.1792
G1 X-34.168 Y-11.593 E294.6071
G1 X-32.877 Y-14.361 E302.2261
G1 X-30.574 Y-19.404 E316.0554
G1 X-28.863 Y-21.846 E323.4938
G1 X-25.233 Y-26.036 E337.3238
G1 X-23.108 Y-28.161 E344.8183
G1 X-20.630 Y-29.896 E352.3644
G1 X-15.967 Y-32.893 E366.1936
G1 X-13.276 Y-34.148 E373.5986
G1 X-10.317 Y-34.941 E381.2406
G1 X-4.998 Y-36.502 E395.0697
G1 X-2.028 Y-36.762 E402.5058
G1 X3.516 Y-36.762 E416.3357
G1 X6.500 Y-36.501 E423.8078
G1 X9.431 Y-35.716 E431.3783
G1 X14.751 Y-34.154 E445.2080
G1 X17.433 Y-32.903 E452.5892
G1 X19.949 Y-31.141 E460.2535
G1 X24.613 Y-28.144 E474.0824
G1 X26.721 Y-26.036 E481.5169
G1 X30.351 Y-21.846 E495.3467
G1 X32.064 Y-19.400 E502.7974
G1 X33.351 Y-16.640 E510.3918
G1 X35.654 Y-11.597 E524.2220
G1 X36.417 Y-8.749 E531.5784
G1 X36.686 Y-5.679 E539.2645
G1 X37.475 Y-0.192 E553.0930
G1 X37.215 Y2.777 E560.5283
G1 X36.426 Y8.265 E574.3585
; layer 7, Z = 17.5
#LayerChange
; outer perimeter
G1 X31.728 Y-22.406 F4800
G1 Z17.500 F1000
G92 E0
G1 X33.225 Y-20.268 E6.5093 F600
G1 X34.352 Y-17.851 E13.1621
G1 X37.082 Y-11.873 E29.5543
G1 X37.748 Y-9.389 E35.9691
G1 X37.983 Y-6.696 E42.7140
G1 X38.918 Y-0.192 E59.1046
G1 X38.691 Y2.401 E65.5986
G1 X37.756 Y8.906 E81.9909
