; G-Code generated by Simplify3D(R) Version 3.1.1
; Apr 29, 2019 at 3:02:41 PM
; Settings Summary
;   processName,Gutroff_Olli
;   applyToModels,test_vase
;   profileName,Default (modified)
;   profileVersion,2015-05-01 08:00:00
;   baseProfile,
;   printMaterial,PLA
;   printQuality,High
;   printExtruders,
;   extruderName,Primary Extruder
;   extruderToolheadNumber,0
;   extruderDiameter,1
;   extruderAutoWidth,0
;   extruderWidth,2.4
;   extrusionMultiplier,1
;   extruderUseRetract,0
;   extruderRetractionDistance,0
;   extruderExtraRestartDistance,0
;   extruderRetractionZLift,5
;   extruderRetractionSpeed,1800
;   extruderUseCoasting,0
;   extruderCoastingDistance,0.2
;   extruderUseWipe,0
;   extruderWipeDistance,5
;   primaryExtruder,0
;   layerHeight,2.5
;   topSolidLayers,0
;   bottomSolidLayers,0
;   perimeterOutlines,1
;   printPerimetersInsideOut,0
;   startPointOption,1
;   startPointOriginX,0
;   startPointOriginY,0
;   startPointOriginZ,300
;   sequentialIslands,0
;   spiralVaseMode,0
;   firstLayerHeightPercentage,100
;   firstLayerWidthPercentage,100
;   firstLayerUnderspeed,1
;   useRaft,0
;   raftExtruder,0
;   raftLayers,3
;   raftOffset,3
;   raftSeparationDistance,0.14
;   raftInfill,85
;   disableRaftBaseLayers,0
;   useSkirt,0
;   skirtExtruder,0
;   skirtLayers,2
;   skirtOutlines,2
;   skirtOffset,4
;   usePrimePillar,0
;   primePillarExtruder,999
;   primePillarWidth,12
;   primePillarLocation,7
;   primePillarSpeedMultiplier,1
;   useOozeShield,0
;   oozeShieldExtruder,999
;   oozeShieldOffset,2
;   oozeShieldOutlines,1
;   oozeShieldSidewallShape,1
;   oozeShieldSidewallAngle,30
;   oozeShieldSpeedMultiplier,1
;   infillExtruder,0
;   internalInfillPattern,Rectilinear
;   externalInfillPattern,Rectilinear
;   infillPercentage,0
;   outlineOverlapPercentage,99
;   infillExtrusionWidthPercentage,100
;   minInfillLength,4
;   infillLayerInterval,1
;   infillAngles,45,-45
;   overlapInfillAngles,0
;   generateSupport,0
;   supportExtruder,0
;   supportInfillPercentage,40
;   supportExtraInflation,0
;   denseSupportLayers,0
;   denseSupportInfillPercentage,70
;   supportLayerInterval,1
;   supportHorizontalPartOffset,0.3
;   supportUpperSeparationLayers,1
;   supportLowerSeparationLayers,1
;   supportType,0
;   supportGridSpacing,4
;   maxOverhangAngle,45
;   supportAngles,0
;   temperatureName,Primary Extruder
;   temperatureNumber,0
;   temperatureSetpointCount,1
;   temperatureSetpointLayers,1
;   temperatureSetpointTemperatures,0
;   temperatureStabilizeAtStartup,1
;   temperatureHeatedBed,0
;   temperatureRelayBetweenLayers,0
;   temperatureRelayBetweenLoops,0
;   fanLayers,1,2
;   fanSpeeds,0,100
;   blipFanToFullPower,0
;   adjustSpeedForCooling,0
;   minSpeedLayerTime,15
;   minCoolingSpeedSlowdown,20
;   increaseFanForCooling,0
;   minFanLayerTime,45
;   maxCoolingFanSpeed,100
;   increaseFanForBridging,0
;   bridgingFanSpeed,100
;   use5D,1
;   relativeEdistances,0
;   allowEaxisZeroing,1
;   independentExtruderAxes,0
;   includeM10123,0
;   stickySupport,1
;   applyToolheadOffsets,0
;   gcodeXoffset,0
;   gcodeYoffset,0
;   gcodeZoffset,0
;   overrideMachineDefinition,0
;   machineTypeOverride,0
;   strokeXoverride,200
;   strokeYoverride,200
;   strokeZoverride,200
;   originOffsetXoverride,0
;   originOffsetYoverride,0
;   originOffsetZoverride,0
;   homeXdirOverride,-1
;   homeYdirOverride,-1
;   homeZdirOverride,-1
;   flipXoverride,1
;   flipYoverride,-1
;   flipZoverride,1
;   toolheadOffsets,0,0|0,0|0,0|0,0|0,0|0,0
;   overrideFirmwareConfiguration,0
;   firmwareTypeOverride,RepRap (Marlin/Repetier/Sprinter)
;   GPXconfigOverride,r2
;   baudRateOverride,115200
;   overridePrinterModels,0
;   printerModelsOverride
;   startingGcode,##Start
;   layerChangeGcode,#LayerChange
;   retractionGcode,#Retraction
;   toolChangeGcode,
;   endingGcode,##End
;   exportFileFormat,gcode
;   celebration,0
;   celebrationSong,Random Song
;   postProcessing,
;   defaultSpeed,600
;   outlineUnderspeed,1
;   solidInfillUnderspeed,0.8
;   supportUnderspeed,0.8
;   rapidXYspeed,4800
;   rapidZspeed,1000
;   minBridgingArea,40
;   bridgingExtraInflation,1
;   bridgingExtrusionMultiplier,1
;   bridgingSpeedMultiplier,1
;   filamentDiameter,1.75
;   filamentPricePerKg,46
;   filamentDensity,1.25
;   useMinPrintHeight,0
;   minPrintHeight,0
;   useMaxPrintHeight,0
;   maxPrintHeight,0
;   useDiaphragm,0
;   diaphragmLayerInterval,3
;   robustSlicing,0
;   mergeAllIntoSolid,0
;   onlyRetractWhenCrossingOutline,1
;   retractBetweenLayers,0
;   useRetractionMinTravel,0
;   retractionMinTravel,3
;   retractWhileWiping,0
;   onlyWipeOutlines,1
;   avoidCrossingOutline,0
;   maxMovementDetourFactor,3
;   toolChangeRetractionDistance,0
;   toolChangeExtraRestartDistance,0
;   toolChangeRetractionSpeed,600
;   allowThinWallGapFill,1
;   thinWallAllowedOverlapPercentage,50
;   horizontalSizeCompensation,0
G90
M82
M106 S0
M104 S0 T0
##Start
G92 E0
#Retraction
G1 E0.0000 F1800
G1 Z7.500 F1000
; layer 1, Z = 2.5
#LayerChange
T0
; tool H2.500 W2.400
; outer perimeter
G1 X-18.526 Y0.060 F4800
G1 Z2.500 F1000
G1 E0.0000 F540
G92 E0
G1 X-17.173 Y-6.742 E17.3001 F600
G1 X-17.147 Y-7.007 E17.9632
G1 X-17.138 Y-7.034 E18.0349
G1 X-13.285 Y-12.801 E35.3350
G1 X-13.160 Y-13.035 E35.9979
G1 X-13.142 Y-13.058 E36.0696
G1 X-7.375 Y-16.910 E53.3697
G1 X-7.170 Y-17.079 E54.0327
G1 X-7.144 Y-17.093 E54.1046
G1 X-0.342 Y-18.446 E71.4046
G1 X-0.088 Y-18.523 E72.0675
G1 X-0.060 Y-18.526 E72.1392
G1 X6.742 Y-17.173 E89.4393
G1 X7.007 Y-17.147 E90.1024
G1 X7.034 Y-17.138 E90.1741
G1 X12.801 Y-13.285 E107.4742
G1 X13.035 Y-13.160 E108.1371
G1 X13.058 Y-13.142 E108.2088
G1 X16.910 Y-7.375 E125.5089
G1 X17.079 Y-7.170 E126.1719
G1 X17.093 Y-7.144 E126.2438
G1 X18.446 Y-0.342 E143.5438
G1 X18.523 Y-0.088 E144.2067
G1 X18.526 Y-0.060 E144.2785
G1 X17.173 Y6.742 E161.5786
G1 X17.147 Y7.007 E162.2417
G1 X17.138 Y7.034 E162.3134
G1 X13.285 Y12.801 E179.6134
G1 X13.160 Y13.035 E180.2763
G1 X13.142 Y13.058 E180.3480
G1 X7.375 Y16.910 E197.6481
G1 X7.170 Y17.079 E198.3109
G1 X7.144 Y17.093 E198.3830
G1 X0.342 Y18.446 E215.6831
G1 X0.088 Y18.523 E216.3460
G1 X0.060 Y18.526 E216.4177
G1 X-6.742 Y17.173 E233.7177
G1 X-7.007 Y17.147 E234.3806
G1 X-7.034 Y17.138 E234.4525
G1 X-12.801 Y13.285 E251.7527
G1 X-13.035 Y13.160 E252.4156
G1 X-13.058 Y13.142 E252.4873
G1 X-16.910 Y7.375 E269.7873
G1 X-17.079 Y7.170 E270.4503
G1 X-17.093 Y7.144 E270.5223
G1 X-18.446 Y0.342 E287.8222
G1 X-18.523 Y0.088 E288.4852
G1 X-18.526 Y0.060 E288.5569
; layer 2, Z = 5
M106 S255
#LayerChange
; outer perimeter
G1 X12.010 Y-13.049 F4800
G1 Z5.000 F1000
G92 E0
G1 X12.534 Y-12.619 E1.6931 F600
G1 X15.508 Y-8.168 E15.0457
G1 X16.089 Y-7.460 E17.3302
G1 X16.409 Y-6.861 E19.0235
G1 X17.454 Y-1.611 E32.3760
G1 X17.719 Y-0.735 E34.6604
G1 X17.786 Y-0.060 E36.3537
G1 X16.741 Y5.190 E49.7062
G1 X16.652 Y6.102 E51.9907
G1 X16.455 Y6.751 E53.6840
G1 X13.481 Y11.202 E67.0365
G1 X13.049 Y12.010 E69.3209
G1 X12.619 Y12.534 E71.0141
G1 X8.168 Y15.508 E84.3667
G1 X7.460 Y16.089 E86.6513
G1 X6.861 Y16.409 E88.3445
G1 X1.611 Y17.454 E101.6971
G1 X0.735 Y17.719 E103.9814
G1 X0.060 Y17.786 E105.6747
G1 X-5.190 Y16.741 E119.0272
G1 X-6.102 Y16.652 E121.3116
G1 X-6.751 Y16.455 E123.0051
G1 X-11.202 Y13.481 E136.3576
G1 X-12.010 Y13.049 E138.6419
G1 X-12.534 Y12.619 E140.3352
G1 X-15.508 Y8.168 E153.6877
G1 X-16.089 Y7.460 E155.9722
G1 X-16.409 Y6.861 E157.6655
G1 X-17.454 Y1.611 E171.0181
G1 X-17.719 Y0.735 E173.3025
G1 X-17.786 Y0.060 E174.9957
G1 X-16.741 Y-5.190 E188.3482
G1 X-16.652 Y-6.102 E190.6326
G1 X-16.455 Y-6.751 E192.3260
G1 X-13.481 Y-11.202 E205.6786
G1 X-13.049 Y-12.010 E207.9629
G1 X-12.619 Y-12.534 E209.6562
G1 X-8.168 Y-15.508 E223.0087
G1 X-7.460 Y-16.089 E225.2932
G1 X-6.861 Y-16.409 E226.9866
G1 X-1.611 Y-17.454 E240.3391
G1 X-0.735 Y-17.719 E242.6234
G1 X-0.060 Y-17.786 E244.3167
G1 X5.190 Y-16.741 E257.6692
G1 X6.102 Y-16.652 E259.9536
G1 X6.751 Y-16.455 E261.6470
G1 X11.202 Y-13.481 E274.9996
G1 X12.010 Y-13.049 E277.2841
; layer 3, Z = 7.5
#LayerChange
; outer perimeter
G1 X-10.984 Y12.938 F4800
G1 Z7.500 F1000
G92 E0
G1 X-12.011 Y12.095 E3.3146 F600
G1 X-14.106 Y8.960 E12.7198
G1 X-15.099 Y7.750 E16.6256
G1 X-15.726 Y6.578 E19.9405
G1 X-16.461 Y2.880 E29.3456
G1 X-16.916 Y1.382 E33.2514
G1 X-17.046 Y0.060 E36.5660
G1 X-16.310 Y-3.638 E45.9712
G1 X-16.157 Y-5.197 E49.8770
G1 X-15.771 Y-6.468 E53.1918
G1 X-13.676 Y-9.603 E62.5970
G1 X-12.938 Y-10.984 E66.5028
G1 X-12.095 Y-12.011 E69.8174
G1 X-8.960 Y-14.106 E79.2226
G1 X-7.750 Y-15.099 E83.1285
G1 X-6.578 Y-15.726 E86.4433
G1 X-2.880 Y-16.461 E95.8484
G1 X-1.382 Y-16.916 E99.7542
G1 X-0.060 Y-17.046 E103.0689
G1 X3.638 Y-16.310 E112.4740
G1 X5.197 Y-16.157 E116.3798
G1 X6.468 Y-15.771 E119.6947
G1 X9.603 Y-13.676 E129.0998
G1 X10.984 Y-12.938 E133.0056
G1 X12.011 Y-12.095 E136.3203
G1 X14.106 Y-8.960 E145.7255
G1 X15.099 Y-7.750 E149.6314
G1 X15.726 Y-6.578 E152.9461
G1 X16.461 Y-2.880 E162.3512
G1 X16.916 Y-1.382 E166.2570
G1 X17.046 Y-0.060 E169.5717
G1 X16.310 Y3.638 E178.9769
G1 X16.157 Y5.197 E182.8828
G1 X15.771 Y6.468 E186.1975
G1 X13.677 Y9.603 E195.6026
G1 X12.938 Y10.984 E199.5086
G1 X12.095 Y12.011 E202.8231
G1 X8.960 Y14.106 E212.2283
G1 X7.750 Y15.099 E216.1341
G1 X6.578 Y15.726 E219.4490
G1 X2.880 Y16.461 E228.8541
G1 X1.382 Y16.916 E232.7599
G1 X0.060 Y17.046 E236.0746
G1 X-3.638 Y16.310 E245.4797
G1 X-5.197 Y16.157 E249.3855
G1 X-6.468 Y15.771 E252.7004
G1 X-9.603 Y13.676 E262.1055
G1 X-10.984 Y12.938 E266.0114
; layer 4, Z = 10
#LayerChange
; outer perimeter
G1 X-12.703 Y9.753 F4800
G1 Z10.000 F1000
G92 E0
G1 X-14.109 Y8.040 E5.5272 F600
G1 X-15.042 Y6.295 E10.4636
G1 X-15.469 Y4.149 E15.9213
G1 X-16.112 Y2.029 E21.4485
G1 X-16.306 Y0.060 E26.3846
G1 X-15.879 Y-2.086 E31.8423
G1 X-15.662 Y-4.291 E37.3696
G1 X-15.088 Y-6.185 E42.3058
G1 X-13.872 Y-8.004 E47.7636
G1 X-12.828 Y-9.958 E53.2909
G1 X-11.572 Y-11.488 E58.2268
G1 X-9.753 Y-12.703 E63.6846
G1 X-8.040 Y-14.109 E69.2119
G1 X-6.295 Y-15.042 E74.1482
G1 X-4.149 Y-15.469 E79.6059
G1 X-2.029 Y-16.112 E85.1331
G1 X-0.060 Y-16.306 E90.0693
G1 X2.086 Y-15.879 E95.5269
G1 X4.291 Y-15.662 E101.0542
G1 X6.185 Y-15.088 E105.9905
G1 X8.004 Y-13.872 E111.4482
G1 X9.958 Y-12.828 E116.9753
G1 X11.488 Y-11.572 E121.9116
G1 X12.703 Y-9.753 E127.3693
G1 X14.109 Y-8.040 E132.8966
G1 X15.042 Y-6.295 E137.8328
G1 X15.469 Y-4.149 E143.2905
G1 X16.112 Y-2.029 E148.8178
G1 X16.306 Y-0.060 E153.7539
G1 X15.879 Y2.086 E159.2116
G1 X15.662 Y4.291 E164.7389
G1 X15.088 Y6.185 E169.6751
G1 X13.872 Y8.004 E175.1328
G1 X12.828 Y9.958 E180.6601
G1 X11.572 Y11.488 E185.5962
G1 X9.753 Y12.703 E191.0539
G1 X8.040 Y14.109 E196.5813
G1 X6.295 Y15.042 E201.5175
G1 X4.149 Y15.469 E206.9752
G1 X2.029 Y16.112 E212.5024
G1 X0.060 Y16.306 E217.4385
G1 X-2.086 Y15.879 E222.8962
G1 X-4.291 Y15.662 E228.4235
G1 X-6.185 Y15.087 E233.3599
G1 X-8.004 Y13.872 E238.8175
G1 X-9.958 Y12.828 E244.3447
G1 X-11.488 Y11.572 E249.2808
G1 X-12.703 Y9.753 E254.7386
; layer 5, Z = 12.5
#LayerChange
; outer perimeter
G1 X-14.358 Y6.012 F4800
G1 Z12.500 F1000
G92 E0
G1 X-14.477 Y5.418 E1.5103 F600
G1 X-15.308 Y2.676 E8.6589
G1 X-15.566 Y0.060 E15.2164
G1 X-15.448 Y-0.534 E16.7267
G1 X-15.167 Y-3.386 E23.8755
G1 X-14.404 Y-5.902 E30.4332
G1 X-14.068 Y-6.405 E31.9435
G1 X-12.717 Y-8.933 E39.0922
G1 X-11.049 Y-10.965 E45.6497
G1 X-10.546 Y-11.301 E47.1600
G1 X-8.330 Y-13.119 E54.3087
G1 X-6.012 Y-14.358 E60.8664
G1 X-5.418 Y-14.477 E62.3767
G1 X-2.676 Y-15.308 E69.5254
G1 X-0.060 Y-15.566 E76.0829
G1 X0.534 Y-15.448 E77.5932
G1 X3.386 Y-15.167 E84.7419
G1 X5.902 Y-14.404 E91.2997
G1 X6.405 Y-14.068 E92.8099
G1 X8.933 Y-12.717 E99.9584
G1 X10.965 Y-11.049 E106.5162
G1 X11.301 Y-10.546 E108.0265
G1 X13.119 Y-8.330 E115.1752
G1 X14.358 Y-6.012 E121.7328
G1 X14.477 Y-5.418 E123.2431
G1 X15.308 Y-2.676 E130.3919
G1 X15.566 Y-0.060 E136.9494
G1 X15.448 Y0.534 E138.4596
G1 X15.167 Y3.386 E145.6084
G1 X14.404 Y5.902 E152.1661
G1 X14.068 Y6.405 E153.6764
G1 X12.717 Y8.933 E160.8251
G1 X11.049 Y10.965 E167.3826
G1 X10.546 Y11.301 E168.8929
G1 X8.330 Y13.119 E176.0417
G1 X6.012 Y14.358 E182.5993
G1 X5.418 Y14.477 E184.1096
G1 X2.676 Y15.308 E191.2583
G1 X0.060 Y15.566 E197.8158
G1 X-0.534 Y15.448 E199.3261
G1 X-3.386 Y15.167 E206.4749
G1 X-5.902 Y14.404 E213.0326
G1 X-6.405 Y14.068 E214.5428
G1 X-8.933 Y12.717 E221.6915
G1 X-10.965 Y11.049 E228.2491
G1 X-11.301 Y10.546 E229.7594
G1 X-13.119 Y8.330 E236.9081
G1 X-14.358 Y6.012 E243.4658
; layer 6, Z = 15
#LayerChange
; outer perimeter
G1 X16.088 Y2.708 F4800
G1 Z15.000 F1000
G92 E0
G1 X15.967 Y3.481 E1.9529 F600
G1 X15.191 Y6.038 E8.6182
G1 X13.886 Y8.480 E15.5245
G1 X13.529 Y9.185 E17.4966
G1 X11.826 Y11.260 E24.1925
G1 X11.268 Y11.820 E26.1661
G1 X9.184 Y13.530 E32.8891
G1 X6.764 Y14.824 E39.7348
G1 X6.060 Y15.184 E41.7083
G1 X3.491 Y15.964 E48.4047
G1 X2.710 Y16.088 E50.3781
G1 X0.004 Y16.355 E57.1608
G1 X-2.704 Y16.088 E63.9474
G1 X-3.485 Y15.965 E65.9206
G1 X-6.042 Y15.190 E72.5864
G1 X-8.483 Y13.885 E79.4901
G1 X-9.188 Y13.527 E81.4624
G1 X-11.263 Y11.824 E88.1584
G1 X-11.822 Y11.265 E90.1316
G1 X-13.533 Y9.181 E96.8571
G1 X-14.826 Y6.761 E103.7020
G1 X-15.185 Y6.056 E105.6740
G1 X-15.954 Y3.521 E112.2819
G1 X-16.228 Y0.744 E119.2433
G1 X-16.351 Y-0.036 E121.2126
G1 X-16.088 Y-2.708 E127.9102
G1 X-15.967 Y-3.481 E129.8631
G1 X-15.191 Y-6.038 E136.5285
G1 X-13.886 Y-8.480 E143.4347
G1 X-13.529 Y-9.185 E145.4068
G1 X-11.826 Y-11.260 E152.1030
G1 X-11.268 Y-11.820 E154.0761
G1 X-9.184 Y-13.530 E160.7992
G1 X-6.764 Y-14.824 E167.6455
G1 X-6.060 Y-15.184 E169.6185
G1 X-3.491 Y-15.964 E176.3149
G1 X-2.710 Y-16.088 E178.2882
G1 X-0.004 Y-16.355 E185.0710
G1 X2.704 Y-16.088 E191.8578
G1 X3.485 Y-15.965 E193.8308
G1 X6.042 Y-15.190 E200.4965
G1 X8.483 Y-13.885 E207.4003
G1 X9.188 Y-13.527 E209.3725
G1 X11.263 Y-11.824 E216.0684
G1 X11.823 Y-11.265 E218.0420
G1 X13.533 Y-9.181 E224.7673
G1 X14.826 Y-6.761 E231.6111
G1 X15.185 Y-6.056 E233.5842
G1 X15.954 Y-3.521 E240.1921
G1 X16.228 Y-0.744 E247.1536
G1 X16.351 Y0.036 E249.1228
G1 X16.088 Y2.708 E255.8204
; layer 7, Z = 17.5
#LayerChange
; outer perimeter
G1 X-12.084 Y13.834 F4800
G1 Z17.500 F1000
G92 E0
G1 X-13.830 Y12.090 E6.1555 F600
G1 X-15.132 Y10.504 E11.2750
G1 X-16.122 Y8.652 E16.5120
G1 X-17.242 Y6.454 E22.6680
G1 X-17.824 Y4.535 E27.6698
G1 X-18.035 Y2.398 E33.0252
G1 X-18.420 Y-0.036 E39.1723
G1 X-18.220 Y-2.067 E44.2639
G1 X-17.841 Y-4.482 E50.3616
G1 X-17.252 Y-6.423 E55.4209
G1 X-16.251 Y-8.296 E60.7211
G1 X-15.136 Y-10.497 E66.8754
G1 X-13.841 Y-12.075 E71.9651
G1 X-12.100 Y-13.823 E78.1207
G1 X-10.514 Y-15.124 E83.2378
G1 X-8.661 Y-16.115 E88.4787
G1 X-6.465 Y-17.239 E94.6330
G1 X-4.512 Y-17.831 E99.7234
G1 X-2.076 Y-18.220 E105.8788
G1 X-0.010 Y-18.424 E111.0556
G1 X2.056 Y-18.220 E116.2363
G1 X4.494 Y-17.837 E122.3915
G1 X6.435 Y-17.248 E127.4511
G1 X8.308 Y-16.247 E132.7489
G1 X10.507 Y-15.129 E138.9031
G1 X12.084 Y-13.834 E143.9932
G1 X13.830 Y-12.090 E150.1486
G1 X15.132 Y-10.504 E155.2679
G1 X16.122 Y-8.652 E160.5069
G1 X17.242 Y-6.454 E166.6610
G1 X17.824 Y-4.535 E171.6627
G1 X18.035 Y-2.398 E177.0182
G1 X18.420 Y0.036 E183.1653
G1 X18.220 Y2.067 E188.2570
G1 X17.841 Y4.482 E194.3546
G1 X17.252 Y6.423 E199.4139
G1 X16.251 Y8.296 E204.7141
G1 X15.136 Y10.497 E210.8684
G1 X13.841 Y12.075 E215.9581
G1 X12.100 Y13.823 E222.1139
G1 X10.514 Y15.124 E227.2308
G1 X8.662 Y16.115 E232.4711
G1 X6.465 Y17.239 E238.6260
G1 X4.512 Y17.831 E243.7165
G1 X2.076 Y18.220 E249.8719
G1 X0.010 Y18.424 E255.0486
G1 X-2.056 Y18.220 E260.2293
G1 X-4.494 Y17.837 E266.3845
G1 X-6.435 Y17.248 E271.4440
G1 X-8.308 Y16.247 E276.7419
G1 X-10.507 Y15.129 E282.8962
G1 X-12.084 Y13.834 E287.9861
; layer 8, Z = 20
#LayerChange
; outer perimeter
G1 X5.534 Y19.698 F4800
G1 Z20.000 F1000
G92 E0
G1 X1.442 Y20.352 E10.3373 F600
G1 X0.017 Y20.493 E13.9081
G1 X-1.409 Y20.352 E17.4828
G1 X-5.503 Y19.709 E27.8200
G1 X-6.828 Y19.307 E31.2737
G1 X-8.133 Y18.609 E34.9654
G1 X-11.826 Y16.731 E45.3017
