; G-Code generated by Simplify3D(R) Version 3.1.1
; Apr 30, 2019 at 8:00:03 AM
; Settings Summary
;   processName,Gutroff_Olli
;   applyToModels,test_o_lp
;   profileName,Default (modified)
;   profileVersion,2015-05-01 08:00:00
;   baseProfile,
;   printMaterial,PLA
;   printQuality,High
;   printExtruders,
;   extruderName,Primary Extruder
;   extruderToolheadNumber,0
;   extruderDiameter,1
;   extruderAutoWidth,0
;   extruderWidth,2.4
;   extrusionMultiplier,1
;   extruderUseRetract,0
;   extruderRetractionDistance,0
;   extruderExtraRestartDistance,0
;   extruderRetractionZLift,5
;   extruderRetractionSpeed,1800
;   extruderUseCoasting,0
;   extruderCoastingDistance,0.2
;   extruderUseWipe,0
;   extruderWipeDistance,5
;   primaryExtruder,0
;   layerHeight,2.5
;   topSolidLayers,0
;   bottomSolidLayers,0
;   perimeterOutlines,1
;   printPerimetersInsideOut,0
;   startPointOption,1
;   startPointOriginX,0
;   startPointOriginY,0
;   startPointOriginZ,300
;   sequentialIslands,0
;   spiralVaseMode,0
;   firstLayerHeightPercentage,100
;   firstLayerWidthPercentage,100
;   firstLayerUnderspeed,1
;   useRaft,0
;   raftExtruder,0
;   raftLayers,3
;   raftOffset,3
;   raftSeparationDistance,0.14
;   raftInfill,85
;   disableRaftBaseLayers,0
;   useSkirt,0
;   skirtExtruder,0
;   skirtLayers,2
;   skirtOutlines,2
;   skirtOffset,4
;   usePrimePillar,0
;   primePillarExtruder,999
;   primePillarWidth,12
;   primePillarLocation,7
;   primePillarSpeedMultiplier,1
;   useOozeShield,0
;   oozeShieldExtruder,999
;   oozeShieldOffset,2
;   oozeShieldOutlines,1
;   oozeShieldSidewallShape,1
;   oozeShieldSidewallAngle,30
;   oozeShieldSpeedMultiplier,1
;   infillExtruder,0
;   internalInfillPattern,Rectilinear
;   externalInfillPattern,Rectilinear
;   infillPercentage,0
;   outlineOverlapPercentage,99
;   infillExtrusionWidthPercentage,100
;   minInfillLength,4
;   infillLayerInterval,1
;   infillAngles,45,-45
;   overlapInfillAngles,0
;   generateSupport,0
;   supportExtruder,0
;   supportInfillPercentage,40
;   supportExtraInflation,0
;   denseSupportLayers,0
;   denseSupportInfillPercentage,70
;   supportLayerInterval,1
;   supportHorizontalPartOffset,0.3
;   supportUpperSeparationLayers,1
;   supportLowerSeparationLayers,1
;   supportType,0
;   supportGridSpacing,4
;   maxOverhangAngle,45
;   supportAngles,0
;   temperatureName,Primary Extruder
;   temperatureNumber,0
;   temperatureSetpointCount,1
;   temperatureSetpointLayers,1
;   temperatureSetpointTemperatures,0
;   temperatureStabilizeAtStartup,1
;   temperatureHeatedBed,0
;   temperatureRelayBetweenLayers,0
;   temperatureRelayBetweenLoops,0
;   fanLayers,1,2
;   fanSpeeds,0,100
;   blipFanToFullPower,0
;   adjustSpeedForCooling,0
;   minSpeedLayerTime,15
;   minCoolingSpeedSlowdown,20
;   increaseFanForCooling,0
;   minFanLayerTime,45
;   maxCoolingFanSpeed,100
;   increaseFanForBridging,0
;   bridgingFanSpeed,100
;   use5D,1
;   relativeEdistances,0
;   allowEaxisZeroing,1
;   independentExtruderAxes,0
;   includeM10123,0
;   stickySupport,1
;   applyToolheadOffsets,0
;   gcodeXoffset,0
;   gcodeYoffset,0
;   gcodeZoffset,0
;   overrideMachineDefinition,0
;   machineTypeOverride,0
;   strokeXoverride,200
;   strokeYoverride,200
;   strokeZoverride,200
;   originOffsetXoverride,0
;   originOffsetYoverride,0
;   originOffsetZoverride,0
;   homeXdirOverride,-1
;   homeYdirOverride,-1
;   homeZdirOverride,-1
;   flipXoverride,1
;   flipYoverride,-1
;   flipZoverride,1
;   toolheadOffsets,0,0|0,0|0,0|0,0|0,0|0,0
;   overrideFirmwareConfiguration,0
;   firmwareTypeOverride,RepRap (Marlin/Repetier/Sprinter)
;   GPXconfigOverride,r2
;   baudRateOverride,115200
;   overridePrinterModels,0
;   printerModelsOverride
;   startingGcode,##Start
;   layerChangeGcode,#LayerChange
;   retractionGcode,#Retraction
;   toolChangeGcode,
;   endingGcode,##End
;   exportFileFormat,gcode
;   celebration,0
;   celebrationSong,Random Song
;   postProcessing,
;   defaultSpeed,600
;   outlineUnderspeed,1
;   solidInfillUnderspeed,0.8
;   supportUnderspeed,0.8
;   rapidXYspeed,4800
;   rapidZspeed,1000
;   minBridgingArea,40
;   bridgingExtraInflation,1
;   bridgingExtrusionMultiplier,1
;   bridgingSpeedMultiplier,1
;   filamentDiameter,1.75
;   filamentPricePerKg,46
;   filamentDensity,1.25
;   useMinPrintHeight,0
;   minPrintHeight,0
;   useMaxPrintHeight,0
;   maxPrintHeight,0
;   useDiaphragm,0
;   diaphragmLayerInterval,3
;   robustSlicing,0
;   mergeAllIntoSolid,0
;   onlyRetractWhenCrossingOutline,1
;   retractBetweenLayers,0
;   useRetractionMinTravel,0
;   retractionMinTravel,3
;   retractWhileWiping,0
;   onlyWipeOutlines,1
;   avoidCrossingOutline,0
;   maxMovementDetourFactor,3
;   toolChangeRetractionDistance,0
;   toolChangeExtraRestartDistance,0
;   toolChangeRetractionSpeed,600
;   allowThinWallGapFill,1
;   thinWallAllowedOverlapPercentage,50
;   horizontalSizeCompensation,0
G90
M82
M106 S0
M104 S0 T0
##Start
G92 E0
#Retraction
G1 E0.0000 F1800
G1 Z7.500 F1000
; layer 1, Z = 2.5
#LayerChange
T0
; tool H2.500 W2.400
; outer perimeter
G1 X-0.021 Y30.468 F4800
G1 Z2.500 F1000
G1 E0.0000 F540
G92 E0
G1 X-20.826 Y21.850 E56.1743 F600
G1 X-29.444 Y1.045 E112.3485
G1 X-20.826 Y-19.760 E168.5227
G1 X-0.021 Y-28.378 E224.6970
G1 X20.784 Y-19.760 E280.8712
G1 X29.402 Y1.045 E337.0454
G1 X20.784 Y21.850 E393.2197
G1 X-0.021 Y30.468 E449.3939
; layer 2, Z = 5
M106 S255
#LayerChange
; outer perimeter
G1 X-21.846 Y22.871 F4800
G1 Z5.000 F1000
G92 E0
G1 X-30.887 Y1.045 E58.9300 F600
G1 X-21.846 Y-20.780 E117.8599
G1 X-0.021 Y-29.821 E176.7899
G1 X21.805 Y-20.780 E235.7199
G1 X30.846 Y1.045 E294.6498
G1 X21.805 Y22.871 E353.5798
G1 X-0.021 Y31.911 E412.5098
G1 X-21.846 Y22.871 E471.4398
; layer 3, Z = 7.5
#LayerChange
; outer perimeter
G1 X-22.867 Y23.891 F4800
G1 Z7.500 F1000
G92 E0
G1 X-32.330 Y1.045 E61.6857 F600
G1 X-22.867 Y-21.801 E123.3714
G1 X-0.021 Y-31.264 E185.0571
G1 X22.825 Y-21.801 E246.7428
G1 X32.289 Y1.045 E308.4285
G1 X22.825 Y23.891 E370.1142
G1 X-0.021 Y33.355 E431.7999
G1 X-22.867 Y23.891 E493.4856
; layer 4, Z = 10
#LayerChange
; outer perimeter
G1 X-23.887 Y-22.822 F4800
G1 Z10.000 F1000
G92 E0
G1 X-0.021 Y-32.708 E64.4414 F600
G1 X23.846 Y-22.822 E128.8829
G1 X33.732 Y1.045 E193.3243
G1 X23.846 Y24.912 E257.7657
G1 X-0.021 Y34.798 E322.2072
G1 X-23.887 Y24.912 E386.6486
G1 X-33.774 Y1.045 E451.0901
G1 X-23.887 Y-22.822 E515.5315
; layer 5, Z = 12.5
#LayerChange
; outer perimeter
G1 X24.867 Y-23.842 F4800
G1 Z12.500 F1000
G92 E0
G1 X35.176 Y1.045 E67.1972 F600
G1 X24.867 Y25.933 E134.3943
G1 X-0.021 Y36.241 E201.5915
G1 X-24.908 Y25.933 E268.7887
G1 X-35.217 Y1.045 E335.9859
G1 X-24.908 Y-23.842 E403.1830
G1 X-0.021 Y-34.151 E470.3802
G1 X24.867 Y-23.842 E537.5774
; layer 6, Z = 15
#LayerChange
; outer perimeter
G1 X36.619 Y1.045 F4800
G1 Z15.000 F1000
G92 E0
G1 X25.887 Y26.953 E69.9529 F600
G1 X-0.021 Y37.685 E139.9058
G1 X-25.929 Y26.953 E209.8587
G1 X-36.660 Y1.045 E279.8117
G1 X-25.929 Y-24.863 E349.7646
G1 X-0.021 Y-35.595 E419.7175
G1 X25.887 Y-24.863 E489.6704
G1 X36.619 Y1.045 E559.6232
; layer 7, Z = 17.5
#LayerChange
; outer perimeter
G1 X-0.021 Y39.128 F4800
G1 Z17.500 F1000
G92 E0
G1 X-26.949 Y27.974 E72.7087 F600
G1 X-38.104 Y1.045 E145.4173
G1 X-26.949 Y-25.884 E218.1260
G1 X-0.021 Y-37.038 E290.8346
G1 X26.908 Y-25.884 E363.5433
G1 X38.062 Y1.045 E436.2519
G1 X26.908 Y27.974 E508.9606
G1 X-0.021 Y39.128 E581.6692
; layer 8, Z = 20
#LayerChange
; outer perimeter
G1 X-0.021 Y40.572 F4800
G1 Z20.000 F1000
G92 E0
G1 X-27.970 Y28.994 E75.4644 F600
G1 X-39.547 Y1.045 E150.9288
G1 X-27.970 Y-26.904 E226.3931
G1 X-0.021 Y-38.481 E301.8575
G1 X27.929 Y-26.904 E377.3219
G1 X39.506 Y1.045 E452.7862
G1 X27.929 Y28.994 E528.2507
G1 X-0.021 Y40.572 E603.7150
; layer 9, Z = 22.5
#LayerChange
; outer perimeter
G1 X-28.991 Y-27.925 F4800
G1 Z22.500 F1000
G92 E0
G1 X-0.021 Y-39.925 E78.2201 F600
G1 X28.949 Y-27.925 E156.4402
G1 X40.949 Y1.045 E234.6603
G1 X28.949 Y30.015 E312.8804
G1 X-0.021 Y42.015 E391.1005
G1 X-28.991 Y30.015 E469.3207
G1 X-40.990 Y1.045 E547.5408
G1 X-28.991 Y-27.925 E625.7609
; layer 10, Z = 25
#LayerChange
; outer perimeter
G1 X-30.011 Y31.036 F4800
G1 Z25.000 F1000
G92 E0
G1 X-42.434 Y1.045 E80.9759 F600
G1 X-30.011 Y-28.945 E161.9517
G1 X-0.021 Y-41.368 E242.9275
G1 X29.970 Y-28.945 E323.9034
G1 X42.393 Y1.045 E404.8792
G1 X29.970 Y31.036 E485.8551
G1 X-0.021 Y43.458 E566.8309
G1 X-30.011 Y31.036 E647.8067
; layer 11, Z = 27.5
#LayerChange
; outer perimeter
G1 X-31.032 Y32.056 F4800
G1 Z27.500 F1000
G92 E0
G1 X-43.877 Y1.045 E83.7316 F600
G1 X-31.032 Y-29.966 E167.4631
G1 X-0.021 Y-42.811 E251.1947
G1 X30.991 Y-29.966 E334.9263
G1 X43.836 Y1.045 E418.6579
G1 X30.991 Y32.056 E502.3894
G1 X-0.021 Y44.902 E586.1210
G1 X-31.032 Y32.056 E669.8526
; layer 12, Z = 30
#LayerChange
; outer perimeter
G1 X45.279 Y1.045 F4800
G1 Z30.000 F1000
G92 E0
G1 X32.011 Y33.077 E86.4874 F600
G1 X-0.021 Y46.345 E172.9747
G1 X-32.053 Y33.077 E259.4620
G1 X-45.321 Y1.045 E345.9493
G1 X-32.053 Y-30.987 E432.4366
G1 X-0.021 Y-44.255 E518.9239
G1 X32.011 Y-30.987 E605.4112
G1 X45.279 Y1.045 E691.8985
; layer 13, Z = 32.5
#LayerChange
; outer perimeter
G1 X-33.073 Y-32.007 F4800
G1 Z32.500 F1000
G92 E0
G1 X-0.021 Y-45.698 E89.2431 F600
G1 X33.032 Y-32.007 E178.4861
G1 X46.723 Y1.045 E267.7291
G1 X33.032 Y34.098 E356.9721
G1 X-0.021 Y47.788 E446.2152
G1 X-33.073 Y34.098 E535.4582
G1 X-46.764 Y1.045 E624.7012
G1 X-33.073 Y-32.007 E713.9442
; layer 14, Z = 35
#LayerChange
; outer perimeter
G1 X-34.094 Y35.118 F4800
G1 Z35.000 F1000
G92 E0
G1 X-48.207 Y1.045 E91.9988 F600
G1 X-34.094 Y-33.028 E183.9975
G1 X-0.021 Y-47.142 E275.9963
G1 X34.052 Y-33.028 E367.9951
G1 X48.166 Y1.045 E459.9938
G1 X34.052 Y35.118 E551.9926
G1 X-0.021 Y49.232 E643.9914
G1 X-34.094 Y35.118 E735.9901
; layer 15, Z = 37.5
#LayerChange
; outer perimeter
G1 X-0.021 Y-46.727 F4800
G1 Z37.500 F1000
G92 E0
G1 X33.759 Y-32.735 E91.2074 F600
G1 X47.751 Y1.045 E182.4147
G1 X33.759 Y34.825 E273.6221
G1 X-0.021 Y48.817 E364.8295
G1 X-33.801 Y34.825 E456.0369
G1 X-47.793 Y1.045 E547.2442
G1 X-33.801 Y-32.735 E638.4516
G1 X-0.021 Y-46.727 E729.6590
; layer 16, Z = 40
#LayerChange
; outer perimeter
G1 X-32.780 Y-31.714 F4800
G1 Z40.000 F1000
G92 E0
G1 X-0.021 Y-45.284 E88.4516 F600
G1 X32.739 Y-31.714 E176.9033
G1 X46.308 Y1.045 E265.3549
G1 X32.739 Y33.804 E353.8065
G1 X-0.021 Y47.374 E442.2582
G1 X-32.780 Y33.804 E530.7098
G1 X-46.349 Y1.045 E619.1615
G1 X-32.780 Y-31.714 E707.6131
; layer 17, Z = 42.5
#LayerChange
; outer perimeter
G1 X31.718 Y32.784 F4800
G1 Z42.500 F1000
G92 E0
G1 X-0.021 Y45.931 E85.6959 F600
G1 X-31.759 Y32.784 E171.3918
G1 X-44.906 Y1.045 E257.0877
G1 X-31.759 Y-30.694 E342.7836
G1 X-0.021 Y-43.840 E428.4795
G1 X31.718 Y-30.694 E514.1754
G1 X44.865 Y1.045 E599.8713
G1 X31.718 Y32.784 E685.5673
; layer 18, Z = 45
#LayerChange
; outer perimeter
G1 X30.697 Y-29.673 F4800
G1 Z45.000 F1000
G92 E0
G1 X43.421 Y1.045 E82.9402 F600
G1 X30.697 Y31.763 E165.8804
G1 X-0.021 Y44.487 E248.8205
G1 X-30.739 Y31.763 E331.7607
G1 X-43.463 Y1.045 E414.7009
G1 X-30.739 Y-29.673 E497.6411
G1 X-0.021 Y-42.397 E580.5813
G1 X30.697 Y-29.673 E663.5214
; layer 19, Z = 47.5
#LayerChange
; outer perimeter
G1 X-0.021 Y43.044 F4800
G1 Z47.500 F1000
G92 E0
G1 X-29.718 Y30.743 E80.1844 F600
G1 X-42.019 Y1.045 E160.3689
G1 X-29.718 Y-28.652 E240.5533
G1 X-0.021 Y-40.954 E320.7378
G1 X29.677 Y-28.652 E400.9222
G1 X41.978 Y1.045 E481.1066
G1 X29.677 Y30.743 E561.2911
G1 X-0.021 Y43.044 E641.4755
; layer 20, Z = 50
#LayerChange
; outer perimeter
G1 X-28.698 Y-27.632 F4800
G1 Z50.000 F1000
G92 E0
G1 X-0.021 Y-39.510 E77.4287 F600
G1 X28.656 Y-27.632 E154.8574
G1 X40.535 Y1.045 E232.2861
G1 X28.656 Y29.722 E309.7148
G1 X-0.021 Y41.600 E387.1435
G1 X-28.698 Y29.722 E464.5722
G1 X-40.576 Y1.045 E542.0010
G1 X-28.698 Y-27.632 E619.4297
; layer 21, Z = 52.5
#LayerChange
; outer perimeter
G1 X-0.021 Y40.157 F4800
G1 Z52.500 F1000
G92 E0
G1 X-27.677 Y28.701 E74.6730 F600
G1 X-39.133 Y1.045 E149.3460
G1 X-27.677 Y-26.611 E224.0189
G1 X-0.021 Y-38.067 E298.6919
G1 X27.636 Y-26.611 E373.3649
G1 X39.091 Y1.045 E448.0379
G1 X27.636 Y28.701 E522.7109
G1 X-0.021 Y40.157 E597.3839
; layer 22, Z = 55
#LayerChange
; outer perimeter
G1 X-37.689 Y1.045 F4800
G1 Z55.000 F1000
G92 E0
G1 X-26.656 Y-25.590 E71.9172 F600
G1 X-0.021 Y-36.623 E143.8345
G1 X26.615 Y-25.590 E215.7517
G1 X37.648 Y1.045 E287.6689
G1 X26.615 Y27.681 E359.5862
G1 X-0.021 Y38.714 E431.5034
G1 X-26.656 Y27.681 E503.4207
G1 X-37.689 Y1.045 E575.3379
; layer 23, Z = 57.5
#LayerChange
; outer perimeter
G1 X25.594 Y-24.570 F4800
G1 Z57.500 F1000
G92 E0
G1 X36.204 Y1.045 E69.1615 F600
G1 X25.594 Y26.660 E138.3230
G1 X-0.021 Y37.270 E207.4845
G1 X-25.636 Y26.660 E276.6460
G1 X-36.246 Y1.045 E345.8075
G1 X-25.636 Y-24.570 E414.9690
G1 X-0.021 Y-35.180 E484.1305
G1 X25.594 Y-24.570 E553.2920
; layer 24, Z = 60
#LayerChange
; outer perimeter
G1 X-0.021 Y-33.737 F4800
G1 Z60.000 F1000
G92 E0
G1 X24.574 Y-23.549 E66.4058 F600
G1 X34.761 Y1.045 E132.8115
G1 X24.574 Y25.639 E199.2173
G1 X-0.021 Y35.827 E265.6231
G1 X-24.615 Y25.639 E332.0289
G1 X-34.802 Y1.045 E398.4347
G1 X-24.615 Y-23.549 E464.8404
G1 X-0.021 Y-33.737 E531.2462
; layer 25, Z = 62.5
#LayerChange
; outer perimeter
G1 X-23.594 Y24.619 F4800
G1 Z62.500 F1000
G92 E0
G1 X-33.359 Y1.045 E63.6501 F600
G1 X-23.594 Y-22.529 E127.3001
G1 X-0.021 Y-32.293 E190.9501
G1 X23.553 Y-22.529 E254.6002
G1 X33.318 Y1.045 E318.2502
G1 X23.553 Y24.619 E381.9002
G1 X-0.021 Y34.384 E445.5503
G1 X-23.594 Y24.619 E509.2003
; layer 26, Z = 65
#LayerChange
; outer perimeter
G1 X-22.574 Y23.598 F4800
G1 Z65.000 F1000
G92 E0
G1 X-31.916 Y1.045 E60.8943 F600
G1 X-22.574 Y-21.508 E121.7886
G1 X-0.021 Y-30.850 E182.6829
G1 X22.532 Y-21.508 E243.5772
G1 X31.874 Y1.045 E304.4715
G1 X22.532 Y23.598 E365.3658
G1 X-0.021 Y32.940 E426.2601
G1 X-22.574 Y23.598 E487.1544
; layer 27, Z = 67.5
#LayerChange
; outer perimeter
G1 X-30.472 Y1.045 F4800
G1 Z67.500 F1000
G92 E0
G1 X-21.553 Y-20.487 E58.1386 F600
G1 X-0.021 Y-29.407 E116.2771
G1 X21.512 Y-20.487 E174.4157
G1 X30.431 Y1.045 E232.5542
G1 X21.512 Y22.578 E290.6928
G1 X-0.021 Y31.497 E348.8314
G1 X-21.553 Y22.578 E406.9700
G1 X-30.472 Y1.045 E465.1086
; layer 28, Z = 70
#LayerChange
; outer perimeter
G1 X-0.021 Y30.053 F4800
G1 Z70.000 F1000
G92 E0
G1 X-20.532 Y21.557 E55.3828 F600
G1 X-29.029 Y1.045 E110.7657
G1 X-20.532 Y-19.467 E166.1485
G1 X-0.021 Y-27.963 E221.5313
G1 X20.491 Y-19.467 E276.9142
G1 X28.988 Y1.045 E332.2970
G1 X20.491 Y21.557 E387.6798
G1 X-0.021 Y30.053 E443.0627
; layer end
##End
; Build Summary
;   Build time: 0 hours 11 minutes
;   Filament length: 16506.7 mm (16.51 m)
;   Plastic volume: 39703.36 mm^3 (39.70 cc)
;   Plastic weight: 49.63 g (0.11 lb)
;   Material cost: 2.28
