; G-Code generated by Simplify3D(R) Version 3.1.1
; Apr 25, 2018 at 12:09:15 PM
; Settings Summary
;   processName,Process1
;   applyToModels,test_parallel
;   profileName,Default (modified)
;   profileVersion,2015-05-01 08:00:00
;   baseProfile,
;   printMaterial,PLA
;   printQuality,Medium
;   printExtruders,
;   extruderName,Primary Extruder
;   extruderToolheadNumber,0
;   extruderDiameter,1.1
;   extruderAutoWidth,1
;   extruderWidth,1.32
;   extrusionMultiplier,0.9
;   extruderUseRetract,0
;   extruderRetractionDistance,1
;   extruderExtraRestartDistance,0
;   extruderRetractionZLift,0
;   extruderRetractionSpeed,1800
;   extruderUseCoasting,0
;   extruderCoastingDistance,0.2
;   extruderUseWipe,0
;   extruderWipeDistance,5
;   primaryExtruder,0
;   layerHeight,1.1
;   topSolidLayers,0
;   bottomSolidLayers,0
;   perimeterOutlines,1
;   printPerimetersInsideOut,0
;   startPointOption,1
;   startPointOriginX,0
;   startPointOriginY,0
;   startPointOriginZ,300
;   sequentialIslands,0
;   spiralVaseMode,1
;   firstLayerHeightPercentage,100
;   firstLayerWidthPercentage,100
;   firstLayerUnderspeed,1
;   useRaft,0
;   raftExtruder,0
;   raftLayers,3
;   raftOffset,3
;   raftSeparationDistance,0.14
;   raftInfill,85
;   disableRaftBaseLayers,0
;   useSkirt,0
;   skirtExtruder,0
;   skirtLayers,1
;   skirtOutlines,2
;   skirtOffset,4
;   usePrimePillar,0
;   primePillarExtruder,999
;   primePillarWidth,12
;   primePillarLocation,7
;   primePillarSpeedMultiplier,1
;   useOozeShield,0
;   oozeShieldExtruder,999
;   oozeShieldOffset,2
;   oozeShieldOutlines,1
;   oozeShieldSidewallShape,1
;   oozeShieldSidewallAngle,30
;   oozeShieldSpeedMultiplier,1
;   infillExtruder,0
;   internalInfillPattern,Rectilinear
;   externalInfillPattern,Rectilinear
;   infillPercentage,0
;   outlineOverlapPercentage,15
;   infillExtrusionWidthPercentage,100
;   minInfillLength,5
;   infillLayerInterval,1
;   infillAngles,0,90
;   overlapInfillAngles,0
;   generateSupport,0
;   supportExtruder,0
;   supportInfillPercentage,30
;   supportExtraInflation,0
;   denseSupportLayers,0
;   denseSupportInfillPercentage,70
;   supportLayerInterval,1
;   supportHorizontalPartOffset,0.3
;   supportUpperSeparationLayers,1
;   supportLowerSeparationLayers,1
;   supportType,0
;   supportGridSpacing,4
;   maxOverhangAngle,45
;   supportAngles,0
;   temperatureName,Primary Extruder
;   temperatureNumber,0
;   temperatureSetpointCount,1
;   temperatureSetpointLayers,1
;   temperatureSetpointTemperatures,190
;   temperatureStabilizeAtStartup,1
;   temperatureHeatedBed,0
;   temperatureRelayBetweenLayers,0
;   temperatureRelayBetweenLoops,0
;   fanLayers,1,2
;   fanSpeeds,0,100
;   blipFanToFullPower,0
;   adjustSpeedForCooling,1
;   minSpeedLayerTime,15
;   minCoolingSpeedSlowdown,20
;   increaseFanForCooling,0
;   minFanLayerTime,45
;   maxCoolingFanSpeed,100
;   increaseFanForBridging,0
;   bridgingFanSpeed,100
;   use5D,1
;   relativeEdistances,0
;   allowEaxisZeroing,1
;   independentExtruderAxes,0
;   includeM10123,0
;   stickySupport,1
;   applyToolheadOffsets,0
;   gcodeXoffset,0
;   gcodeYoffset,0
;   gcodeZoffset,0
;   overrideMachineDefinition,0
;   machineTypeOverride,0
;   strokeXoverride,200
;   strokeYoverride,200
;   strokeZoverride,200
;   originOffsetXoverride,0
;   originOffsetYoverride,0
;   originOffsetZoverride,0
;   homeXdirOverride,-1
;   homeYdirOverride,-1
;   homeZdirOverride,-1
;   flipXoverride,1
;   flipYoverride,-1
;   flipZoverride,1
;   toolheadOffsets,0,0|0,0|0,0|0,0|0,0|0,0
;   overrideFirmwareConfiguration,0
;   firmwareTypeOverride,RepRap (Marlin/Repetier/Sprinter)
;   GPXconfigOverride,r2
;   baudRateOverride,115200
;   overridePrinterModels,0
;   printerModelsOverride
;   startingGcode,G28 ; home all axes
;   layerChangeGcode,
;   retractionGcode,
;   toolChangeGcode,
;   endingGcode,M104 S0 ; turn off extruder,M140 S0 ; turn off bed,M84 ; disable motors
;   exportFileFormat,gcode
;   celebration,0
;   celebrationSong,Random Song
;   postProcessing,
;   defaultSpeed,3600
;   outlineUnderspeed,0.5
;   solidInfillUnderspeed,0.8
;   supportUnderspeed,0.8
;   rapidXYspeed,4800
;   rapidZspeed,1000
;   minBridgingArea,50
;   bridgingExtraInflation,0
;   bridgingExtrusionMultiplier,1
;   bridgingSpeedMultiplier,1
;   filamentDiameter,1.75
;   filamentPricePerKg,46
;   filamentDensity,1.25
;   useMinPrintHeight,0
;   minPrintHeight,0
;   useMaxPrintHeight,0
;   maxPrintHeight,0
;   useDiaphragm,0
;   diaphragmLayerInterval,20
;   robustSlicing,1
;   mergeAllIntoSolid,0
;   onlyRetractWhenCrossingOutline,1
;   retractBetweenLayers,1
;   useRetractionMinTravel,0
;   retractionMinTravel,3
;   retractWhileWiping,0
;   onlyWipeOutlines,1
;   avoidCrossingOutline,0
;   maxMovementDetourFactor,3
;   toolChangeRetractionDistance,12
;   toolChangeExtraRestartDistance,-0.5
;   toolChangeRetractionSpeed,600
;   allowThinWallGapFill,1
;   thinWallAllowedOverlapPercentage,10
;   horizontalSizeCompensation,0
G90
M82
M106 S0
M104 S190 T0
M109 S190 T0
G28 ; home all axes
G92 E0
G1 E-1.0000 F1800
G1 Z0.000 F1000
; layer 1, Z = 1.1
T0
; tool H1.100 W1.320
; outer perimeter
G1 X-24.070 Y-16.563 F4800
G1 E0.0000 F540
G92 E0
G1 X-23.760 Y-16.616 Z0.000 E0.0855 F871
G1 X-18.882 Y-17.045 Z0.002 E1.4476
G1 X-18.568 Y-17.047 Z0.026 E1.5352
G1 X-18.257 Y-16.997 Z0.028 E1.6228
G1 X-13.503 Y-15.824 Z0.030 E3.0187
G1 X-13.205 Y-15.724 Z0.054 E3.1084
G1 X-12.928 Y-15.576 Z0.056 E3.1982
G1 X-8.809 Y-12.928 Z0.057 E4.6278
G1 X-8.559 Y-12.737 Z0.082 E4.7197
G1 X-8.344 Y-12.508 Z0.084 E4.8117
G1 X-5.304 Y-8.669 Z0.085 E6.2751
G1 X-5.129 Y-8.408 Z0.110 E6.3691
G1 X-5.000 Y-8.121 Z0.112 E6.4632
G1 X-3.366 Y-3.509 Z0.113 E7.9593
G1 X-3.259 Y-3.105 Z0.138 E8.0874
G1 X-2.720 Y-1.858 Z0.140 E8.5055
G1 X-1.598 Y-0.918 Z0.147 E8.9590
G1 X-0.249 Y-0.599 Z0.154 E9.3907
G1 X0.522 Y-0.599 Z0.161 E9.6318
G1 X1.871 Y-0.918 Z0.165 E10.0672
G1 X2.993 Y-1.858 Z0.172 E10.5298
G1 X3.521 Y-3.080 Z0.180 E10.9525
G1 X5.193 Y-7.798 Z0.186 E12.5740
G1 X5.253 Y-8.055 Z0.212 E12.6597
G1 X5.317 Y-8.236 Z0.213 E12.7218
G1 X5.385 Y-8.375 Z0.214 E12.7722
G1 X8.437 Y-12.228 Z0.215 E14.3982
G1 X8.577 Y-12.452 Z0.240 E14.4857
G1 X8.696 Y-12.602 Z0.241 E14.5492
G1 X8.805 Y-12.712 Z0.242 E14.6006
G1 X12.939 Y-15.370 Z0.243 E16.2603
G1 X13.144 Y-15.536 Z0.268 E16.3496
G1 X13.306 Y-15.640 Z0.269 E16.4144
G1 X13.444 Y-15.709 Z0.270 E16.4669
G1 X18.216 Y-16.885 Z0.271 E18.1604
G1 X18.464 Y-16.976 Z0.295 E18.2515
G1 X18.650 Y-17.022 Z0.297 E18.3176
G1 X18.803 Y-17.043 Z0.298 E18.3712
G1 X23.699 Y-16.613 Z0.299 E20.0986
G1 X23.963 Y-16.618 Z0.323 E20.1915
G1 X24.154 Y-16.602 Z0.325 E20.2590
G1 X24.306 Y-16.571 Z0.326 E20.3136
G1 X28.799 Y-14.580 Z0.326 E22.0750
G1 X29.051 Y-14.500 Z0.351 E22.1698
G1 X29.226 Y-14.422 Z0.353 E22.2385
G1 X29.360 Y-14.344 Z0.354 E22.2943
G1 X32.968 Y-11.006 Z0.354 E24.0898
G1 X33.180 Y-10.849 Z0.379 E24.1864
G1 X33.321 Y-10.719 Z0.381 E24.2565
G1 X33.422 Y-10.601 Z0.382 E24.3133
G1 X35.756 Y-6.274 Z0.382 E26.1431
G1 X35.906 Y-6.057 Z0.407 E26.2415
G1 X35.997 Y-5.888 Z0.408 E26.3129
G1 X36.055 Y-5.744 Z0.409 E26.3708
G1 X36.862 Y-0.893 Z0.410 E28.2350
G1 X36.933 Y-0.639 Z0.435 E28.3352
G1 X36.965 Y-0.450 Z0.436 E28.4080
G1 X36.973 Y-0.295 Z0.437 E28.4668
G1 X36.169 Y4.541 Z0.438 E30.3593
G1 X36.125 Y4.981 Z0.463 E30.5303
G1 X36.065 Y5.203 Z0.465 E30.6191
G1 X36.036 Y5.281 Z0.466 E30.6511
G1 X33.501 Y9.982 Z0.467 E32.7533
G1 X33.453 Y10.048 Z0.494 E32.7853
G1 X33.285 Y10.237 Z0.494 E32.8850
G1 X29.691 Y13.563 Z0.495 E34.8444
G1 X29.406 Y13.794 Z0.520 E34.9911
G1 X24.940 Y15.773 Z0.522 E36.9778
G1 X24.548 Y15.978 Z0.547 E37.1580
G1 X24.331 Y16.049 Z0.549 E37.2508
G1 X24.248 Y16.068 Z0.550 E37.2855
G1 X18.930 Y16.535 Z0.551 E39.4973
G1 X18.851 Y16.531 Z0.577 E39.5299
G1 X18.598 Y16.495 Z0.578 E39.6359
G1 X13.844 Y15.322 Z0.579 E41.6962
G1 X13.499 Y15.212 Z0.604 E41.8487
G1 X9.386 Y12.569 Z0.606 E43.9380
G1 X9.000 Y12.354 Z0.630 E44.1273
G1 X8.823 Y12.214 Z0.633 E44.2238
G1 X8.760 Y12.153 Z0.634 E44.2614
G1 X5.445 Y7.967 Z0.634 E46.5839
G1 X5.406 Y7.901 Z0.661 E46.6171
G1 X5.297 Y7.667 Z0.662 E46.7295
G1 X3.662 Y3.055 Z0.663 E48.8896
G1 X3.530 Y2.582 Z0.688 E49.1067
G1 X2.993 Y1.341 Z0.690 E49.7070
G1 X1.871 Y0.401 Z0.697 E50.3593
G1 X0.522 Y0.081 Z0.704 E50.9793
G1 X-0.249 Y0.081 Z0.711 E51.3251
G1 X-1.598 Y0.401 Z0.715 E51.9488
G1 X-2.720 Y1.341 Z0.722 E52.6103
G1 X-3.248 Y2.562 Z0.730 E53.2137
G1 X-4.917 Y7.272 Z0.736 E55.5111
G1 X-5.012 Y7.629 Z0.762 E55.6808
G1 X-5.118 Y7.865 Z0.764 E55.8003
G1 X-8.158 Y11.704 Z0.765 E58.0852
G1 X-8.363 Y12.010 Z0.790 E58.2573
G1 X-8.540 Y12.200 Z0.791 E58.3787
G1 X-12.659 Y14.848 Z0.793 E60.6973
G1 X-12.952 Y15.072 Z0.817 E60.8720
G1 X-13.181 Y15.194 Z0.819 E60.9952
G1 X-17.935 Y16.366 Z0.821 E63.3476
G1 X-18.284 Y16.484 Z0.845 E63.5248
G1 X-18.541 Y16.525 Z0.847 E63.6498
G1 X-23.418 Y16.096 Z0.849 E66.0360
G1 X-23.787 Y16.094 Z0.873 E66.2158
G1 X-24.043 Y16.050 Z0.875 E66.3425
G1 X-28.520 Y14.065 Z0.876 E68.7626
G1 X-28.868 Y13.944 Z0.901 E68.9450
G1 X-29.096 Y13.820 Z0.903 E69.0735
G1 X-32.690 Y10.493 Z0.904 E71.5275
G1 X-32.980 Y10.266 Z0.929 E71.7124
G1 X-33.155 Y10.074 Z0.931 E71.8427
G1 X-35.479 Y5.763 Z0.932 E74.3307
G1 X-35.680 Y5.454 Z0.957 E74.5181
G1 X-35.784 Y5.216 Z0.959 E74.6502
G1 X-36.588 Y0.385 Z0.960 E77.1722
G1 X-36.678 Y0.027 Z0.985 E77.3622
G1 X-36.699 Y-0.231 Z0.987 E77.4960
G1 X-35.895 Y-5.063 Z0.988 E80.0518
G1 X-35.865 Y-5.430 Z1.013 E80.2444
G1 X-35.795 Y-5.709 Z1.015 E80.3944
G1 X-35.669 Y-5.997 Z1.016 E80.5587
G1 X-33.345 Y-10.308 Z1.018 E83.1503
G1 X-33.174 Y-10.572 Z1.043 E83.3168
G1 X-32.961 Y-10.803 Z1.044 E83.4833
G1 X-29.367 Y-14.130 Z1.046 E86.1085
G1 X-29.120 Y-14.324 Z1.070 E86.2771
G1 X-28.844 Y-14.475 Z1.072 E86.4458
G1 X-24.367 Y-16.459 Z1.074 E89.1045
G1 X-24.070 Y-16.563 Z1.098 E89.2754
; layer 2, Z = 2.2
M106 S255
; outer perimeter
G92 E0
G1 X-22.981 Y-16.750 Z1.100 E0.6004 F872
G1 X-19.675 Y-17.040 Z1.106 E2.4032
G1 X-18.569 Y-17.047 Z1.122 E3.0044
G1 X-17.477 Y-16.871 Z1.128 E3.6054
G1 X-14.255 Y-16.077 Z1.134 E5.4081
G1 X-13.206 Y-15.724 Z1.150 E6.0092
G1 X-12.229 Y-15.205 Z1.156 E6.6103
G1 X-9.438 Y-13.411 Z1.161 E8.4130
G1 X-8.560 Y-12.738 Z1.178 E9.0141
G1 X-7.804 Y-11.931 Z1.184 E9.6151
G1 X-5.743 Y-9.330 Z1.189 E11.4179
G1 X-5.130 Y-8.409 Z1.206 E12.0190
G1 X-4.676 Y-7.400 Z1.212 E12.6201
G1 X-3.568 Y-4.275 Z1.217 E14.4215
G1 X-3.259 Y-3.105 Z1.234 E15.0791
G1 X-2.720 Y-1.858 Z1.240 E15.8168
G1 X-1.598 Y-0.918 Z1.247 E16.6123
G1 X-0.249 Y-0.599 Z1.254 E17.3651
G1 X0.522 Y-0.599 Z1.261 E17.7843
G1 X1.871 Y-0.918 Z1.265 E18.5371
G1 X2.993 Y-1.858 Z1.272 E19.3325
G1 X3.521 Y-3.080 Z1.280 E20.0554
G1 X4.666 Y-6.311 Z1.286 E21.9181
G1 X4.847 Y-7.083 Z1.304 E22.3487
G1 X5.088 Y-7.761 Z1.308 E22.7399
G1 X5.386 Y-8.377 Z1.311 E23.1112
G1 X7.457 Y-10.992 Z1.315 E24.9238
G1 X7.878 Y-11.663 Z1.332 E25.3543
G1 X8.325 Y-12.227 Z1.336 E25.7454
G1 X8.806 Y-12.713 Z1.339 E26.1168
G1 X11.612 Y-14.517 Z1.343 E27.9292
G1 X12.228 Y-15.016 Z1.360 E28.3597
G1 X12.834 Y-15.405 Z1.364 E28.7509
G1 X13.446 Y-15.709 Z1.367 E29.1222
G1 X16.684 Y-16.508 Z1.371 E30.9345
G1 X17.428 Y-16.781 Z1.387 E31.3651
G1 X18.127 Y-16.953 Z1.391 E31.7562
G1 X18.805 Y-17.043 Z1.395 E32.1276
G1 X22.128 Y-16.751 Z1.399 E33.9399
G1 X22.920 Y-16.768 Z1.415 E34.3704
G1 X23.637 Y-16.705 Z1.419 E34.7615
G1 X24.308 Y-16.571 Z1.423 E35.1329
G1 X27.357 Y-15.219 Z1.426 E36.9454
G1 X28.113 Y-14.979 Z1.443 E37.3759
G1 X28.771 Y-14.687 Z1.447 E37.7670
G1 X29.361 Y-14.343 Z1.451 E38.1384
G1 X31.810 Y-12.077 Z1.454 E39.9511
G1 X32.447 Y-11.606 Z1.471 E40.3817
G1 X32.975 Y-11.117 Z1.475 E40.7728
G1 X33.423 Y-10.600 Z1.479 E41.1442
G1 X35.007 Y-7.663 Z1.482 E42.9572
G1 X35.457 Y-7.011 Z1.499 E43.3878
G1 X35.799 Y-6.377 Z1.503 E43.7789
G1 X36.055 Y-5.743 Z1.507 E44.1503
G1 X36.603 Y-2.451 Z1.510 E45.9638
G1 X36.818 Y-1.688 Z1.527 E46.3944
G1 X36.936 Y-0.978 Z1.531 E46.7855
G1 X36.973 Y-0.295 Z1.535 E47.1568
G1 X36.428 Y2.983 Z1.538 E48.9625
G1 X36.290 Y4.369 Z1.555 E49.7189
G1 X36.065 Y5.202 Z1.562 E50.1881
G1 X35.923 Y5.577 Z1.566 E50.4058
G1 X33.686 Y9.725 Z1.568 E52.9663
G1 X33.454 Y10.047 Z1.592 E53.1818
G1 X32.864 Y10.712 Z1.594 E53.6652
G1 X30.428 Y12.966 Z1.599 E55.4681
G1 X29.404 Y13.795 Z1.615 E56.1837
G1 X26.381 Y15.134 Z1.622 E57.9802
G1 X25.147 Y15.781 Z1.639 E58.7374
G1 X24.333 Y16.049 Z1.646 E59.2028
G1 X23.935 Y16.138 Z1.650 E59.4244
G1 X19.241 Y16.549 Z1.652 E61.9841
G1 X18.852 Y16.531 Z1.676 E62.1957
G1 X17.964 Y16.403 Z1.678 E62.6831
G1 X14.743 Y15.608 Z1.682 E64.4856
G1 X13.500 Y15.213 Z1.699 E65.1944
G1 X10.707 Y13.420 Z1.706 E66.9976
G1 X9.490 Y12.743 Z1.723 E67.7545
G1 X8.824 Y12.215 Z1.730 E68.2161
G1 X8.526 Y11.926 Z1.734 E68.4417
G1 X5.602 Y8.230 Z1.736 E71.0017
G1 X5.407 Y7.902 Z1.760 E71.2092
G1 X5.023 Y7.083 Z1.762 E71.7007
G1 X3.916 Y3.958 Z1.766 E73.5020
G1 X3.530 Y2.582 Z1.783 E74.2782
G1 X2.993 Y1.341 Z1.790 E75.0132
G1 X1.871 Y0.401 Z1.797 E75.8086
G1 X0.522 Y0.081 Z1.804 E76.5615
G1 X-0.249 Y0.081 Z1.811 E76.9806
G1 X-1.598 Y0.401 Z1.815 E77.7335
G1 X-2.720 Y1.341 Z1.822 E78.5289
G1 X-3.248 Y2.562 Z1.830 E79.2518
G1 X-4.390 Y5.785 Z1.836 E81.1097
G1 X-4.687 Y6.908 Z1.854 E81.7403
G1 X-5.119 Y7.867 Z1.860 E82.3117
G1 X-7.179 Y10.467 Z1.865 E84.1142
G1 X-7.822 Y11.433 Z1.882 E84.7448
G1 X-8.541 Y12.201 Z1.887 E85.3162
G1 X-11.332 Y13.995 Z1.893 E87.1187
G1 X-12.253 Y14.700 Z1.909 E87.7493
G1 X-13.182 Y15.194 Z1.915 E88.3206
G1 X-16.403 Y15.989 Z1.921 E90.1232
G1 X-17.503 Y16.358 Z1.937 E90.7538
G1 X-18.542 Y16.525 Z1.943 E91.3252
G1 X-21.847 Y16.234 Z1.949 E93.1278
G1 X-23.008 Y16.228 Z1.965 E93.7584
G1 X-24.044 Y16.049 Z1.971 E94.3297
G1 X-27.078 Y14.705 Z1.976 E96.1324
G1 X-28.174 Y14.323 Z1.993 E96.7630
G1 X-29.097 Y13.819 Z1.999 E97.3344
G1 X-31.532 Y11.565 Z2.004 E99.1372
G1 X-32.445 Y10.849 Z2.021 E99.7678
G1 X-33.156 Y10.074 Z2.027 E100.3391
G1 X-34.730 Y7.153 Z2.032 E102.1421
G1 X-35.363 Y6.180 Z2.049 E102.7727
G1 X-35.784 Y5.216 Z2.055 E103.3440
G1 X-36.329 Y1.942 Z2.060 E105.1472
G1 X-36.613 Y0.817 Z2.077 E105.7778
G1 X-36.699 Y-0.231 Z2.083 E106.3491
G1 X-36.155 Y-3.505 Z2.088 E108.1523
G1 X-36.059 Y-4.662 Z2.105 E108.7829
G1 X-35.795 Y-5.708 Z2.111 E109.3692
G1 X-35.352 Y-6.722 Z2.116 E109.9702
G1 X-33.777 Y-9.644 Z2.122 E111.7734
G1 X-33.174 Y-10.571 Z2.139 E112.3745
G1 X-32.427 Y-11.387 Z2.144 E112.9755
G1 X-29.991 Y-13.641 Z2.150 E114.7786
G1 X-29.121 Y-14.324 Z2.166 E115.3797
G1 X-28.150 Y-14.854 Z2.172 E115.9807
G1 X-25.116 Y-16.198 Z2.178 E117.7836
G1 X-24.071 Y-16.562 Z2.194 E118.3847
; layer 3, Z = 3.3
; outer perimeter
G92 E0
G1 X-22.201 Y-16.884 Z2.200 E1.0307 F872
G1 X-20.469 Y-17.036 Z2.210 E1.9758
G1 X-18.570 Y-17.047 Z2.218 E3.0072
G1 X-16.696 Y-16.746 Z2.228 E4.0385
G1 X-15.007 Y-16.329 Z2.237 E4.9836
G1 X-13.207 Y-15.725 Z2.246 E6.0151
G1 X-11.531 Y-14.834 Z2.256 E7.0464
G1 X-10.068 Y-13.893 Z2.265 E7.9914
G1 X-8.561 Y-12.739 Z2.274 E9.0229
G1 X-7.263 Y-11.353 Z2.284 E10.0542
G1 X-6.183 Y-9.990 Z2.293 E10.9993
G1 X-5.131 Y-8.410 Z2.302 E12.0307
G1 X-4.351 Y-6.679 Z2.312 E13.0621
G1 X-3.771 Y-5.041 Z2.321 E14.0064
G1 X-3.259 Y-3.105 Z2.330 E15.0944
G1 X-2.720 Y-1.858 Z2.340 E15.8321
G1 X-1.598 Y-0.918 Z2.347 E16.6276
G1 X-0.249 Y-0.599 Z2.354 E17.3804
G1 X0.522 Y-0.599 Z2.361 E17.7995
G1 X1.870 Y-0.918 Z2.365 E18.5522
G1 X2.993 Y-1.858 Z2.372 E19.3478
G1 X3.521 Y-3.080 Z2.380 E20.0707
G1 X4.139 Y-4.824 Z2.386 E21.0764
G1 X4.441 Y-6.110 Z2.396 E21.7940
G1 X4.859 Y-7.287 Z2.402 E22.4722
G1 X5.386 Y-8.378 Z2.409 E23.1306
G1 X6.477 Y-9.755 Z2.415 E24.0854
G1 X7.179 Y-10.874 Z2.424 E24.8030
G1 X7.955 Y-11.852 Z2.430 E25.4812
G1 X8.807 Y-12.714 Z2.437 E26.1396
G1 X10.285 Y-13.664 Z2.443 E27.0944
G1 X11.312 Y-14.496 Z2.452 E27.8120
G1 X12.362 Y-15.170 Z2.458 E28.4902
G1 X13.447 Y-15.710 Z2.464 E29.1486
G1 X15.153 Y-16.131 Z2.471 E30.1033
G1 X16.393 Y-16.585 Z2.479 E30.8208
G1 X17.605 Y-16.884 Z2.486 E31.4991
G1 X18.806 Y-17.043 Z2.492 E32.1575
G1 X20.557 Y-16.889 Z2.499 E33.1122
G1 X21.877 Y-16.918 Z2.507 E33.8297
G1 X23.121 Y-16.809 Z2.514 E34.5080
