; G-Code generated by Simplify3D(R) Version 3.1.1
; Mar 19, 2019 at 7:01:51 PM
; Settings Summary
;   processName,Process3
;   applyToModels,ultrahose2
;   profileName,Default (modified)
;   profileVersion,2015-05-01 08:00:00
;   baseProfile,
;   printMaterial,PLA
;   printQuality,High
;   printExtruders,
;   extruderName,Primary Extruder
;   extruderToolheadNumber,0
;   extruderDiameter,1
;   extruderAutoWidth,0
;   extruderWidth,4
;   extrusionMultiplier,1
;   extruderUseRetract,1
;   extruderRetractionDistance,0
;   extruderExtraRestartDistance,0
;   extruderRetractionZLift,5
;   extruderRetractionSpeed,1800
;   extruderUseCoasting,0
;   extruderCoastingDistance,0.2
;   extruderUseWipe,0
;   extruderWipeDistance,5
;   primaryExtruder,0
;   layerHeight,1.3
;   topSolidLayers,0
;   bottomSolidLayers,0
;   perimeterOutlines,1
;   printPerimetersInsideOut,1
;   startPointOption,1
;   startPointOriginX,0
;   startPointOriginY,0
;   startPointOriginZ,300
;   sequentialIslands,1
;   spiralVaseMode,1
;   firstLayerHeightPercentage,115
;   firstLayerWidthPercentage,100
;   firstLayerUnderspeed,1
;   useRaft,0
;   raftExtruder,0
;   raftLayers,3
;   raftOffset,3
;   raftSeparationDistance,0.14
;   raftInfill,85
;   disableRaftBaseLayers,0
;   useSkirt,0
;   skirtExtruder,0
;   skirtLayers,2
;   skirtOutlines,2
;   skirtOffset,4
;   usePrimePillar,0
;   primePillarExtruder,999
;   primePillarWidth,12
;   primePillarLocation,7
;   primePillarSpeedMultiplier,1
;   useOozeShield,0
;   oozeShieldExtruder,999
;   oozeShieldOffset,2
;   oozeShieldOutlines,1
;   oozeShieldSidewallShape,1
;   oozeShieldSidewallAngle,30
;   oozeShieldSpeedMultiplier,1
;   infillExtruder,0
;   internalInfillPattern,Rectilinear
;   externalInfillPattern,Rectilinear
;   infillPercentage,0
;   outlineOverlapPercentage,0
;   infillExtrusionWidthPercentage,100
;   minInfillLength,5
;   infillLayerInterval,1
;   infillAngles,0,90
;   overlapInfillAngles,0
;   generateSupport,0
;   supportExtruder,0
;   supportInfillPercentage,40
;   supportExtraInflation,0
;   denseSupportLayers,0
;   denseSupportInfillPercentage,70
;   supportLayerInterval,1
;   supportHorizontalPartOffset,0.3
;   supportUpperSeparationLayers,1
;   supportLowerSeparationLayers,1
;   supportType,0
;   supportGridSpacing,4
;   maxOverhangAngle,45
;   supportAngles,0
;   temperatureName,Primary Extruder
;   temperatureNumber,0
;   temperatureSetpointCount,1
;   temperatureSetpointLayers,1
;   temperatureSetpointTemperatures,0
;   temperatureStabilizeAtStartup,1
;   temperatureHeatedBed,0
;   temperatureRelayBetweenLayers,0
;   temperatureRelayBetweenLoops,0
;   fanLayers,1,2
;   fanSpeeds,0,100
;   blipFanToFullPower,0
;   adjustSpeedForCooling,0
;   minSpeedLayerTime,15
;   minCoolingSpeedSlowdown,20
;   increaseFanForCooling,0
;   minFanLayerTime,45
;   maxCoolingFanSpeed,100
;   increaseFanForBridging,0
;   bridgingFanSpeed,100
;   use5D,1
;   relativeEdistances,0
;   allowEaxisZeroing,1
;   independentExtruderAxes,0
;   includeM10123,0
;   stickySupport,1
;   applyToolheadOffsets,0
;   gcodeXoffset,0
;   gcodeYoffset,0
;   gcodeZoffset,0
;   overrideMachineDefinition,0
;   machineTypeOverride,0
;   strokeXoverride,200
;   strokeYoverride,200
;   strokeZoverride,200
;   originOffsetXoverride,0
;   originOffsetYoverride,0
;   originOffsetZoverride,0
;   homeXdirOverride,-1
;   homeYdirOverride,-1
;   homeZdirOverride,-1
;   flipXoverride,1
;   flipYoverride,-1
;   flipZoverride,1
;   toolheadOffsets,0,0|0,0|0,0|0,0|0,0|0,0
;   overrideFirmwareConfiguration,0
;   firmwareTypeOverride,RepRap (Marlin/Repetier/Sprinter)
;   GPXconfigOverride,r2
;   baudRateOverride,115200
;   overridePrinterModels,0
;   printerModelsOverride
;   startingGcode,##Start
;   layerChangeGcode,#LayerChange
;   retractionGcode,#Retraction
;   toolChangeGcode,
;   endingGcode,##End
;   exportFileFormat,gcode
;   celebration,0
;   celebrationSong,Random Song
;   postProcessing,
;   defaultSpeed,600
;   outlineUnderspeed,1
;   solidInfillUnderspeed,0.8
;   supportUnderspeed,0.8
;   rapidXYspeed,4800
;   rapidZspeed,1000
;   minBridgingArea,40
;   bridgingExtraInflation,1
;   bridgingExtrusionMultiplier,1
;   bridgingSpeedMultiplier,1
;   filamentDiameter,1.75
;   filamentPricePerKg,46
;   filamentDensity,1.25
;   useMinPrintHeight,0
;   minPrintHeight,0
;   useMaxPrintHeight,0
;   maxPrintHeight,0
;   useDiaphragm,0
;   diaphragmLayerInterval,20
;   robustSlicing,0
;   mergeAllIntoSolid,0
;   onlyRetractWhenCrossingOutline,1
;   retractBetweenLayers,0
;   useRetractionMinTravel,0
;   retractionMinTravel,3
;   retractWhileWiping,0
;   onlyWipeOutlines,1
;   avoidCrossingOutline,0
;   maxMovementDetourFactor,3
;   toolChangeRetractionDistance,0
;   toolChangeExtraRestartDistance,0
;   toolChangeRetractionSpeed,600
;   allowThinWallGapFill,1
;   thinWallAllowedOverlapPercentage,50
;   horizontalSizeCompensation,0
G90
M82
M106 S0
M104 S0 T0
##Start
G92 E0
#Retraction
G1 E0.0000 F1800
G1 Z6.495 F1000
; layer 1, Z = 1.495
#LayerChange
T0
; tool H1.495 W4.000
; outer perimeter
G1 X-71.989 Y-18.440 F4800
G1 Z1.495 F1000
G1 E0.0000 F540
G92 E0
G1 X-66.281 Y-16.361 E15.1028 F600
G1 X-66.063 Y-16.303 E15.6638
G1 X-66.021 Y-16.273 E15.7914
G1 X-61.333 Y-12.339 E31.0069
G1 X-61.289 Y-12.295 E31.1630
G1 X-61.252 Y-12.242 E31.3228
G1 X-58.200 Y-6.959 E46.4920
G1 X-57.138 Y-0.935 E61.6991
G1 X-57.094 Y-0.772 E62.1195
G1 X-58.150 Y5.213 E77.2278
G1 X-58.165 Y5.381 E77.6482
G1 X-61.202 Y10.640 E92.7468
G1 X-61.273 Y10.794 E93.1683
G1 X-65.925 Y14.697 E108.2655
G1 X-66.045 Y14.817 E108.6858
G1 X-71.753 Y16.895 E123.7891
G1 X-71.906 Y16.966 E124.2086
G1 X-77.984 Y16.966 E139.3204
G1 X-78.152 Y16.981 E139.7399
G1 X-83.860 Y14.903 E154.8429
G1 X-84.078 Y14.844 E155.4039
G1 X-84.120 Y14.815 E155.5314
G1 X-88.808 Y10.881 E170.7468
G1 X-88.852 Y10.836 E170.9031
G1 X-88.889 Y10.784 E171.0627
G1 X-91.941 Y5.500 E186.2319
G1 X-93.003 Y-0.524 E201.4390
G1 X-93.047 Y-0.687 E201.8594
G1 X-91.991 Y-6.671 E216.9677
G1 X-91.977 Y-6.840 E217.3881
G1 X-88.939 Y-12.099 E232.4867
G1 X-88.868 Y-12.252 E232.9083
G1 X-84.216 Y-16.156 E248.0055
G1 X-84.097 Y-16.275 E248.4257
G1 X-78.388 Y-18.354 E263.5290
G1 X-78.236 Y-18.425 E263.9485
G1 X-72.157 Y-18.425 E279.0604
G1 X-71.989 Y-18.440 E279.4799
; outer perimeter
G1 X-28.133 Y-18.454 F4800
G92 E0
G1 X-22.027 Y-18.454 E15.1828 F600
G1 X-16.281 Y-16.361 E30.3842
G1 X-16.118 Y-16.318 E30.8054
G1 X-11.466 Y-12.414 E45.9023
G1 X-11.328 Y-12.317 E46.3229
G1 X-8.290 Y-7.058 E61.4220
G1 X-8.193 Y-6.919 E61.8423
G1 X-7.138 Y-0.935 E76.9507
G1 X-7.094 Y-0.772 E77.3702
G1 X-8.150 Y5.213 E92.4787
G1 X-8.169 Y5.437 E93.0399
G1 X-8.191 Y5.484 E93.1666
G1 X-11.252 Y10.784 E108.3836
G1 X-11.288 Y10.836 E108.5416
G1 X-11.333 Y10.881 E108.6995
G1 X-16.021 Y14.815 E123.9145
G1 X-16.073 Y14.851 E124.0721
G1 X-16.131 Y14.878 E124.2302
G1 X-21.883 Y16.973 E139.4508
G1 X-21.945 Y16.989 E139.6086
G1 X-22.008 Y16.995 E139.7662
G1 X-28.115 Y16.995 E154.9490
G1 X-33.860 Y14.903 E170.1505
G1 X-34.023 Y14.859 E170.5716
G1 X-38.675 Y10.955 E185.6685
G1 X-38.813 Y10.858 E186.0891
G1 X-41.851 Y5.599 E201.1881
G1 X-41.948 Y5.461 E201.6084
G1 X-43.004 Y-0.524 E216.7169
G1 X-43.047 Y-0.687 E217.1363
G1 X-41.991 Y-6.671 E232.2448
G1 X-41.972 Y-6.896 E232.8060
G1 X-41.950 Y-6.942 E232.9328
G1 X-38.889 Y-12.243 E248.1498
G1 X-38.853 Y-12.295 E248.3078
G1 X-38.808 Y-12.340 E248.4656
G1 X-34.120 Y-16.274 E263.6808
G1 X-34.068 Y-16.310 E263.8383
G1 X-34.010 Y-16.337 E263.9963
G1 X-28.258 Y-18.432 E279.2171
G1 X-28.197 Y-18.448 E279.3747
G1 X-28.133 Y-18.454 E279.5324
; outer perimeter
G1 X11.061 Y-12.099 F4800
G92 E0
G1 X11.132 Y-12.252 E0.4214 F600
G1 X15.784 Y-16.156 E15.5188
G1 X15.903 Y-16.275 E15.9389
G1 X21.612 Y-18.354 E31.0422
G1 X21.764 Y-18.425 E31.4617
G1 X27.843 Y-18.425 E46.5735
G1 X28.011 Y-18.440 E46.9932
G1 X33.719 Y-16.361 E62.0958
G1 X33.937 Y-16.303 E62.6570
G1 X33.979 Y-16.273 E62.7848
G1 X38.667 Y-12.339 E77.9999
G1 X38.711 Y-12.295 E78.1562
G1 X38.748 Y-12.242 E78.3156
G1 X41.800 Y-6.959 E93.4852
G1 X42.862 Y-0.935 E108.6921
G1 X42.906 Y-0.772 E109.1126
G1 X41.850 Y5.213 E124.2209
G1 X41.835 Y5.381 E124.6413
G1 X38.798 Y10.640 E139.7399
G1 X38.727 Y10.794 E140.1614
G1 X34.075 Y14.697 E155.2587
G1 X33.956 Y14.817 E155.6789
G1 X28.247 Y16.895 E170.7822
G1 X28.094 Y16.966 E171.2017
G1 X22.016 Y16.966 E186.3135
G1 X21.848 Y16.981 E186.7331
G1 X16.140 Y14.903 E201.8360
G1 X15.922 Y14.844 E202.3970
G1 X15.880 Y14.815 E202.5245
G1 X11.192 Y10.881 E217.7401
G1 X11.148 Y10.836 E217.8962
G1 X11.111 Y10.784 E218.0555
G1 X8.059 Y5.500 E233.2251
G1 X6.997 Y-0.524 E248.4320
G1 X6.953 Y-0.687 E248.8524
G1 X8.009 Y-6.671 E263.9608
G1 X8.023 Y-6.840 E264.3812
G1 X11.061 Y-12.099 E279.4799
; outer perimeter
G1 X91.852 Y-6.823 F4800
G92 E0
G1 X92.913 Y-0.811 E15.1784 F600
G1 X91.850 Y5.213 E30.3859
G1 X91.831 Y5.437 E30.9472
G1 X91.809 Y5.483 E31.0735
G1 X88.757 Y10.768 E46.2449
G1 X84.075 Y14.697 E61.4412
G1 X83.956 Y14.816 E61.8611
G1 X78.248 Y16.895 E76.9643
G1 X78.043 Y16.990 E77.5247
G1 X77.993 Y16.995 E77.6513
G1 X71.867 Y16.995 E92.8810
G1 X71.803 Y16.989 E93.0394
G1 X71.742 Y16.973 E93.1965
G1 X65.990 Y14.878 E108.4174
G1 X65.932 Y14.851 E108.5754
G1 X65.880 Y14.815 E108.7329
G1 X61.192 Y10.881 E123.9484
G1 X61.148 Y10.836 E124.1055
G1 X61.111 Y10.784 E124.2646
G1 X58.050 Y5.484 E139.4811
G1 X58.023 Y5.426 E139.6381
G1 X58.007 Y5.365 E139.7974
G1 X56.946 Y-0.648 E154.9757
G1 X58.009 Y-6.671 E170.1832
G1 X58.028 Y-6.896 E170.7445
G1 X58.050 Y-6.942 E170.8708
G1 X61.102 Y-12.227 E186.0424
G1 X65.784 Y-16.156 E201.2385
G1 X65.903 Y-16.275 E201.6585
G1 X71.611 Y-18.354 E216.7617
G1 X71.816 Y-18.449 E217.3222
G1 X71.866 Y-18.454 E217.4487
G1 X77.992 Y-18.454 E232.6784
G1 X78.055 Y-18.448 E232.8367
G1 X78.116 Y-18.432 E232.9938
G1 X83.869 Y-16.337 E248.2146
G1 X83.927 Y-16.310 E248.3728
G1 X83.979 Y-16.274 E248.5304
G1 X88.667 Y-12.340 E263.7458
G1 X88.711 Y-12.295 E263.9029
G1 X88.748 Y-12.242 E264.0621
G1 X91.809 Y-6.943 E279.2784
G1 X91.836 Y-6.885 E279.4356
G1 X91.852 Y-6.823 E279.5948
; layer 2, Z = 2.795
M106 S255
#LayerChange
; tool H1.300 W4.000
; outer perimeter
G1 X-66.602 Y-16.557 F4800
G1 Z2.795 F1000
G92 E0
G1 X-66.074 Y-16.310 E1.2613 F600
G1 X-65.522 Y-15.924 E2.7169
G1 X-61.763 Y-12.770 E13.3257
G1 X-61.289 Y-12.295 E14.7757
G1 X-60.902 Y-11.743 E16.2338
G1 X-58.448 Y-7.493 E26.8430
G1 X-58.201 Y-6.965 E28.1040
G1 X-57.348 Y-2.130 E38.7174
G1 X-57.129 Y-1.311 E40.5507
G1 X-57.086 Y-0.818 E41.6214
G1 X-57.939 Y4.017 E52.2353
G1 X-58.013 Y4.860 E54.0645
G1 X-58.141 Y5.341 E55.1407
G1 X-60.595 Y9.589 E65.7471
G1 X-60.953 Y10.357 E67.5777
G1 X-61.239 Y10.765 E68.6558
G1 X-64.997 Y13.919 E79.2610
G1 X-65.595 Y14.516 E81.0890
G1 X-66.003 Y14.802 E82.1664
G1 X-70.614 Y16.481 E92.7757
G1 X-71.381 Y16.838 E94.6037
G1 X-71.861 Y16.967 E95.6795
G1 X-76.772 Y16.967 E106.2951
G1 X-77.615 Y17.040 E108.1252
G1 X-78.109 Y16.997 E109.1977
G1 X-82.720 Y15.318 E119.8072
G1 X-83.539 Y15.098 E121.6391
G1 X-84.067 Y14.852 E122.9001
G1 X-84.619 Y14.465 E124.3559
G1 X-88.378 Y11.311 E134.9646
G1 X-88.852 Y10.837 E136.4148
G1 X-89.239 Y10.284 E137.8726
G1 X-91.693 Y6.035 E148.4818
G1 X-91.940 Y5.506 E149.7430
G1 X-92.793 Y0.671 E160.3564
G1 X-93.012 Y-0.148 E162.1897
G1 X-93.055 Y-0.641 E163.2603
G1 X-92.202 Y-5.476 E173.8742
G1 X-92.129 Y-6.319 E175.7034
G1 X-92.000 Y-6.800 E176.7797
G1 X-89.546 Y-11.048 E187.3861
G1 X-89.188 Y-11.816 E189.2166
G1 X-88.902 Y-12.224 E190.2947
G1 X-85.144 Y-15.377 E200.8999
G1 X-84.546 Y-15.975 E202.7279
G1 X-84.138 Y-16.261 E203.8053
G1 X-79.527 Y-17.940 E214.4147
G1 X-78.760 Y-18.297 E216.2426
G1 X-78.280 Y-18.426 E217.3184
G1 X-73.369 Y-18.426 E227.9341
G1 X-72.526 Y-18.499 E229.7642
G1 X-72.032 Y-18.456 E230.8367
G1 X-67.421 Y-16.776 E241.4462
G1 X-66.602 Y-16.557 E243.2779
; outer perimeter
G1 X-7.129 Y-1.311 F4800
G92 E0
G1 X-7.086 Y-0.818 E1.0714 F600
G1 X-7.939 Y4.017 E11.6853
G1 X-8.013 Y4.860 E13.5147
G1 X-8.164 Y5.425 E14.7788
G1 X-8.448 Y6.035 E16.2328
G1 X-10.902 Y10.284 E26.8425
G1 X-11.288 Y10.835 E28.2959
G1 X-11.763 Y11.311 E29.7506
G1 X-15.522 Y14.465 E40.3589
G1 X-16.073 Y14.851 E41.8118
G1 X-16.682 Y15.135 E43.2663
G1 X-21.295 Y16.815 E53.8788
G1 X-21.944 Y16.989 E55.3324
G1 X-22.615 Y17.048 E56.7872
G1 X-27.526 Y17.048 E67.4054
G1 X-28.109 Y16.997 E68.6696
G1 X-32.720 Y15.318 E79.2787
G1 X-33.538 Y15.098 E81.1103
G1 X-33.988 Y14.888 E82.1845
G1 X-37.746 Y11.735 E92.7900
G1 X-38.439 Y11.249 E94.6198
G1 X-38.791 Y10.898 E95.6950
G1 X-41.245 Y6.649 E106.3017
G1 X-41.730 Y5.956 E108.1315
G1 X-41.940 Y5.505 E109.2064
G1 X-42.793 Y0.670 E119.8198
G1 X-43.012 Y-0.148 E121.6505
G1 X-43.055 Y-0.641 E122.7219
G1 X-42.202 Y-5.476 E133.3358
G1 X-42.129 Y-6.319 E135.1652
G1 X-41.977 Y-6.884 E136.4292
G1 X-41.693 Y-7.493 E137.8834
G1 X-39.239 Y-11.743 E148.4929
G1 X-38.853 Y-12.294 E149.9465
G1 X-38.378 Y-12.770 E151.4009
G1 X-34.619 Y-15.924 E162.0095
G1 X-34.069 Y-16.310 E163.4622
G1 X-33.459 Y-16.594 E164.9167
G1 X-28.846 Y-18.274 E175.5292
G1 X-28.197 Y-18.448 E176.9828
G1 X-27.527 Y-18.507 E178.4376
G1 X-22.615 Y-18.507 E189.0559
G1 X-22.033 Y-18.456 E190.3199
G1 X-17.421 Y-16.777 E200.9292
G1 X-16.603 Y-16.557 E202.7607
G1 X-16.153 Y-16.347 E203.8351
G1 X-12.395 Y-13.194 E214.4405
G1 X-11.702 Y-12.708 E216.2703
G1 X-11.350 Y-12.356 E217.3455
G1 X-8.897 Y-8.108 E227.9522
G1 X-8.411 Y-7.415 E229.7819
G1 X-8.201 Y-6.964 E230.8570
G1 X-7.348 Y-2.129 E241.4703
G1 X-7.129 Y-1.311 E243.3010
; outer perimeter
G1 X11.148 Y10.837 F4800
G92 E0
G1 X10.761 Y10.284 E1.4579 F600
G1 X8.307 Y6.035 E12.0674
G1 X8.060 Y5.506 E13.3283
G1 X7.207 Y0.671 E23.9417
G1 X6.988 Y-0.148 E25.7751
G1 X6.945 Y-0.641 E26.8456
G1 X7.798 Y-5.476 E37.4596
G1 X7.871 Y-6.319 E39.2888
G1 X8.000 Y-6.800 E40.3650
G1 X10.454 Y-11.048 E50.9714
G1 X10.812 Y-11.816 E52.8020
G1 X11.098 Y-12.224 E53.8800
G1 X14.855 Y-15.377 E64.4852
G1 X15.454 Y-15.975 E66.3132
G1 X15.862 Y-16.261 E67.3906
G1 X20.473 Y-17.940 E78.0000
G1 X21.240 Y-18.297 E79.8280
G1 X21.720 Y-18.426 E80.9037
G1 X26.631 Y-18.426 E91.5194
G1 X27.474 Y-18.499 E93.3494
G1 X27.968 Y-18.456 E94.4220
G1 X32.579 Y-16.776 E105.0315
G1 X33.398 Y-16.557 E106.8632
G1 X33.926 Y-16.310 E108.1244
G1 X34.478 Y-15.924 E109.5803
G1 X38.237 Y-12.770 E120.1890
G1 X38.711 Y-12.295 E121.6389
G1 X39.098 Y-11.743 E123.0969
G1 X41.552 Y-7.493 E133.7062
G1 X41.799 Y-6.965 E134.9674
G1 X42.652 Y-2.130 E145.5806
G1 X42.871 Y-1.311 E147.4140
G1 X42.914 Y-0.818 E148.4846
G1 X42.061 Y4.017 E159.0985
G1 X41.987 Y4.860 E160.9278
G1 X41.859 Y5.341 E162.0039
G1 X39.405 Y9.589 E172.6104
G1 X39.047 Y10.357 E174.4409
G1 X38.761 Y10.765 E175.5190
G1 X35.003 Y13.919 E186.1242
G1 X34.405 Y14.516 E187.9522
G1 X33.997 Y14.802 E189.0295
G1 X29.386 Y16.481 E199.6389
G1 X28.619 Y16.838 E201.4669
G1 X28.139 Y16.967 E202.5427
G1 X23.228 Y16.967 E213.1583
G1 X22.385 Y17.040 E214.9885
G1 X21.891 Y16.997 E216.0609
G1 X17.280 Y15.318 E226.6705
G1 X16.461 Y15.098 E228.5022
G1 X15.933 Y14.852 E229.7634
G1 X15.381 Y14.465 E231.2192
G1 X11.622 Y11.311 E241.8279
G1 X11.148 Y10.837 E243.2779
; outer perimeter
G1 X88.236 Y-12.771 F4800
G92 E0
G1 X88.710 Y-12.296 E1.4516 F600
G1 X89.097 Y-11.744 E2.9097
G1 X91.552 Y-7.494 E13.5188
G1 X91.836 Y-6.885 E14.9717
G1 X92.010 Y-6.234 E16.4289
G1 X92.863 Y-1.398 E27.0452
G1 X92.914 Y-0.818 E28.3050
G1 X92.061 Y4.017 E38.9189
G1 X91.987 Y4.860 E40.7480
G1 X91.836 Y5.426 E42.0146
G1 X91.552 Y6.035 E43.4663
G1 X89.098 Y10.284 E54.0756
G1 X88.762 Y10.764 E55.3426
G1 X85.004 Y13.918 E65.9479
G1 X84.406 Y14.515 E67.7757
G1 X83.999 Y14.801 E68.8514
G1 X79.387 Y16.480 E79.4610
G1 X78.621 Y16.838 E81.2890
G1 X78.056 Y16.989 E82.5539
G1 X77.387 Y17.048 E84.0058
G1 X72.475 Y17.048 E94.6246
G1 X71.805 Y16.990 E96.0786
G1 X71.155 Y16.816 E97.5327
G1 X66.543 Y15.136 E108.1452
G1 X65.934 Y14.852 E109.5979
G1 X65.382 Y14.466 E111.0534
G1 X61.623 Y11.312 E121.6620
G1 X61.148 Y10.837 E123.1136
G1 X60.761 Y10.285 E124.5717
G1 X58.307 Y6.035 E135.1809
G1 X58.023 Y5.426 E136.6336
